P3
400 225
255
204 226 255
204 226 255
204 226 255
204 226 255
204 226 255
204 226 255
204 226 255
204 226 255
204 226 255
204 226 255
204 226 255
204 226 255
204 226 255
203 226 255
203 226 255
203 226 255
203 226 255
203 226 255
203 226 255
203 226 255
203 226 255
203 225 255
203 225 255
203 225 255
203 225 255
203 225 255
203 225 255
203 225 255
203 225 255
203 225 255
202 225 255
202 225 255
202 225 255
202 225 255
202 225 255
202 225 255
202 225 255
202 225 255
202 225 255
202 225 255
202 225 255
202 225 255
202 225 255
202 225 255
202 225 255
202 225 255
201 225 255
201 225 255
201 225 255
201 225 255
201 224 255
201 224 255
201 224 255
201 224 255
201 224 255
201 224 255
201 224 255
201 224 255
201 224 255
201 224 255
201 224 255
200 224 255
200 224 255
200 224 255
200 224 255
200 224 255
200 224 255
200 224 255
200 224 255
200 224 255
200 224 255
200 224 255
200 224 255
200 224 255
200 224 255
199 224 255
199 224 255
199 224 255
199 223 255
199 223 255
199 223 255
199 223 255
199 223 255
199 223 255
199 223 255
199 223 255
199 223 255
199 223 255
199 223 255
199 223 255
198 223 255
198 223 255
198 223 255
198 223 255
198 223 255
198 223 255
198 223 255
198 223 255
198 223 255
198 223 255
198 223 255
198 223 255
198 223 255
198 223 255
197 222 255
197 222 255
197 222 255
197 222 255
197 222 255
197 222 255
197 222 255
197 222 255
197 222 255
197 222 255
197 222 255
197 222 255
197 222 255
197 222 255
196 222 255
196 222 255
196 222 255
196 222 255
196 222 255
196 222 255
196 222 255
196 222 255
196 222 255
196 222 255
196 222 255
196 222 255
196 222 255
196 222 255
196 221 255
196 221 255
195 221 255
195 221 255
195 221 255
195 221 255
195 221 255
195 221 255
195 221 255
195 221 255
195 221 255
195 221 255
195 221 255
195 221 255
195 221 255
195 221 255
195 221 255
195 221 255
195 221 255
195 221 255
194 221 255
194 221 255
194 221 255
194 221 255
194 221 255
194 221 255
194 221 255
194 221 255
194 221 255
194 221 255
194 221 255
194 221 255
194 221 255
194 221 255
194 221 255
194 221 255
194 221 255
194 221 255
194 221 255
194 221 255
194 220 255
194 220 255
194 220 255
194 220 255
194 220 255
194 220 255
194 220 255
193 220 255
193 220 255
193 220 255
193 220 255
193 220 255
193 220 255
193 220 255
193 220 255
193 220 255
193 220 255
193 220 255
193 220 255
193 220 255
193 220 255
193 220 255
193 220 255
193 220 255
193 220 255
193 220 255
193 220 255
193 220 255
193 220 255
193 220 255
193 220 255
193 220 255
193 220 255
193 220 255
193 220 255
193 220 255
193 220 255
193 220 255
193 220 255
193 220 255
193 220 255
193 220 255
193 220 255
193 220 255
193 220 255
193 220 255
193 220 255
193 220 255
194 220 255
194 220 255
194 220 255
194 220 255
194 220 255
194 220 255
194 220 255
194 221 255
194 221 255
194 221 255
194 221 255
194 221 255
194 221 255
194 221 255
194 221 255
194 221 255
194 221 255
194 221 255
194 221 255
194 221 255
194 221 255
194 221 255
194 221 255
194 221 255
194 221 255
194 221 255
194 221 255
195 221 255
195 221 255
195 221 255
195 221 255
195 221 255
195 221 255
195 221 255
195 221 255
195 221 255
195 221 255
195 221 255
195 221 255
195 221 255
195 221 255
195 221 255
195 221 255
195 221 255
195 221 255
196 221 255
196 222 255
196 222 255
196 222 255
196 222 255
196 222 255
196 222 255
196 222 255
196 222 255
196 222 255
196 222 255
196 222 255
196 222 255
196 222 255
196 222 255
196 222 255
197 222 255
197 222 255
197 222 255
197 222 255
197 222 255
197 222 255
197 222 255
197 222 255
197 222 255
197 222 255
197 222 255
197 222 255
197 222 255
197 222 255
198 223 255
198 223 255
198 223 255
198 223 255
198 223 255
198 223 255
198 223 255
198 223 255
198 223 255
198 223 255
198 223 255
198 223 255
198 223 255
198 223 255
199 223 255
199 223 255
199 223 255
199 223 255
199 223 255
199 223 255
199 223 255
199 223 255
199 223 255
199 223 255
199 223 255
199 223 255
199 224 255
199 224 255
199 224 255
200 224 255
200 224 255
200 224 255
200 224 255
200 224 255
200 224 255
200 224 255
200 224 255
200 224 255
200 224 255
200 224 255
200 224 255
200 224 255
200 224 255
201 224 255
201 224 255
201 224 255
201 224 255
201 224 255
201 224 255
201 224 255
201 224 255
201 224 255
201 224 255
201 224 255
201 225 255
201 225 255
201 225 255
201 225 255
202 225 255
202 225 255
202 225 255
202 225 255
202 225 255
202 225 255
202 225 255
202 225 255
202 225 255
202 225 255
202 225 255
202 225 255
202 225 255
202 225 255
202 225 255
202 225 255
203 225 255
203 225 255
203 225 255
203 225 255
203 225 255
203 225 255
203 225 255
203 225 255
203 225 255
203 226 255
203 226 255
203 226 255
203 226 255
203 226 255
203 226 255
203 226 255
203 226 255
204 226 255
204 226 255
204 226 255
204 226 255
204 226 255
204 226 255
204 226 255
204 226 255
204 226 255
204 226 255
204 226 255
204 226 255
204 226 255
204 226 255
204 226 255
204 226 255
204 226 255
204 226 255
204 226 255
204 226 255
204 226 255
204 226 255
204 226 255
204 226 255
204 226 255
204 226 255
204 226 255
204 226 255
204 226 255
203 226 255
203 226 255
203 226 255
203 226 255
203 226 255
203 226 255
203 226 255
203 226 255
203 225 255
203 225 255
203 225 255
203 225 255
203 225 255
203 225 255
203 225 255
203 225 255
203 225 255
202 225 255
202 225 255
202 225 255
202 225 255
202 225 255
202 225 255
202 225 255
202 225 255
202 225 255
202 225 255
202 225 255
202 225 255
202 225 255
202 225 255
202 225 255
202 225 255
201 225 255
201 225 255
201 225 255
201 225 255
201 224 255
201 224 255
201 224 255
201 224 255
201 224 255
201 224 255
201 224 255
201 224 255
201 224 255
201 224 255
201 224 255
200 224 255
200 224 255
200 224 255
200 224 255
200 224 255
200 224 255
200 224 255
200 224 255
200 224 255
200 224 255
200 224 255
200 224 255
200 224 255
200 224 255
199 224 255
199 224 255
199 224 255
199 223 255
199 223 255
199 223 255
199 223 255
199 223 255
199 223 255
199 223 255
199 223 255
199 223 255
199 223 255
199 223 255
199 223 255
198 223 255
198 223 255
198 223 255
198 223 255
198 223 255
198 223 255
198 223 255
198 223 255
198 223 255
198 223 255
198 223 255
198 223 255
198 223 255
198 223 255
197 222 255
197 222 255
197 222 255
197 222 255
197 222 255
197 222 255
197 222 255
197 222 255
197 222 255
197 222 255
197 222 255
197 222 255
197 222 255
197 222 255
196 222 255
196 222 255
196 222 255
196 222 255
196 222 255
196 222 255
196 222 255
196 222 255
196 222 255
196 222 255
196 222 255
196 222 255
196 222 255
196 222 255
196 222 255
196 221 255
195 221 255
195 221 255
195 221 255
195 221 255
195 221 255
195 221 255
195 221 255
195 221 255
195 221 255
195 221 255
195 221 255
195 221 255
195 221 255
195 221 255
195 221 255
195 221 255
195 221 255
195 221 255
195 221 255
194 221 255
194 221 255
194 221 255
194 221 255
194 221 255
194 221 255
194 221 255
194 221 255
194 221 255
194 221 255
194 221 255
194 221 255
194 221 255
194 221 255
194 221 255
194 221 255
194 221 255
194 221 255
194 221 255
194 221 255
194 221 255
194 221 255
194 220 255
194 220 255
194 220 255
194 220 255
194 220 255
194 220 255
194 220 255
194 220 255
194 220 255
193 220 255
193 220 255
193 220 255
193 220 255
193 220 255
193 220 255
193 220 255
193 220 255
193 220 255
193 220 255
193 220 255
193 220 255
193 220 255
193 220 255
193 220 255
193 220 255
193 220 255
193 220 255
193 220 255
193 220 255
193 220 255
193 220 255
193 220 255
193 220 255
193 220 255
193 220 255
193 220 255
193 220 255
194 220 255
194 220 255
194 220 255
194 220 255
194 220 255
194 220 255
194 220 255
194 220 255
194 221 255
194 221 255
194 221 255
194 221 255
194 221 255
194 221 255
194 221 255
194 221 255
194 221 255
194 221 255
194 221 255
194 221 255
194 221 255
194 221 255
194 221 255
194 221 255
194 221 255
194 221 255
194 221 255
194 221 255
194 221 255
194 221 255
195 221 255
195 221 255
195 221 255
195 221 255
195 221 255
195 221 255
195 221 255
195 221 255
195 221 255
195 221 255
195 221 255
195 221 255
195 221 255
195 221 255
195 221 255
195 221 255
195 221 255
195 221 255
195 221 255
196 221 255
196 222 255
196 222 255
196 222 255
196 222 255
196 222 255
196 222 255
196 222 255
196 222 255
196 222 255
196 222 255
196 222 255
196 222 255
196 222 255
196 222 255
197 222 255
197 222 255
197 222 255
197 222 255
197 222 255
197 222 255
197 222 255
197 222 255
197 222 255
197 222 255
197 222 255
197 222 255
197 222 255
197 222 255
197 222 255
198 223 255
198 223 255
198 223 255
198 223 255
198 223 255
198 223 255
198 223 255
198 223 255
198 223 255
198 223 255
198 223 255
198 223 255
198 223 255
198 223 255
199 223 255
199 223 255
199 223 255
199 223 255
199 223 255
199 223 255
199 223 255
199 223 255
199 223 255
199 223 255
199 223 255
199 223 255
199 224 255
199 224 255
199 224 255
200 224 255
200 224 255
200 224 255
200 224 255
200 224 255
200 224 255
200 224 255
200 224 255
200 224 255
200 224 255
200 224 255
200 224 255
200 224 255
200 224 255
201 224 255
201 224 255
201 224 255
201 224 255
201 224 255
201 224 255
201 224 255
201 224 255
201 224 255
201 224 255
201 224 255
201 225 255
201 225 255
201 225 255
201 225 255
202 225 255
202 225 255
202 225 255
202 225 255
202 225 255
202 225 255
202 225 255
202 225 255
202 225 255
202 225 255
202 225 255
202 225 255
202 225 255
202 225 255
202 225 255
202 225 255
203 225 255
203 225 255
203 225 255
203 225 255
203 225 255
203 225 255
203 225 255
203 225 255
203 225 255
203 226 255
203 226 255
203 226 255
203 226 255
203 226 255
203 226 255
203 226 255
203 226 255
204 226 255
204 226 255
204 226 255
204 226 255
204 226 255
204 226 255
204 226 255
204 226 255
204 226 255
204 226 255
204 226 255
204 226 255
204 226 255
204 226 255
204 226 255
204 226 255
204 226 255
204 226 255
204 226 255
204 226 255
204 226 255
204 226 255
204 226 255
204 226 255
204 226 255
204 226 255
204 226 255
204 226 255
204 226 255
204 226 255
204 226 255
204 226 255
204 226 255
204 226 255
203 226 255
203 226 255
203 226 255
203 226 255
203 226 255
203 226 255
203 226 255
203 225 255
203 225 255
203 225 255
203 225 255
203 225 255
203 225 255
203 225 255
203 225 255
203 225 255
202 225 255
202 225 255
202 225 255
202 225 255
202 225 255
202 225 255
202 225 255
202 225 255
202 225 255
202 225 255
202 225 255
202 225 255
202 225 255
202 225 255
202 225 255
202 225 255
201 225 255
201 225 255
201 225 255
201 225 255
201 224 255
201 224 255
201 224 255
201 224 255
201 224 255
201 224 255
201 224 255
201 224 255
201 224 255
201 224 255
201 224 255
200 224 255
200 224 255
200 224 255
200 224 255
200 224 255
200 224 255
200 224 255
200 224 255
200 224 255
200 224 255
200 224 255
200 224 255
200 224 255
200 224 255
199 224 255
199 224 255
199 224 255
199 223 255
199 223 255
199 223 255
199 223 255
199 223 255
199 223 255
199 223 255
199 223 255
199 223 255
199 223 255
199 223 255
199 223 255
198 223 255
198 223 255
198 223 255
198 223 255
198 223 255
198 223 255
198 223 255
198 223 255
198 223 255
198 223 255
198 223 255
198 223 255
198 223 255
198 223 255
197 222 255
197 222 255
197 222 255
197 222 255
197 222 255
197 222 255
197 222 255
197 222 255
197 222 255
197 222 255
197 222 255
197 222 255
197 222 255
197 222 255
197 222 255
196 222 255
196 222 255
196 222 255
196 222 255
196 222 255
196 222 255
196 222 255
196 222 255
196 222 255
196 222 255
196 222 255
196 222 255
196 222 255
196 222 255
196 221 255
196 221 255
195 221 255
195 221 255
195 221 255
195 221 255
195 221 255
195 221 255
195 221 255
195 221 255
195 221 255
195 221 255
195 221 255
195 221 255
195 221 255
195 221 255
195 221 255
195 221 255
195 221 255
195 221 255
195 221 255
194 221 255
194 221 255
194 221 255
194 221 255
194 221 255
194 221 255
194 221 255
194 221 255
194 221 255
194 221 255
194 221 255
194 221 255
194 221 255
194 221 255
194 221 255
194 221 255
194 221 255
194 221 255
194 221 255
194 221 255
194 221 255
194 221 255
194 221 255
194 221 255
194 220 255
194 220 255
194 220 255
194 220 255
194 220 255
194 220 255
194 220 255
194 220 255
194 220 255
194 220 255
194 220 255
194 220 255
194 220 255
194 220 255
194 220 255
194 220 255
194 220 255
194 220 255
194 220 255
194 220 255
194 220 255
194 220 255
194 220 255
194 220 255
194 220 255
194 220 255
194 220 255
194 220 255
194 220 255
194 220 255
194 220 255
194 220 255
194 220 255
194 220 255
194 220 255
194 221 255
194 221 255
194 221 255
194 221 255
194 221 255
194 221 255
194 221 255
194 221 255
194 221 255
194 221 255
194 221 255
194 221 255
194 221 255
194 221 255
194 221 255
194 221 255
194 221 255
194 221 255
194 221 255
194 221 255
194 221 255
194 221 255
194 221 255
194 221 255
195 221 255
195 221 255
195 221 255
195 221 255
195 221 255
195 221 255
195 221 255
195 221 255
195 221 255
195 221 255
195 221 255
195 221 255
195 221 255
195 221 255
195 221 255
195 221 255
195 221 255
195 221 255
195 221 255
196 221 255
196 221 255
196 222 255
196 222 255
196 222 255
196 222 255
196 222 255
196 222 255
196 222 255
196 222 255
196 222 255
196 222 255
196 222 255
196 222 255
196 222 255
196 222 255
197 222 255
197 222 255
197 222 255
197 222 255
197 222 255
197 222 255
197 222 255
197 222 255
197 222 255
197 222 255
197 222 255
197 222 255
197 222 255
197 222 255
197 222 255
198 223 255
198 223 255
198 223 255
198 223 255
198 223 255
198 223 255
198 223 255
198 223 255
198 223 255
198 223 255
198 223 255
198 223 255
198 223 255
198 223 255
199 223 255
199 223 255
199 223 255
199 223 255
199 223 255
199 223 255
199 223 255
199 223 255
199 223 255
199 223 255
199 223 255
199 223 255
199 224 255
199 224 255
199 224 255
200 224 255
200 224 255
200 224 255
200 224 255
200 224 255
200 224 255
200 224 255
200 224 255
200 224 255
200 224 255
200 224 255
200 224 255
200 224 255
200 224 255
201 224 255
201 224 255
201 224 255
201 224 255
201 224 255
201 224 255
201 224 255
201 224 255
201 224 255
201 224 255
201 224 255
201 225 255
201 225 255
201 225 255
201 225 255
202 225 255
202 225 255
202 225 255
202 225 255
202 225 255
202 225 255
202 225 255
202 225 255
202 225 255
202 225 255
202 225 255
202 225 255
202 225 255
202 225 255
202 225 255
202 225 255
203 225 255
203 225 255
203 225 255
203 225 255
203 225 255
203 225 255
203 225 255
203 225 255
203 225 255
203 226 255
203 226 255
203 226 255
203 226 255
203 226 255
203 226 255
203 226 255
204 226 255
204 226 255
204 226 255
204 226 255
204 226 255
204 226 255
204 226 255
204 226 255
204 226 255
204 226 255
204 226 255
204 226 255
204 226 255
204 226 255
204 226 255
204 226 255
204 226 255
204 226 255
205 226 255
205 226 255
205 226 255
204 226 255
204 226 255
204 226 255
204 226 255
204 226 255
204 226 255
204 226 255
204 226 255
204 226 255
204 226 255
204 226 255
204 226 255
204 226 255
204 226 255
204 226 255
204 226 255
204 226 255
204 226 255
203 226 255
203 226 255
203 226 255
203 226 255
203 226 255
203 226 255
203 226 255
203 225 255
203 225 255
203 225 255
203 225 255
203 225 255
203 225 255
203 225 255
203 225 255
203 225 255
203 225 255
202 225 255
202 225 255
202 225 255
202 225 255
202 225 255
202 225 255
202 225 255
202 225 255
202 225 255
202 225 255
202 225 255
202 225 255
202 225 255
202 225 255
202 225 255
201 225 255
201 225 255
201 225 255
201 225 255
201 225 255
201 224 255
201 224 255
201 224 255
201 224 255
201 224 255
201 224 255
201 224 255
201 224 255
201 224 255
201 224 255
200 224 255
200 224 255
200 224 255
200 224 255
200 224 255
200 224 255
200 224 255
200 224 255
200 224 255
200 224 255
200 224 255
200 224 255
200 224 255
200 224 255
199 224 255
199 224 255
199 224 255
199 223 255
199 223 255
199 223 255
199 223 255
199 223 255
199 223 255
199 223 255
199 223 255
199 223 255
199 223 255
199 223 255
199 223 255
198 223 255
198 223 255
198 223 255
198 223 255
198 223 255
198 223 255
198 223 255
198 223 255
198 223 255
198 223 255
198 223 255
198 223 255
198 223 255
198 223 255
197 222 255
197 222 255
197 222 255
197 222 255
197 222 255
197 222 255
197 222 255
197 222 255
197 222 255
197 222 255
197 222 255
197 222 255
197 222 255
197 222 255
197 222 255
196 222 255
196 222 255
196 222 255
196 222 255
196 222 255
196 222 255
196 222 255
196 222 255
196 222 255
196 222 255
196 222 255
196 222 255
196 222 255
196 222 255
196 222 255
196 221 255
195 221 255
195 221 255
195 221 255
195 221 255
195 221 255
195 221 255
195 221 255
195 221 255
195 221 255
195 221 255
195 221 255
195 221 255
195 221 255
195 221 255
195 221 255
195 221 255
195 221 255
195 221 255
195 221 255
195 221 255
194 221 255
194 221 255
194 221 255
194 221 255
194 221 255
194 221 255
194 221 255
194 221 255
194 221 255
194 221 255
194 221 255
194 221 255
194 221 255
194 221 255
194 221 255
194 221 255
194 221 255
194 221 255
194 221 255
194 221 255
194 221 255
194 221 255
194 221 255
194 221 255
194 221 255
194 221 255
194 221 255
194 221 255
194 221 255
194 221 255
194 221 255
194 220 255
194 220 255
194 220 255
194 220 255
194 220 255
194 220 255
194 220 255
194 220 255
194 220 255
194 220 255
194 220 255
194 220 255
194 220 255
194 220 255
194 220 255
194 221 255
194 221 255
194 221 255
194 221 255
194 221 255
194 221 255
194 221 255
194 221 255
194 221 255
194 221 255
194 221 255
194 221 255
194 221 255
194 221 255
194 221 255
194 221 255
194 221 255
194 221 255
194 221 255
194 221 255
194 221 255
194 221 255
194 221 255
194 221 255
194 221 255
194 221 255
194 221 255
194 221 255
194 221 255
194 221 255
194 221 255
195 221 255
195 221 255
195 221 255
195 221 255
195 221 255
195 221 255
195 221 255
195 221 255
195 221 255
195 221 255
195 221 255
195 221 255
195 221 255
195 221 255
195 221 255
195 221 255
195 221 255
195 221 255
195 221 255
195 221 255
196 221 255
196 222 255
196 222 255
196 222 255
196 222 255
196 222 255
196 222 255
196 222 255
196 222 255
196 222 255
196 222 255
196 222 255
196 222 255
196 222 255
196 222 255
196 222 255
197 222 255
197 222 255
197 222 255
197 222 255
197 222 255
197 222 255
197 222 255
197 222 255
197 222 255
197 222 255
197 222 255
197 222 255
197 222 255
197 222 255
197 222 255
198 223 255
198 223 255
198 223 255
198 223 255
198 223 255
198 223 255
198 223 255
198 223 255
198 223 255
198 223 255
198 223 255
198 223 255
198 223 255
198 223 255
199 223 255
199 223 255
199 223 255
199 223 255
199 223 255
199 223 255
199 223 255
199 223 255
199 223 255
199 223 255
199 223 255
199 223 255
199 224 255
199 224 255
199 224 255
200 224 255
200 224 255
200 224 255
200 224 255
200 224 255
200 224 255
200 224 255
200 224 255
200 224 255
200 224 255
200 224 255
200 224 255
200 224 255
200 224 255
201 224 255
201 224 255
201 224 255
201 224 255
201 224 255
201 224 255
201 224 255
201 224 255
201 224 255
201 224 255
201 224 255
201 225 255
201 225 255
201 225 255
201 225 255
202 225 255
202 225 255
202 225 255
202 225 255
202 225 255
202 225 255
202 225 255
202 225 255
202 225 255
202 225 255
202 225 255
202 225 255
202 225 255
202 225 255
202 225 255
202 225 255
203 225 255
203 225 255
203 225 255
203 225 255
203 225 255
203 225 255
203 225 255
203 225 255
203 225 255
203 226 255
203 226 255
203 226 255
203 226 255
203 226 255
203 226 255
203 226 255
204 226 255
204 226 255
204 226 255
204 226 255
204 226 255
204 226 255
204 226 255
204 226 255
204 226 255
204 226 255
204 226 255
204 226 255
204 226 255
204 226 255
204 226 255
204 226 255
204 226 255
204 226 255
205 226 255
205 226 255
205 226 255
205 226 255
205 226 255
205 226 255
205 226 255
204 226 255
204 226 255
204 226 255
204 226 255
204 226 255
204 226 255
204 226 255
204 226 255
204 226 255
204 226 255
204 226 255
204 226 255
204 226 255
204 226 255
204 226 255
204 226 255
204 226 255
204 226 255
203 226 255
203 226 255
203 226 255
203 226 255
203 226 255
203 226 255
203 226 255
203 226 255
203 225 255
203 225 255
203 225 255
203 225 255
203 225 255
203 225 255
203 225 255
203 225 255
203 225 255
202 225 255
202 225 255
202 225 255
202 225 255
202 225 255
202 225 255
202 225 255
202 225 255
202 225 255
202 225 255
202 225 255
202 225 255
202 225 255
202 225 255
202 225 255
201 225 255
201 225 255
201 225 255
201 225 255
201 225 255
201 224 255
201 224 255
201 224 255
201 224 255
201 224 255
201 224 255
201 224 255
201 224 255
201 224 255
201 224 255
200 224 255
200 224 255
200 224 255
200 224 255
200 224 255
200 224 255
200 224 255
200 224 255
200 224 255
200 224 255
200 224 255
200 224 255
200 224 255
200 224 255
199 224 255
199 224 255
199 224 255
199 223 255
199 223 255
199 223 255
199 223 255
199 223 255
199 223 255
199 223 255
199 223 255
199 223 255
199 223 255
199 223 255
199 223 255
198 223 255
198 223 255
198 223 255
198 223 255
198 223 255
198 223 255
198 223 255
198 223 255
198 223 255
198 223 255
198 223 255
198 223 255
198 223 255
198 223 255
197 223 255
197 222 255
197 222 255
197 222 255
197 222 255
197 222 255
197 222 255
197 222 255
197 222 255
197 222 255
197 222 255
197 222 255
197 222 255
197 222 255
197 222 255
196 222 255
196 222 255
196 222 255
196 222 255
196 222 255
196 222 255
196 222 255
196 222 255
196 222 255
196 222 255
196 222 255
196 222 255
196 222 255
196 222 255
196 222 255
196 221 255
196 221 255
195 221 255
195 221 255
195 221 255
195 221 255
195 221 255
195 221 255
195 221 255
195 221 255
195 221 255
195 221 255
195 221 255
195 221 255
195 221 255
195 221 255
195 221 255
195 221 255
195 221 255
195 221 255
195 221 255
195 221 255
195 221 255
194 221 255
194 221 255
194 221 255
194 221 255
194 221 255
194 221 255
194 221 255
194 221 255
194 221 255
194 221 255
194 221 255
194 221 255
194 221 255
194 221 255
194 221 255
194 221 255
194 221 255
194 221 255
194 221 255
194 221 255
194 221 255
194 221 255
194 221 255
194 221 255
194 221 255
194 221 255
194 221 255
194 221 255
194 221 255
194 221 255
194 221 255
194 221 255
194 221 255
194 221 255
194 221 255
194 221 255
194 221 255
194 221 255
194 221 255
194 221 255
194 221 255
194 221 255
194 221 255
194 221 255
194 221 255
194 221 255
194 221 255
194 221 255
194 221 255
194 221 255
194 221 255
194 221 255
194 221 255
194 221 255
194 221 255
194 221 255
194 221 255
194 221 255
194 221 255
194 221 255
194 221 255
194 221 255
194 221 255
194 221 255
194 221 255
194 221 255
194 221 255
194 221 255
194 221 255
195 221 255
195 221 255
195 221 255
195 221 255
195 221 255
195 221 255
195 221 255
195 221 255
195 221 255
195 221 255
195 221 255
195 221 255
195 221 255
195 221 255
195 221 255
195 221 255
195 221 255
195 221 255
195 221 255
195 221 255
195 221 255
196 221 255
196 221 255
196 222 255
196 222 255
196 222 255
196 222 255
196 222 255
196 222 255
196 222 255
196 222 255
196 222 255
196 222 255
196 222 255
196 222 255
196 222 255
196 222 255
196 222 255
197 222 255
197 222 255
197 222 255
197 222 255
197 222 255
197 222 255
197 222 255
197 222 255
197 222 255
197 222 255
197 222 255
197 222 255
197 222 255
197 222 255
197 222 255
198 223 255
198 223 255
198 223 255
198 223 255
198 223 255
198 223 255
198 223 255
198 223 255
198 223 255
198 223 255
198 223 255
198 223 255
198 223 255
198 223 255
199 223 255
199 223 255
199 223 255
199 223 255
199 223 255
199 223 255
199 223 255
199 223 255
199 223 255
199 223 255
199 223 255
199 223 255
199 224 255
199 224 255
199 224 255
200 224 255
200 224 255
200 224 255
200 224 255
200 224 255
200 224 255
200 224 255
200 224 255
200 224 255
200 224 255
200 224 255
200 224 255
200 224 255
200 224 255
201 224 255
201 224 255
201 224 255
201 224 255
201 224 255
201 224 255
201 224 255
201 224 255
201 224 255
201 224 255
201 225 255
201 225 255
201 225 255
201 225 255
201 225 255
202 225 255
202 225 255
202 225 255
202 225 255
202 225 255
202 225 255
202 225 255
202 225 255
202 225 255
202 225 255
202 225 255
202 225 255
202 225 255
202 225 255
202 225 255
203 225 255
203 225 255
203 225 255
203 225 255
203 225 255
203 225 255
203 225 255
203 225 255
203 225 255
203 226 255
203 226 255
203 226 255
203 226 255
203 226 255
203 226 255
203 226 255
203 226 255
204 226 255
204 226 255
204 226 255
204 226 255
204 226 255
204 226 255
204 226 255
204 226 255
204 226 255
204 226 255
204 226 255
204 226 255
204 226 255
204 226 255
204 226 255
204 226 255
204 226 255
205 226 255
205 226 255
205 226 255
205 226 255
205 226 255
205 226 255
205 226 255
205 226 255
205 226 255
205 226 255
205 226 255
205 226 255
205 226 255
204 226 255
204 226 255
204 226 255
204 226 255
204 226 255
204 226 255
204 226 255
204 226 255
204 226 255
204 226 255
204 226 255
204 226 255
204 226 255
204 226 255
204 226 255
204 226 255
204 226 255
203 226 255
203 226 255
203 226 255
203 226 255
203 226 255
203 226 255
203 226 255
203 226 255
203 225 255
203 225 255
203 225 255
203 225 255
203 225 255
203 225 255
203 225 255
203 225 255
203 225 255
202 225 255
202 225 255
202 225 255
202 225 255
202 225 255
202 225 255
202 225 255
202 225 255
202 225 255
202 225 255
202 225 255
202 225 255
202 225 255
202 225 255
202 225 255
201 225 255
201 225 255
201 225 255
201 225 255
201 225 255
201 224 255
201 224 255
201 224 255
201 224 255
201 224 255
201 224 255
201 224 255
201 224 255
201 224 255
201 224 255
200 224 255
200 224 255
200 224 255
200 224 255
200 224 255
200 224 255
200 224 255
200 224 255
200 224 255
200 224 255
200 224 255
200 224 255
200 224 255
200 224 255
199 224 255
199 224 255
199 224 255
199 223 255
199 223 255
199 223 255
199 223 255
199 223 255
199 223 255
199 223 255
199 223 255
199 223 255
199 223 255
199 223 255
199 223 255
198 223 255
198 223 255
198 223 255
198 223 255
198 223 255
198 223 255
198 223 255
198 223 255
198 223 255
198 223 255
198 223 255
198 223 255
198 223 255
198 223 255
197 222 255
197 222 255
197 222 255
197 222 255
197 222 255
197 222 255
197 222 255
197 222 255
197 222 255
197 222 255
197 222 255
197 222 255
197 222 255
197 222 255
197 222 255
196 222 255
196 222 255
196 222 255
196 222 255
196 222 255
196 222 255
196 222 255
196 222 255
196 222 255
196 222 255
196 222 255
196 222 255
196 222 255
196 222 255
196 222 255
196 222 255
196 221 255
195 221 255
195 221 255
195 221 255
195 221 255
195 221 255
195 221 255
195 221 255
195 221 255
195 221 255
195 221 255
195 221 255
195 221 255
195 221 255
195 221 255
195 221 255
195 221 255
195 221 255
195 221 255
195 221 255
195 221 255
195 221 255
195 221 255
195 221 255
194 221 255
194 221 255
194 221 255
194 221 255
194 221 255
194 221 255
194 221 255
194 221 255
194 221 255
194 221 255
194 221 255
194 221 255
194 221 255
194 221 255
194 221 255
194 221 255
194 221 255
194 221 255
194 221 255
194 221 255
194 221 255
194 221 255
194 221 255
194 221 255
194 221 255
194 221 255
194 221 255
194 221 255
194 221 255
194 221 255
194 221 255
194 221 255
194 221 255
194 221 255
194 221 255
194 221 255
194 221 255
194 221 255
194 221 255
194 221 255
194 221 255
194 221 255
194 221 255
194 221 255
194 221 255
194 221 255
194 221 255
194 221 255
194 221 255
194 221 255
194 221 255
194 221 255
194 221 255
194 221 255
194 221 255
194 221 255
194 221 255
194 221 255
194 221 255
194 221 255
194 221 255
195 221 255
195 221 255
195 221 255
195 221 255
195 221 255
195 221 255
195 221 255
195 221 255
195 221 255
195 221 255
195 221 255
195 221 255
195 221 255
195 221 255
195 221 255
195 221 255
195 221 255
195 221 255
195 221 255
195 221 255
195 221 255
195 221 255
195 221 255
196 221 255
196 222 255
196 222 255
196 222 255
196 222 255
196 222 255
196 222 255
196 222 255
196 222 255
196 222 255
196 222 255
196 222 255
196 222 255
196 222 255
196 222 255
196 222 255
196 222 255
197 222 255
197 222 255
197 222 255
197 222 255
197 222 255
197 222 255
197 222 255
197 222 255
197 222 255
197 222 255
197 222 255
197 222 255
197 222 255
197 222 255
197 223 255
198 223 255
198 223 255
198 223 255
198 223 255
198 223 255
198 223 255
198 223 255
198 223 255
198 223 255
198 223 255
198 223 255
198 223 255
198 223 255
198 223 255
199 223 255
199 223 255
199 223 255
199 223 255
199 223 255
199 223 255
199 223 255
199 223 255
199 223 255
199 223 255
199 223 255
199 223 255
199 224 255
199 224 255
200 224 255
200 224 255
200 224 255
200 224 255
200 224 255
200 224 255
200 224 255
200 224 255
200 224 255
200 224 255
200 224 255
200 224 255
200 224 255
200 224 255
200 224 255
201 224 255
201 224 255
201 224 255
201 224 255
201 224 255
201 224 255
201 224 255
201 224 255
201 224 255
201 224 255
201 225 255
201 225 255
201 225 255
201 225 255
201 225 255
202 225 255
202 225 255
202 225 255
202 225 255
202 225 255
202 225 255
202 225 255
202 225 255
202 225 255
202 225 255
202 225 255
202 225 255
202 225 255
202 225 255
202 225 255
203 225 255
203 225 255
203 225 255
203 225 255
203 225 255
203 225 255
203 225 255
203 225 255
203 225 255
203 226 255
203 226 255
203 226 255
203 226 255
203 226 255
203 226 255
203 226 255
203 226 255
204 226 255
204 226 255
204 226 255
204 226 255
204 226 255
204 226 255
204 226 255
204 226 255
204 226 255
204 226 255
204 226 255
204 226 255
204 226 255
204 226 255
204 226 255
204 226 255
204 226 255
205 226 255
205 226 255
205 226 255
205 226 255
205 226 255
205 226 255
205 226 255
205 226 255
205 227 255
205 227 255
205 226 255
205 226 255
205 226 255
205 226 255
205 226 255
205 226 255
205 226 255
204 226 255
204 226 255
204 226 255
204 226 255
204 226 255
204 226 255
204 226 255
204 226 255
204 226 255
204 226 255
204 226 255
204 226 255
204 226 255
204 226 255
204 226 255
204 226 255
204 226 255
204 226 255
203 226 255
203 226 255
203 226 255
203 226 255
203 226 255
203 226 255
203 226 255
203 225 255
203 225 255
203 225 255
203 225 255
203 225 255
203 225 255
203 225 255
203 225 255
203 225 255
202 225 255
202 225 255
202 225 255
202 225 255
202 225 255
202 225 255
202 225 255
202 225 255
202 225 255
202 225 255
202 225 255
202 225 255
202 225 255
202 225 255
202 225 255
202 225 255
201 225 255
201 225 255
201 225 255
201 225 255
201 224 255
201 224 255
201 224 255
201 224 255
201 224 255
201 224 255
201 224 255
201 224 255
201 224 255
201 224 255
200 224 255
200 224 255
200 224 255
200 224 255
200 224 255
200 224 255
200 224 255
200 224 255
200 224 255
200 224 255
200 224 255
200 224 255
200 224 255
200 224 255
200 224 255
199 224 255
199 224 255
199 223 255
199 223 255
199 223 255
199 223 255
199 223 255
199 223 255
199 223 255
199 223 255
199 223 255
199 223 255
199 223 255
199 223 255
198 223 255
198 223 255
198 223 255
198 223 255
198 223 255
198 223 255
198 223 255
198 223 255
198 223 255
198 223 255
198 223 255
198 223 255
198 223 255
198 223 255
197 223 255
197 222 255
197 222 255
197 222 255
197 222 255
197 222 255
197 222 255
197 222 255
197 222 255
197 222 255
197 222 255
197 222 255
197 222 255
197 222 255
197 222 255
197 222 255
196 222 255
196 222 255
196 222 255
196 222 255
196 222 255
196 222 255
196 222 255
196 222 255
196 222 255
196 222 255
196 222 255
196 222 255
196 222 255
196 222 255
196 222 255
196 221 255
196 221 255
195 221 255
195 221 255
195 221 255
195 221 255
195 221 255
195 221 255
195 221 255
195 221 255
195 221 255
195 221 255
195 221 255
195 221 255
195 221 255
195 221 255
195 221 255
195 221 255
195 221 255
195 221 255
195 221 255
195 221 255
195 221 255
195 221 255
195 221 255
195 221 255
194 221 255
194 221 255
194 221 255
194 221 255
194 221 255
194 221 255
194 221 255
194 221 255
194 221 255
194 221 255
194 221 255
194 221 255
194 221 255
194 221 255
194 221 255
194 221 255
194 221 255
194 221 255
194 221 255
194 221 255
194 221 255
194 221 255
194 221 255
194 221 255
194 221 255
194 221 255
194 221 255
194 221 255
194 221 255
194 221 255
194 221 255
194 221 255
194 221 255
194 221 255
194 221 255
194 221 255
194 221 255
194 221 255
194 221 255
194 221 255
194 221 255
194 221 255
194 221 255
194 221 255
194 221 255
194 221 255
194 221 255
194 221 255
194 221 255
194 221 255
194 221 255
194 221 255
194 221 255
195 221 255
195 221 255
195 221 255
195 221 255
195 221 255
195 221 255
195 221 255
195 221 255
195 221 255
195 221 255
195 221 255
195 221 255
195 221 255
195 221 255
195 221 255
195 221 255
195 221 255
195 221 255
195 221 255
195 221 255
195 221 255
195 221 255
195 221 255
195 221 255
196 221 255
196 221 255
196 222 255
196 222 255
196 222 255
196 222 255
196 222 255
196 222 255
196 222 255
196 222 255
196 222 255
196 222 255
196 222 255
196 222 255
196 222 255
196 222 255
196 222 255
197 222 255
197 222 255
197 222 255
197 222 255
197 222 255
197 222 255
197 222 255
197 222 255
197 222 255
197 222 255
197 222 255
197 222 255
197 222 255
197 222 255
197 222 255
197 223 255
198 223 255
198 223 255
198 223 255
198 223 255
198 223 255
198 223 255
198 223 255
198 223 255
198 223 255
198 223 255
198 223 255
198 223 255
198 223 255
198 223 255
199 223 255
199 223 255
199 223 255
199 223 255
199 223 255
199 223 255
199 223 255
199 223 255
199 223 255
199 223 255
199 223 255
199 223 255
199 224 255
199 224 255
200 224 255
200 224 255
200 224 255
200 224 255
200 224 255
200 224 255
200 224 255
200 224 255
200 224 255
200 224 255
200 224 255
200 224 255
200 224 255
200 224 255
200 224 255
201 224 255
201 224 255
201 224 255
201 224 255
201 224 255
201 224 255
201 224 255
201 224 255
201 224 255
201 224 255
201 225 255
201 225 255
201 225 255
201 225 255
202 225 255
202 225 255
202 225 255
202 225 255
202 225 255
202 225 255
202 225 255
202 225 255
202 225 255
202 225 255
202 225 255
202 225 255
202 225 255
202 225 255
202 225 255
202 225 255
203 225 255
203 225 255
203 225 255
203 225 255
203 225 255
203 225 255
203 225 255
203 225 255
203 225 255
203 226 255
203 226 255
203 226 255
203 226 255
203 226 255
203 226 255
203 226 255
204 226 255
204 226 255
204 226 255
204 226 255
204 226 255
204 226 255
204 226 255
204 226 255
204 226 255
204 226 255
204 226 255
204 226 255
204 226 255
204 226 255
204 226 255
204 226 255
204 226 255
204 226 255
205 226 255
205 226 255
205 226 255
205 226 255
205 226 255
205 226 255
205 226 255
205 227 255
205 227 255
205 227 255
205 227 255
205 227 255
205 227 255
205 227 255
205 226 255
205 226 255
205 226 255
205 226 255
205 226 255
205 226 255
205 226 255
205 226 255
204 226 255
204 226 255
204 226 255
204 226 255
204 226 255
204 226 255
204 226 255
204 226 255
204 226 255
204 226 255
204 226 255
204 226 255
204 226 255
204 226 255
204 226 255
204 226 255
204 226 255
203 226 255
203 226 255
203 226 255
203 226 255
203 226 255
203 226 255
203 226 255
203 225 255
203 225 255
203 225 255
203 225 255
203 225 255
203 225 255
203 225 255
203 225 255
203 225 255
202 225 255
202 225 255
202 225 255
202 225 255
202 225 255
202 225 255
202 225 255
202 225 255
202 225 255
202 225 255
202 225 255
202 225 255
202 225 255
202 225 255
202 225 255
202 225 255
201 225 255
201 225 255
201 225 255
201 225 255
201 224 255
201 224 255
201 224 255
201 224 255
201 224 255
201 224 255
201 224 255
201 224 255
201 224 255
201 224 255
201 224 255
200 224 255
200 224 255
200 224 255
200 224 255
200 224 255
200 224 255
200 224 255
200 224 255
200 224 255
200 224 255
200 224 255
200 224 255
200 224 255
200 224 255
199 224 255
199 224 255
199 223 255
199 223 255
199 223 255
199 223 255
199 223 255
199 223 255
199 223 255
199 223 255
199 223 255
199 223 255
199 223 255
199 223 255
198 223 255
198 223 255
198 223 255
198 223 255
198 223 255
198 223 255
198 223 255
198 223 255
198 223 255
198 223 255
198 223 255
198 223 255
198 223 255
198 223 255
198 223 255
197 222 255
197 222 255
197 222 255
197 222 255
197 222 255
197 222 255
197 222 255
197 222 255
197 222 255
197 222 255
197 222 255
197 222 255
197 222 255
197 222 255
197 222 255
196 222 255
196 222 255
196 222 255
196 222 255
196 222 255
196 222 255
196 222 255
196 222 255
196 222 255
196 222 255
196 222 255
196 222 255
196 222 255
196 222 255
196 222 255
196 222 255
196 221 255
196 221 255
195 221 255
195 221 255
195 221 255
195 221 255
195 221 255
195 221 255
195 221 255
195 221 255
195 221 255
195 221 255
195 221 255
195 221 255
195 221 255
195 221 255
195 221 255
195 221 255
195 221 255
195 221 255
195 221 255
195 221 255
195 221 255
195 221 255
195 221 255
195 221 255
195 221 255
195 221 255
194 221 255
194 221 255
194 221 255
194 221 255
194 221 255
194 221 255
194 221 255
194 221 255
194 221 255
194 221 255
194 221 255
194 221 255
194 221 255
194 221 255
194 221 255
194 221 255
194 221 255
194 221 255
194 221 255
194 221 255
194 221 255
194 221 255
194 221 255
194 221 255
194 221 255
194 221 255
194 221 255
194 221 255
194 221 255
194 221 255
194 221 255
194 221 255
194 221 255
194 221 255
194 221 255
194 221 255
194 221 255
194 221 255
194 221 255
194 221 255
194 221 255
194 221 255
194 221 255
195 221 255
195 221 255
195 221 255
195 221 255
195 221 255
195 221 255
195 221 255
195 221 255
195 221 255
195 221 255
195 221 255
195 221 255
195 221 255
195 221 255
195 221 255
195 221 255
195 221 255
195 221 255
195 221 255
195 221 255
195 221 255
195 221 255
195 221 255
195 221 255
195 221 255
195 221 255
196 221 255
196 221 255
196 222 255
196 222 255
196 222 255
196 222 255
196 222 255
196 222 255
196 222 255
196 222 255
196 222 255
196 222 255
196 222 255
196 222 255
196 222 255
196 222 255
196 222 255
196 222 255
197 222 255
197 222 255
197 222 255
197 222 255
197 222 255
197 222 255
197 222 255
197 222 255
197 222 255
197 222 255
197 222 255
197 222 255
197 222 255
197 222 255
197 222 255
198 223 255
198 223 255
198 223 255
198 223 255
198 223 255
198 223 255
198 223 255
198 223 255
198 223 255
198 223 255
198 223 255
198 223 255
198 223 255
198 223 255
198 223 255
199 223 255
199 223 255
199 223 255
199 223 255
199 223 255
199 223 255
199 223 255
199 223 255
199 223 255
199 223 255
199 223 255
199 223 255
199 224 255
199 224 255
200 224 255
200 224 255
200 224 255
200 224 255
200 224 255
200 224 255
200 224 255
200 224 255
200 224 255
200 224 255
200 224 255
200 224 255
200 224 255
200 224 255
200 224 255
201 224 255
201 224 255
201 224 255
201 224 255
201 224 255
201 224 255
201 224 255
201 224 255
201 224 255
201 224 255
201 225 255
201 225 255
201 225 255
201 225 255
202 225 255
202 225 255
202 225 255
202 225 255
202 225 255
202 225 255
202 225 255
202 225 255
202 225 255
202 225 255
202 225 255
202 225 255
202 225 255
202 225 255
202 225 255
202 225 255
203 225 255
203 225 255
203 225 255
203 225 255
203 225 255
203 225 255
203 225 255
203 225 255
203 225 255
203 226 255
203 226 255
203 226 255
203 226 255
203 226 255
203 226 255
203 226 255
204 226 255
204 226 255
204 226 255
204 226 255
204 226 255
204 226 255
204 226 255
204 226 255
204 226 255
204 226 255
204 226 255
204 226 255
204 226 255
204 226 255
204 226 255
204 226 255
204 226 255
205 226 255
205 226 255
205 226 255
205 226 255
205 226 255
205 226 255
205 226 255
205 226 255
205 227 255
205 227 255
205 227 255
205 227 255
205 227 255
205 227 255
205 227 255
205 227 255
205 227 255
205 227 255
205 227 255
205 227 255
205 226 255
205 226 255
205 226 255
205 226 255
205 226 255
205 226 255
205 226 255
204 226 255
204 226 255
204 226 255
204 226 255
204 226 255
204 226 255
204 226 255
204 226 255
204 226 255
204 226 255
204 226 255
204 226 255
204 226 255
204 226 255
204 226 255
204 226 255
204 226 255
203 226 255
203 226 255
203 226 255
203 226 255
203 226 255
203 226 255
203 226 255
203 226 255
203 225 255
203 225 255
203 225 255
203 225 255
203 225 255
203 225 255
203 225 255
203 225 255
202 225 255
202 225 255
202 225 255
202 225 255
202 225 255
202 225 255
202 225 255
202 225 255
202 225 255
202 225 255
202 225 255
202 225 255
202 225 255
202 225 255
202 225 255
202 225 255
201 225 255
201 225 255
201 225 255
201 225 255
201 224 255
201 224 255
201 224 255
201 224 255
201 224 255
201 224 255
201 224 255
201 224 255
201 224 255
201 224 255
201 224 255
200 224 255
200 224 255
200 224 255
200 224 255
200 224 255
200 224 255
200 224 255
200 224 255
200 224 255
200 224 255
200 224 255
200 224 255
200 224 255
200 224 255
199 224 255
199 224 255
199 223 255
199 223 255
199 223 255
199 223 255
199 223 255
199 223 255
199 223 255
199 223 255
199 223 255
199 223 255
199 223 255
199 223 255
198 223 255
198 223 255
198 223 255
198 223 255
198 223 255
198 223 255
198 223 255
198 223 255
198 223 255
198 223 255
198 223 255
198 223 255
198 223 255
198 223 255
198 223 255
197 222 255
197 222 255
197 222 255
197 222 255
197 222 255
197 222 255
197 222 255
197 222 255
197 222 255
197 222 255
197 222 255
197 222 255
197 222 255
197 222 255
197 222 255
197 222 255
196 222 255
196 222 255
196 222 255
196 222 255
196 222 255
196 222 255
196 222 255
196 222 255
196 222 255
196 222 255
196 222 255
196 222 255
196 222 255
196 222 255
196 222 255
196 222 255
196 221 255
196 221 255
195 221 255
195 221 255
195 221 255
195 221 255
195 221 255
195 221 255
195 221 255
195 221 255
195 221 255
195 221 255
195 221 255
195 221 255
195 221 255
195 221 255
195 221 255
195 221 255
195 221 255
195 221 255
195 221 255
195 221 255
195 221 255
195 221 255
195 221 255
195 221 255
195 221 255
195 221 255
195 221 255
195 221 255
195 221 255
195 221 255
194 221 255
194 221 255
194 221 255
194 221 255
194 221 255
194 221 255
194 221 255
194 221 255
194 221 255
194 221 255
194 221 255
194 221 255
194 221 255
194 221 255
194 221 255
194 221 255
194 221 255
194 221 255
194 221 255
194 221 255
194 221 255
194 221 255
194 221 255
194 221 255
194 221 255
194 221 255
194 221 255
194 221 255
194 221 255
195 221 255
195 221 255
195 221 255
195 221 255
195 221 255
195 221 255
195 221 255
195 221 255
195 221 255
195 221 255
195 221 255
195 221 255
195 221 255
195 221 255
195 221 255
195 221 255
195 221 255
195 221 255
195 221 255
195 221 255
195 221 255
195 221 255
195 221 255
195 221 255
195 221 255
195 221 255
195 221 255
195 221 255
195 221 255
195 221 255
196 221 255
196 221 255
196 222 255
196 222 255
196 222 255
196 222 255
196 222 255
196 222 255
196 222 255
196 222 255
196 222 255
196 222 255
196 222 255
196 222 255
196 222 255
196 222 255
196 222 255
196 222 255
197 222 255
197 222 255
197 222 255
197 222 255
197 222 255
197 222 255
197 222 255
197 222 255
197 222 255
197 222 255
197 222 255
197 222 255
197 222 255
197 222 255
197 222 255
197 222 255
198 223 255
198 223 255
198 223 255
198 223 255
198 223 255
198 223 255
198 223 255
198 223 255
198 223 255
198 223 255
198 223 255
198 223 255
198 223 255
198 223 255
198 223 255
199 223 255
199 223 255
199 223 255
199 223 255
199 223 255
199 223 255
199 223 255
199 223 255
199 223 255
199 223 255
199 223 255
199 223 255
199 224 255
199 224 255
200 224 255
200 224 255
200 224 255
200 224 255
200 224 255
200 224 255
200 224 255
200 224 255
200 224 255
200 224 255
200 224 255
200 224 255
200 224 255
200 224 255
201 224 255
201 224 255
201 224 255
201 224 255
201 224 255
201 224 255
201 224 255
201 224 255
201 224 255
201 224 255
201 224 255
201 225 255
201 225 255
201 225 255
201 225 255
202 225 255
202 225 255
202 225 255
202 225 255
202 225 255
202 225 255
202 225 255
202 225 255
202 225 255
202 225 255
202 225 255
202 225 255
202 225 255
202 225 255
202 225 255
203 225 255
203 225 255
203 225 255
203 225 255
203 225 255
203 225 255
203 225 255
203 225 255
203 225 255
203 226 255
203 226 255
203 226 255
203 226 255
203 226 255
203 226 255
203 226 255
203 226 255
204 226 255
204 226 255
204 226 255
204 226 255
204 226 255
204 226 255
204 226 255
204 226 255
204 226 255
204 226 255
204 226 255
204 226 255
204 226 255
204 226 255
204 226 255
204 226 255
204 226 255
205 226 255
205 226 255
205 226 255
205 226 255
205 226 255
205 226 255
205 226 255
205 227 255
205 227 255
205 227 255
205 227 255
205 227 255
205 227 255
205 227 255
205 227 255
205 227 255
205 227 255
205 227 255
205 227 255
205 227 255
205 227 255
205 227 255
205 227 255
205 227 255
205 226 255
205 226 255
205 226 255
205 226 255
205 226 255
205 226 255
205 226 255
205 226 255
204 226 255
204 226 255
204 226 255
204 226 255
204 226 255
204 226 255
204 226 255
204 226 255
204 226 255
204 226 255
204 226 255
204 226 255
204 226 255
204 226 255
204 226 255
204 226 255
204 226 255
203 226 255
203 226 255
203 226 255
203 226 255
203 226 255
203 226 255
203 226 255
203 225 255
203 225 255
203 225 255
203 225 255
203 225 255
203 225 255
203 225 255
203 225 255
203 225 255
202 225 255
202 225 255
202 225 255
202 225 255
202 225 255
202 225 255
202 225 255
202 225 255
202 225 255
202 225 255
202 225 255
202 225 255
202 225 255
202 225 255
202 225 255
201 225 255
201 225 255
201 225 255
201 225 255
201 225 255
201 224 255
201 224 255
201 224 255
201 224 255
201 224 255
201 224 255
201 224 255
201 224 255
201 224 255
201 224 255
200 224 255
200 224 255
200 224 255
200 224 255
200 224 255
200 224 255
200 224 255
200 224 255
200 224 255
200 224 255
200 224 255
200 224 255
200 224 255
200 224 255
199 224 255
199 224 255
199 223 255
199 223 255
199 223 255
199 223 255
199 223 255
199 223 255
199 223 255
199 223 255
199 223 255
199 223 255
199 223 255
199 223 255
198 223 255
198 223 255
198 223 255
198 223 255
198 223 255
198 223 255
198 223 255
198 223 255
198 223 255
198 223 255
198 223 255
198 223 255
198 223 255
198 223 255
198 223 255
197 223 255
197 222 255
197 222 255
197 222 255
197 222 255
197 222 255
197 222 255
197 222 255
197 222 255
197 222 255
197 222 255
197 222 255
197 222 255
197 222 255
197 222 255
197 222 255
196 222 255
196 222 255
196 222 255
196 222 255
196 222 255
196 222 255
196 222 255
196 222 255
196 222 255
196 222 255
196 222 255
196 222 255
196 222 255
196 222 255
196 222 255
196 222 255
196 222 255
196 221 255
196 221 255
195 221 255
195 221 255
195 221 255
195 221 255
195 221 255
195 221 255
195 221 255
195 221 255
195 221 255
195 221 255
195 221 255
195 221 255
195 221 255
195 221 255
195 221 255
195 221 255
195 221 255
195 221 255
195 221 255
195 221 255
195 221 255
195 221 255
195 221 255
195 221 255
195 221 255
195 221 255
195 221 255
195 221 255
195 221 255
195 221 255
195 221 255
195 221 255
195 221 255
195 221 255
195 221 255
195 221 255
195 221 255
195 221 255
195 221 255
195 221 255
195 221 255
195 221 255
195 221 255
195 221 255
195 221 255
195 221 255
195 221 255
195 221 255
195 221 255
195 221 255
195 221 255
195 221 255
195 221 255
195 221 255
195 221 255
195 221 255
195 221 255
195 221 255
195 221 255
195 221 255
195 221 255
195 221 255
195 221 255
195 221 255
195 221 255
195 221 255
195 221 255
195 221 255
195 221 255
195 221 255
195 221 255
195 221 255
195 221 255
195 221 255
195 221 255
195 221 255
195 221 255
195 221 255
195 221 255
195 221 255
195 221 255
195 221 255
195 221 255
196 221 255
196 221 255
196 222 255
196 222 255
196 222 255
196 222 255
196 222 255
196 222 255
196 222 255
196 222 255
196 222 255
196 222 255
196 222 255
196 222 255
196 222 255
196 222 255
196 222 255
196 222 255
196 222 255
197 222 255
197 222 255
197 222 255
197 222 255
197 222 255
197 222 255
197 222 255
197 222 255
197 222 255
197 222 255
197 222 255
197 222 255
197 222 255
197 222 255
197 222 255
197 223 255
198 223 255
198 223 255
198 223 255
198 223 255
198 223 255
198 223 255
198 223 255
198 223 255
198 223 255
198 223 255
198 223 255
198 223 255
198 223 255
198 223 255
199 223 255
199 223 255
199 223 255
199 223 255
199 223 255
199 223 255
199 223 255
199 223 255
199 223 255
199 223 255
199 223 255
199 223 255
199 223 255
199 224 255
199 224 255
200 224 255
200 224 255
200 224 255
200 224 255
200 224 255
200 224 255
200 224 255
200 224 255
200 224 255
200 224 255
200 224 255
200 224 255
200 224 255
200 224 255
201 224 255
201 224 255
201 224 255
201 224 255
201 224 255
201 224 255
201 224 255
201 224 255
201 224 255
201 224 255
201 224 255
201 225 255
201 225 255
201 225 255
201 225 255
202 225 255
202 225 255
202 225 255
202 225 255
202 225 255
202 225 255
202 225 255
202 225 255
202 225 255
202 225 255
202 225 255
202 225 255
202 225 255
202 225 255
202 225 255
203 225 255
203 225 255
203 225 255
203 225 255
203 225 255
203 225 255
203 225 255
203 225 255
203 225 255
203 226 255
203 226 255
203 226 255
203 226 255
203 226 255
203 226 255
203 226 255
204 226 255
204 226 255
204 226 255
204 226 255
204 226 255
204 226 255
204 226 255
204 226 255
204 226 255
204 226 255
204 226 255
204 226 255
204 226 255
204 226 255
204 226 255
204 226 255
204 226 255
204 226 255
205 226 255
205 226 255
205 226 255
205 226 255
205 226 255
205 226 255
205 226 255
205 227 255
205 227 255
205 227 255
205 227 255
205 227 255
205 227 255
205 227 255
205 227 255
205 227 255
205 227 255
205 227 255
205 227 255
205 227 255
205 227 255
205 227 255
205 227 255
205 227 255
205 227 255
205 227 255
205 227 255
205 227 255
205 227 255
205 226 255
205 226 255
205 226 255
205 226 255
205 226 255
205 226 255
205 226 255
204 226 255
204 226 255
204 226 255
204 226 255
204 226 255
204 226 255
204 226 255
204 226 255
204 226 255
204 226 255
204 226 255
204 226 255
204 226 255
204 226 255
204 226 255
204 226 255
204 226 255
203 226 255
203 226 255
203 226 255
203 226 255
203 226 255
203 226 255
203 226 255
203 225 255
203 225 255
203 225 255
203 225 255
203 225 255
203 225 255
203 225 255
203 225 255
203 225 255
202 225 255
202 225 255
202 225 255
202 225 255
202 225 255
202 225 255
202 225 255
202 225 255
202 225 255
202 225 255
202 225 255
202 225 255
202 225 255
202 225 255
202 225 255
201 225 255
201 225 255
201 225 255
201 225 255
201 225 255
201 224 255
201 224 255
201 224 255
201 224 255
201 224 255
201 224 255
201 224 255
201 224 255
201 224 255
201 224 255
200 224 255
200 224 255
200 224 255
200 224 255
200 224 255
200 224 255
200 224 255
200 224 255
200 224 255
200 224 255
200 224 255
200 224 255
200 224 255
200 224 255
199 224 255
199 224 255
199 223 255
199 223 255
199 223 255
199 223 255
199 223 255
199 223 255
199 223 255
199 223 255
199 223 255
199 223 255
199 223 255
199 223 255
199 223 255
198 223 255
198 223 255
198 223 255
198 223 255
198 223 255
198 223 255
198 223 255
198 223 255
198 223 255
198 223 255
198 223 255
198 223 255
198 223 255
198 223 255
198 223 255
197 222 255
197 222 255
197 222 255
197 222 255
197 222 255
197 222 255
197 222 255
197 222 255
197 222 255
197 222 255
197 222 255
197 222 255
197 222 255
197 222 255
197 222 255
197 222 255
196 222 255
196 222 255
196 222 255
196 222 255
196 222 255
196 222 255
196 222 255
196 222 255
196 222 255
196 222 255
196 222 255
196 222 255
196 222 255
196 222 255
196 222 255
196 222 255
196 222 255
196 222 255
196 221 255
196 221 255
195 221 255
195 221 255
195 221 255
195 221 255
195 221 255
195 221 255
195 221 255
195 221 255
195 221 255
195 221 255
195 221 255
195 221 255
195 221 255
195 221 255
195 221 255
195 221 255
195 221 255
195 221 255
195 221 255
195 221 255
195 221 255
195 221 255
195 221 255
195 221 255
195 221 255
195 221 255
195 221 255
195 221 255
195 221 255
195 221 255
195 221 255
195 221 255
195 221 255
195 221 255
195 221 255
195 221 255
195 221 255
195 221 255
195 221 255
195 221 255
195 221 255
195 221 255
195 221 255
195 221 255
195 221 255
195 221 255
195 221 255
195 221 255
195 221 255
195 221 255
195 221 255
195 221 255
195 221 255
195 221 255
195 221 255
195 221 255
195 221 255
195 221 255
195 221 255
195 221 255
195 221 255
195 221 255
195 221 255
195 221 255
195 221 255
195 221 255
195 221 255
195 221 255
195 221 255
195 221 255
195 221 255
195 221 255
195 221 255
195 221 255
195 221 255
196 221 255
196 221 255
196 222 255
196 222 255
196 222 255
196 222 255
196 222 255
196 222 255
196 222 255
196 222 255
196 222 255
196 222 255
196 222 255
196 222 255
196 222 255
196 222 255
196 222 255
196 222 255
196 222 255
196 222 255
197 222 255
197 222 255
197 222 255
197 222 255
197 222 255
197 222 255
197 222 255
197 222 255
197 222 255
197 222 255
197 222 255
197 222 255
197 222 255
197 222 255
197 222 255
197 222 255
198 223 255
198 223 255
198 223 255
198 223 255
198 223 255
198 223 255
198 223 255
198 223 255
198 223 255
198 223 255
198 223 255
198 223 255
198 223 255
198 223 255
198 223 255
199 223 255
199 223 255
199 223 255
199 223 255
199 223 255
199 223 255
199 223 255
199 223 255
199 223 255
199 223 255
199 223 255
199 223 255
199 223 255
199 224 255
199 224 255
200 224 255
200 224 255
200 224 255
200 224 255
200 224 255
200 224 255
200 224 255
200 224 255
200 224 255
200 224 255
200 224 255
200 224 255
200 224 255
200 224 255
201 224 255
201 224 255
201 224 255
201 224 255
201 224 255
201 224 255
201 224 255
201 224 255
201 224 255
201 224 255
201 225 255
201 225 255
201 225 255
201 225 255
201 225 255
202 225 255
202 225 255
202 225 255
202 225 255
202 225 255
202 225 255
202 225 255
202 225 255
202 225 255
202 225 255
202 225 255
202 225 255
202 225 255
202 225 255
202 225 255
203 225 255
203 225 255
203 225 255
203 225 255
203 225 255
203 225 255
203 225 255
203 225 255
203 225 255
203 226 255
203 226 255
203 226 255
203 226 255
203 226 255
203 226 255
203 226 255
204 226 255
204 226 255
204 226 255
204 226 255
204 226 255
204 226 255
204 226 255
204 226 255
204 226 255
204 226 255
204 226 255
204 226 255
204 226 255
204 226 255
204 226 255
204 226 255
204 226 255
205 226 255
205 226 255
205 226 255
205 226 255
205 226 255
205 226 255
205 226 255
205 227 255
205 227 255
205 227 255
205 227 255
205 227 255
205 227 255
205 227 255
205 227 255
205 227 255
205 227 255
205 227 255
205 227 255
206 227 255
206 227 255
206 227 255
206 227 255
205 227 255
205 227 255
205 227 255
205 227 255
205 227 255
205 227 255
205 227 255
205 227 255
205 227 255
205 227 255
205 227 255
205 226 255
205 226 255
205 226 255
205 226 255
205 226 255
205 226 255
205 226 255
204 226 255
204 226 255
204 226 255
204 226 255
204 226 255
204 226 255
204 226 255
204 226 255
204 226 255
204 226 255
204 226 255
204 226 255
204 226 255
204 226 255
204 226 255
204 226 255
204 226 255
203 226 255
203 226 255
203 226 255
203 226 255
203 226 255
203 226 255
203 226 255
203 226 255
203 225 255
203 225 255
203 225 255
203 225 255
203 225 255
203 225 255
203 225 255
203 225 255
202 225 255
202 225 255
202 225 255
202 225 255
202 225 255
202 225 255
202 225 255
202 225 255
202 225 255
202 225 255
202 225 255
202 225 255
202 225 255
202 225 255
202 225 255
202 225 255
201 225 255
201 225 255
201 225 255
201 225 255
201 224 255
201 224 255
201 224 255
201 224 255
201 224 255
201 224 255
201 224 255
201 224 255
201 224 255
201 224 255
200 224 255
200 224 255
200 224 255
200 224 255
200 224 255
200 224 255
200 224 255
200 224 255
200 224 255
200 224 255
200 224 255
200 224 255
200 224 255
200 224 255
200 224 255
199 224 255
199 224 255
199 223 255
199 223 255
199 223 255
199 223 255
199 223 255
199 223 255
199 223 255
199 223 255
199 223 255
199 223 255
199 223 255
199 223 255
198 223 255
198 223 255
198 223 255
198 223 255
198 223 255
198 223 255
198 223 255
198 223 255
198 223 255
198 223 255
198 223 255
198 223 255
198 223 255
198 223 255
198 223 255
197 222 255
197 222 255
197 222 255
197 222 255
197 222 255
197 222 255
197 222 255
197 222 255
197 222 255
197 222 255
197 222 255
197 222 255
197 222 255
197 222 255
197 222 255
197 222 255
197 222 255
196 222 255
196 222 255
196 222 255
196 222 255
196 222 255
196 222 255
196 222 255
196 222 255
196 222 255
196 222 255
196 222 255
196 222 255
196 222 255
196 222 255
196 222 255
196 222 255
196 222 255
196 222 255
196 221 255
196 221 255
196 221 255
195 221 255
195 221 255
195 221 255
195 221 255
195 221 255
195 221 255
195 221 255
195 221 255
195 221 255
195 221 255
195 221 255
195 221 255
195 221 255
195 221 255
195 221 255
195 221 255
195 221 255
195 221 255
195 221 255
195 221 255
195 221 255
195 221 255
195 221 255
195 221 255
195 221 255
195 221 255
195 221 255
195 221 255
195 221 255
195 221 255
195 221 255
195 221 255
195 221 255
195 221 255
195 221 255
195 221 255
195 221 255
195 221 255
195 221 255
195 221 255
195 221 255
195 221 255
195 221 255
195 221 255
195 221 255
195 221 255
195 221 255
195 221 255
195 221 255
195 221 255
195 221 255
195 221 255
195 221 255
195 221 255
195 221 255
195 221 255
195 221 255
195 221 255
195 221 255
195 221 255
195 221 255
195 221 255
195 221 255
195 221 255
195 221 255
195 221 255
195 221 255
196 221 255
196 221 255
196 221 255
196 222 255
196 222 255
196 222 255
196 222 255
196 222 255
196 222 255
196 222 255
196 222 255
196 222 255
196 222 255
196 222 255
196 222 255
196 222 255
196 222 255
196 222 255
196 222 255
196 222 255
196 222 255
197 222 255
197 222 255
197 222 255
197 222 255
197 222 255
197 222 255
197 222 255
197 222 255
197 222 255
197 222 255
197 222 255
197 222 255
197 222 255
197 222 255
197 222 255
197 222 255
197 223 255
198 223 255
198 223 255
198 223 255
198 223 255
198 223 255
198 223 255
198 223 255
198 223 255
198 223 255
198 223 255
198 223 255
198 223 255
198 223 255
198 223 255
198 223 255
199 223 255
199 223 255
199 223 255
199 223 255
199 223 255
199 223 255
199 223 255
199 223 255
199 223 255
199 223 255
199 223 255
199 223 255
199 224 255
199 224 255
199 224 255
200 224 255
200 224 255
200 224 255
200 224 255
200 224 255
200 224 255
200 224 255
200 224 255
200 224 255
200 224 255
200 224 255
200 224 255
200 224 255
200 224 255
201 224 255
201 224 255
201 224 255
201 224 255
201 224 255
201 224 255
201 224 255
201 224 255
201 224 255
201 224 255
201 225 255
201 225 255
201 225 255
201 225 255
202 225 255
202 225 255
202 225 255
202 225 255
202 225 255
202 225 255
202 225 255
202 225 255
202 225 255
202 225 255
202 225 255
202 225 255
202 225 255
202 225 255
202 225 255
202 225 255
203 225 255
203 225 255
203 225 255
203 225 255
203 225 255
203 225 255
203 225 255
203 225 255
203 226 255
203 226 255
203 226 255
203 226 255
203 226 255
203 226 255
203 226 255
204 226 255
204 226 255
204 226 255
204 226 255
204 226 255
204 226 255
204 226 255
204 226 255
204 226 255
204 226 255
204 226 255
204 226 255
204 226 255
204 226 255
204 226 255
204 226 255
204 226 255
204 226 255
205 226 255
205 226 255
205 226 255
205 226 255
205 226 255
205 226 255
205 226 255
205 227 255
205 227 255
205 227 255
205 227 255
205 227 255
205 227 255
205 227 255
205 227 255
205 227 255
205 227 255
205 227 255
206 227 255
206 227 255
206 227 255
206 227 255
206 227 255
206 227 255
206 227 255
206 227 255
206 227 255
206 227 255
205 227 255
205 227 255
205 227 255
205 227 255
205 227 255
205 227 255
205 227 255
205 227 255
205 227 255
205 227 255
205 227 255
205 226 255
205 226 255
205 226 255
205 226 255
205 226 255
205 226 255
205 226 255
204 226 255
204 226 255
204 226 255
204 226 255
204 226 255
204 226 255
204 226 255
204 226 255
204 226 255
204 226 255
204 226 255
204 226 255
204 226 255
204 226 255
204 226 255
204 226 255
204 226 255
203 226 255
203 226 255
203 226 255
203 226 255
203 226 255
203 226 255
203 226 255
203 225 255
203 225 255
203 225 255
203 225 255
203 225 255
203 225 255
203 225 255
203 225 255
203 225 255
202 225 255
202 225 255
202 225 255
202 225 255
202 225 255
202 225 255
202 225 255
202 225 255
202 225 255
202 225 255
202 225 255
202 225 255
202 225 255
202 225 255
202 225 255
201 225 255
201 225 255
201 225 255
201 225 255
201 224 255
201 224 255
201 224 255
201 224 255
201 224 255
201 224 255
201 224 255
201 224 255
201 224 255
201 224 255
200 224 255
200 224 255
200 224 255
200 224 255
200 224 255
200 224 255
200 224 255
200 224 255
200 224 255
200 224 255
200 224 255
200 224 255
200 224 255
200 224 255
200 224 255
199 224 255
199 224 255
199 223 255
199 223 255
199 223 255
199 223 255
199 223 255
199 223 255
199 223 255
199 223 255
199 223 255
199 223 255
199 223 255
199 223 255
198 223 255
198 223 255
198 223 255
198 223 255
198 223 255
198 223 255
198 223 255
198 223 255
198 223 255
198 223 255
198 223 255
198 223 255
198 223 255
198 223 255
198 223 255
197 223 255
197 222 255
197 222 255
197 222 255
197 222 255
197 222 255
197 222 255
197 222 255
197 222 255
197 222 255
197 222 255
197 222 255
197 222 255
197 222 255
197 222 255
197 222 255
197 222 255
196 222 255
196 222 255
196 222 255
196 222 255
196 222 255
196 222 255
196 222 255
196 222 255
196 222 255
196 222 255
196 222 255
196 222 255
196 222 255
196 222 255
196 222 255
196 222 255
196 222 255
196 222 255
196 222 255
196 222 255
196 221 255
196 221 255
196 221 255
195 221 255
195 221 255
195 221 255
195 221 255
195 221 255
195 221 255
195 221 255
195 221 255
195 221 255
195 221 255
195 221 255
195 221 255
195 221 255
195 221 255
195 221 255
195 221 255
195 221 255
195 221 255
195 221 255
195 221 255
195 221 255
195 221 255
195 221 255
195 221 255
195 221 255
195 221 255
195 221 255
195 221 255
195 221 255
195 221 255
195 221 255
195 221 255
195 221 255
195 221 255
195 221 255
195 221 255
195 221 255
195 221 255
195 221 255
195 221 255
195 221 255
195 221 255
195 221 255
195 221 255
195 221 255
195 221 255
195 221 255
195 221 255
195 221 255
195 221 255
195 221 255
195 221 255
195 221 255
195 221 255
195 221 255
195 221 255
195 221 255
195 221 255
195 221 255
196 221 255
196 221 255
196 221 255
196 222 255
196 222 255
196 222 255
196 222 255
196 222 255
196 222 255
196 222 255
196 222 255
196 222 255
196 222 255
196 222 255
196 222 255
196 222 255
196 222 255
196 222 255
196 222 255
196 222 255
196 222 255
196 222 255
196 222 255
197 222 255
197 222 255
197 222 255
197 222 255
197 222 255
197 222 255
197 222 255
197 222 255
197 222 255
197 222 255
197 222 255
197 222 255
197 222 255
197 222 255
197 222 255
197 222 255
197 223 255
198 223 255
198 223 255
198 223 255
198 223 255
198 223 255
198 223 255
198 223 255
198 223 255
198 223 255
198 223 255
198 223 255
198 223 255
198 223 255
198 223 255
198 223 255
199 223 255
199 223 255
199 223 255
199 223 255
199 223 255
199 223 255
199 223 255
199 223 255
199 223 255
199 223 255
199 223 255
199 223 255
199 224 255
199 224 255
200 224 255
200 224 255
200 224 255
200 224 255
200 224 255
200 224 255
200 224 255
200 224 255
200 224 255
200 224 255
200 224 255
200 224 255
200 224 255
200 224 255
200 224 255
201 224 255
201 224 255
201 224 255
201 224 255
201 224 255
201 224 255
201 224 255
201 224 255
201 224 255
201 224 255
201 225 255
201 225 255
201 225 255
201 225 255
202 225 255
202 225 255
202 225 255
202 225 255
202 225 255
202 225 255
202 225 255
202 225 255
202 225 255
202 225 255
202 225 255
202 225 255
202 225 255
202 225 255
202 225 255
203 225 255
203 225 255
203 225 255
203 225 255
203 225 255
203 225 255
203 225 255
203 225 255
203 225 255
203 226 255
203 226 255
203 226 255
203 226 255
203 226 255
203 226 255
203 226 255
204 226 255
204 226 255
204 226 255
204 226 255
204 226 255
204 226 255
204 226 255
204 226 255
204 226 255
204 226 255
204 226 255
204 226 255
204 226 255
204 226 255
204 226 255
204 226 255
204 226 255
205 226 255
205 226 255
205 226 255
205 226 255
205 226 255
205 226 255
205 226 255
205 227 255
205 227 255
205 227 255
205 227 255
205 227 255
205 227 255
205 227 255
205 227 255
205 227 255
205 227 255
205 227 255
206 227 255
206 227 255
206 227 255
206 227 255
206 227 255
206 227 255
206 227 255
206 227 255
206 227 255
206 227 255
206 227 255
206 227 255
206 227 255
206 227 255
206 227 255
205 227 255
205 227 255
205 227 255
205 227 255
205 227 255
205 227 255
205 227 255
205 227 255
205 227 255
205 227 255
205 227 255
205 226 255
205 226 255
205 226 255
205 226 255
205 226 255
205 226 255
205 226 255
204 226 255
204 226 255
204 226 255
204 226 255
204 226 255
204 226 255
204 226 255
204 226 255
204 226 255
204 226 255
204 226 255
204 226 255
204 226 255
204 226 255
204 226 255
204 226 255
204 226 255
203 226 255
203 226 255
203 226 255
203 226 255
203 226 255
203 226 255
203 226 255
203 225 255
203 225 255
203 225 255
203 225 255
203 225 255
203 225 255
203 225 255
203 225 255
203 225 255
202 225 255
202 225 255
202 225 255
202 225 255
202 225 255
202 225 255
202 225 255
202 225 255
202 225 255
202 225 255
202 225 255
202 225 255
202 225 255
202 225 255
202 225 255
201 225 255
201 225 255
201 225 255
201 225 255
201 224 255
201 224 255
201 224 255
201 224 255
201 224 255
201 224 255
201 224 255
201 224 255
201 224 255
201 224 255
201 224 255
200 224 255
200 224 255
200 224 255
200 224 255
200 224 255
200 224 255
200 224 255
200 224 255
200 224 255
200 224 255
200 224 255
200 224 255
200 224 255
200 224 255
199 224 255
199 224 255
199 223 255
199 223 255
199 223 255
199 223 255
199 223 255
199 223 255
199 223 255
199 223 255
199 223 255
199 223 255
199 223 255
199 223 255
199 223 255
198 223 255
198 223 255
198 223 255
198 223 255
198 223 255
198 223 255
198 223 255
198 223 255
198 223 255
198 223 255
198 223 255
198 223 255
198 223 255
198 223 255
198 223 255
197 222 255
197 222 255
197 222 255
197 222 255
197 222 255
197 222 255
197 222 255
197 222 255
197 222 255
197 222 255
197 222 255
197 222 255
197 222 255
197 222 255
197 222 255
197 222 255
197 222 255
196 222 255
196 222 255
196 222 255
196 222 255
196 222 255
196 222 255
196 222 255
196 222 255
196 222 255
196 222 255
196 222 255
196 222 255
196 222 255
196 222 255
196 222 255
196 222 255
196 222 255
196 222 255
196 222 255
196 222 255
196 222 255
196 222 255
196 221 255
196 221 255
196 221 255
195 221 255
195 221 255
195 221 255
195 221 255
195 221 255
195 221 255
195 221 255
195 221 255
195 221 255
195 221 255
195 221 255
195 221 255
195 221 255
195 221 255
195 221 255
195 221 255
195 221 255
195 221 255
195 221 255
195 221 255
195 221 255
195 221 255
195 221 255
195 221 255
195 221 255
195 221 255
195 221 255
195 221 255
195 221 255
195 221 255
195 221 255
195 221 255
195 221 255
195 221 255
195 221 255
195 221 255
195 221 255
195 221 255
195 221 255
195 221 255
195 221 255
195 221 255
195 221 255
195 221 255
195 221 255
195 221 255
195 221 255
195 221 255
195 221 255
195 221 255
196 221 255
196 221 255
196 222 255
196 222 255
196 222 255
196 222 255
196 222 255
196 222 255
196 222 255
196 222 255
196 222 255
196 222 255
196 222 255
196 222 255
196 222 255
196 222 255
196 222 255
196 222 255
196 222 255
196 222 255
196 222 255
196 222 255
196 222 255
196 222 255
197 222 255
197 222 255
197 222 255
197 222 255
197 222 255
197 222 255
197 222 255
197 222 255
197 222 255
197 222 255
197 222 255
197 222 255
197 222 255
197 222 255
197 222 255
197 222 255
197 223 255
198 223 255
198 223 255
198 223 255
198 223 255
198 223 255
198 223 255
198 223 255
198 223 255
198 223 255
198 223 255
198 223 255
198 223 255
198 223 255
198 223 255
198 223 255
199 223 255
199 223 255
199 223 255
199 223 255
199 223 255
199 223 255
199 223 255
199 223 255
199 223 255
199 223 255
199 223 255
199 223 255
199 223 255
199 224 255
199 224 255
200 224 255
200 224 255
200 224 255
200 224 255
200 224 255
200 224 255
200 224 255
200 224 255
200 224 255
200 224 255
200 224 255
200 224 255
200 224 255
200 224 255
200 224 255
201 224 255
201 224 255
201 224 255
201 224 255
201 224 255
201 224 255
201 224 255
201 224 255
201 224 255
201 224 255
201 225 255
201 225 255
201 225 255
201 225 255
202 225 255
202 225 255
202 225 255
202 225 255
202 225 255
202 225 255
202 225 255
202 225 255
202 225 255
202 225 255
202 225 255
202 225 255
202 225 255
202 225 255
202 225 255
203 225 255
203 225 255
203 225 255
203 225 255
203 225 255
203 225 255
203 225 255
203 225 255
203 225 255
203 226 255
203 226 255
203 226 255
203 226 255
203 226 255
203 226 255
203 226 255
204 226 255
204 226 255
204 226 255
204 226 255
204 226 255
204 226 255
204 226 255
204 226 255
204 226 255
204 226 255
204 226 255
204 226 255
204 226 255
204 226 255
204 226 255
204 226 255
204 226 255
205 226 255
205 226 255
205 226 255
205 226 255
205 226 255
205 226 255
205 226 255
205 227 255
205 227 255
205 227 255
205 227 255
205 227 255
205 227 255
205 227 255
205 227 255
205 227 255
205 227 255
205 227 255
206 227 255
206 227 255
206 227 255
206 227 255
206 227 255
206 227 255
206 227 255
206 227 255
206 227 255
206 227 255
206 227 255
206 227 255
206 227 255
206 227 255
206 227 255
206 227 255
206 227 255
206 227 255
206 227 255
206 227 255
205 227 255
205 227 255
205 227 255
205 227 255
205 227 255
205 227 255
205 227 255
205 227 255
205 227 255
205 227 255
205 227 255
205 226 255
205 226 255
205 226 255
205 226 255
205 226 255
205 226 255
205 226 255
204 226 255
204 226 255
204 226 255
204 226 255
204 226 255
204 226 255
204 226 255
204 226 255
204 226 255
204 226 255
204 226 255
204 226 255
204 226 255
204 226 255
204 226 255
204 226 255
204 226 255
203 226 255
203 226 255
203 226 255
203 226 255
203 226 255
203 226 255
203 226 255
203 225 255
203 225 255
203 225 255
203 225 255
203 225 255
203 225 255
203 225 255
203 225 255
202 225 255
202 225 255
202 225 255
202 225 255
202 225 255
202 225 255
202 225 255
202 225 255
202 225 255
202 225 255
202 225 255
202 225 255
202 225 255
202 225 255
202 225 255
201 225 255
201 225 255
201 225 255
201 225 255
201 225 255
201 224 255
201 224 255
201 224 255
201 224 255
201 224 255
201 224 255
201 224 255
201 224 255
201 224 255
201 224 255
200 224 255
200 224 255
200 224 255
200 224 255
200 224 255
200 224 255
200 224 255
200 224 255
200 224 255
200 224 255
200 224 255
200 224 255
200 224 255
200 224 255
199 224 255
199 224 255
199 223 255
199 223 255
199 223 255
199 223 255
199 223 255
199 223 255
199 223 255
199 223 255
199 223 255
199 223 255
199 223 255
199 223 255
199 223 255
198 223 255
198 223 255
198 223 255
198 223 255
198 223 255
198 223 255
198 223 255
198 223 255
198 223 255
198 223 255
198 223 255
198 223 255
198 223 255
198 223 255
198 223 255
198 223 255
197 222 255
197 222 255
197 222 255
197 222 255
197 222 255
197 222 255
197 222 255
197 222 255
197 222 255
197 222 255
197 222 255
197 222 255
197 222 255
197 222 255
197 222 255
197 222 255
197 222 255
197 222 255
196 222 255
196 222 255
196 222 255
196 222 255
196 222 255
196 222 255
196 222 255
196 222 255
196 222 255
196 222 255
196 222 255
196 222 255
196 222 255
196 222 255
196 222 255
196 222 255
196 222 255
196 222 255
196 222 255
196 222 255
196 222 255
196 222 255
196 222 255
196 221 255
196 221 255
196 221 255
196 221 255
195 221 255
195 221 255
195 221 255
195 221 255
195 221 255
195 221 255
195 221 255
195 221 255
195 221 255
195 221 255
195 221 255
195 221 255
195 221 255
195 221 255
195 221 255
195 221 255
195 221 255
195 221 255
195 221 255
195 221 255
195 221 255
195 221 255
195 221 255
195 221 255
195 221 255
195 221 255
195 221 255
195 221 255
195 221 255
195 221 255
195 221 255
195 221 255
195 221 255
195 221 255
195 221 255
195 221 255
195 221 255
196 221 255
196 221 255
196 221 255
196 221 255
196 222 255
196 222 255
196 222 255
196 222 255
196 222 255
196 222 255
196 222 255
196 222 255
196 222 255
196 222 255
196 222 255
196 222 255
196 222 255
196 222 255
196 222 255
196 222 255
196 222 255
196 222 255
196 222 255
196 222 255
196 222 255
196 222 255
196 222 255
196 222 255
197 222 255
197 222 255
197 222 255
197 222 255
197 222 255
197 222 255
197 222 255
197 222 255
197 222 255
197 222 255
197 222 255
197 222 255
197 222 255
197 222 255
197 222 255
197 222 255
197 222 255
198 223 255
198 223 255
198 223 255
198 223 255
198 223 255
198 223 255
198 223 255
198 223 255
198 223 255
198 223 255
198 223 255
198 223 255
198 223 255
198 223 255
198 223 255
198 223 255
199 223 255
199 223 255
199 223 255
199 223 255
199 223 255
199 223 255
199 223 255
199 223 255
199 223 255
199 223 255
199 223 255
199 223 255
199 224 255
199 224 255
199 224 255
200 224 255
200 224 255
200 224 255
200 224 255
200 224 255
200 224 255
200 224 255
200 224 255
200 224 255
200 224 255
200 224 255
200 224 255
200 224 255
200 224 255
201 224 255
201 224 255
201 224 255
201 224 255
201 224 255
201 224 255
201 224 255
201 224 255
201 224 255
201 224 255
201 225 255
201 225 255
201 225 255
201 225 255
201 225 255
202 225 255
202 225 255
202 225 255
202 225 255
202 225 255
202 225 255
202 225 255
202 225 255
202 225 255
202 225 255
202 225 255
202 225 255
202 225 255
202 225 255
202 225 255
203 225 255
203 225 255
203 225 255
203 225 255
203 225 255
203 225 255
203 225 255
203 225 255
203 225 255
203 226 255
203 226 255
203 226 255
203 226 255
203 226 255
203 226 255
204 226 255
204 226 255
204 226 255
204 226 255
204 226 255
204 226 255
204 226 255
204 226 255
204 226 255
204 226 255
204 226 255
204 226 255
204 226 255
204 226 255
204 226 255
204 226 255
204 226 255
205 226 255
205 226 255
205 226 255
205 226 255
205 226 255
205 226 255
205 226 255
205 227 255
205 227 255
205 227 255
205 227 255
205 227 255
205 227 255
205 227 255
205 227 255
205 227 255
205 227 255
205 227 255
206 227 255
206 227 255
206 227 255
206 227 255
206 227 255
206 227 255
206 227 255
206 227 255
206 227 255
206 227 255
206 227 255
206 227 255
206 227 255
206 227 255
206 227 255
206 227 255
206 227 255
206 227 255
206 227 255
206 227 255
206 227 255
206 227 255
206 227 255
206 227 255
206 227 255
205 227 255
205 227 255
205 227 255
205 227 255
205 227 255
205 227 255
205 227 255
205 227 255
205 227 255
205 227 255
205 227 255
205 226 255
205 226 255
205 226 255
205 226 255
205 226 255
205 226 255
205 226 255
204 226 255
204 226 255
204 226 255
204 226 255
204 226 255
204 226 255
204 226 255
204 226 255
204 226 255
204 226 255
204 226 255
204 226 255
204 226 255
204 226 255
204 226 255
204 226 255
204 226 255
203 226 255
203 226 255
203 226 255
203 226 255
203 226 255
203 226 255
203 226 255
203 225 255
203 225 255
203 225 255
203 225 255
203 225 255
203 225 255
203 225 255
203 225 255
203 225 255
202 225 255
202 225 255
202 225 255
202 225 255
202 225 255
202 225 255
202 225 255
202 225 255
202 225 255
202 225 255
202 225 255
202 225 255
202 225 255
202 225 255
201 225 255
201 225 255
201 225 255
201 225 255
201 225 255
201 224 255
201 224 255
201 224 255
201 224 255
201 224 255
201 224 255
201 224 255
201 224 255
201 224 255
201 224 255
200 224 255
200 224 255
200 224 255
200 224 255
200 224 255
200 224 255
200 224 255
200 224 255
200 224 255
200 224 255
200 224 255
200 224 255
200 224 255
200 224 255
200 224 255
199 224 255
199 224 255
199 223 255
199 223 255
199 223 255
199 223 255
199 223 255
199 223 255
199 223 255
199 223 255
199 223 255
199 223 255
199 223 255
199 223 255
198 223 255
198 223 255
198 223 255
198 223 255
198 223 255
198 223 255
198 223 255
198 223 255
198 223 255
198 223 255
198 223 255
198 223 255
198 223 255
198 223 255
198 223 255
198 223 255
197 223 255
197 222 255
197 222 255
197 222 255
197 222 255
197 222 255
197 222 255
197 222 255
197 222 255
197 222 255
197 222 255
197 222 255
197 222 255
197 222 255
197 222 255
197 222 255
197 222 255
197 222 255
197 222 255
196 222 255
196 222 255
196 222 255
196 222 255
196 222 255
196 222 255
196 222 255
196 222 255
196 222 255
196 222 255
196 222 255
196 222 255
196 222 255
196 222 255
196 222 255
196 222 255
196 222 255
196 222 255
196 222 255
196 222 255
196 222 255
196 222 255
196 222 255
196 222 255
196 222 255
196 222 255
196 222 255
196 221 255
196 221 255
196 221 255
196 221 255
196 221 255
195 221 255
195 221 255
195 221 255
195 221 255
195 221 255
195 221 255
195 221 255
195 221 255
195 221 255
195 221 255
195 221 255
195 221 255
195 221 255
195 221 255
195 221 255
195 221 255
195 221 255
195 221 255
195 221 255
195 221 255
196 221 255
196 221 255
196 221 255
196 221 255
196 221 255
196 221 255
196 222 255
196 222 255
196 222 255
196 222 255
196 222 255
196 222 255
196 222 255
196 222 255
196 222 255
196 222 255
196 222 255
196 222 255
196 222 255
196 222 255
196 222 255
196 222 255
196 222 255
196 222 255
196 222 255
196 222 255
196 222 255
196 222 255
196 222 255
196 222 255
196 222 255
196 222 255
196 222 255
197 222 255
197 222 255
197 222 255
197 222 255
197 222 255
197 222 255
197 222 255
197 222 255
197 222 255
197 222 255
197 222 255
197 222 255
197 222 255
197 222 255
197 222 255
197 222 255
197 222 255
197 222 255
197 223 255
198 223 255
198 223 255
198 223 255
198 223 255
198 223 255
198 223 255
198 223 255
198 223 255
198 223 255
198 223 255
198 223 255
198 223 255
198 223 255
198 223 255
198 223 255
198 223 255
199 223 255
199 223 255
199 223 255
199 223 255
199 223 255
199 223 255
199 223 255
199 223 255
199 223 255
199 223 255
199 223 255
199 223 255
199 224 255
199 224 255
200 224 255
200 224 255
200 224 255
200 224 255
200 224 255
200 224 255
200 224 255
200 224 255
200 224 255
200 224 255
200 224 255
200 224 255
200 224 255
200 224 255
200 224 255
201 224 255
201 224 255
201 224 255
201 224 255
201 224 255
201 224 255
201 224 255
201 224 255
201 224 255
201 224 255
201 225 255
201 225 255
201 225 255
201 225 255
202 225 255
202 225 255
202 225 255
202 225 255
202 225 255
202 225 255
202 225 255
202 225 255
202 225 255
202 225 255
202 225 255
202 225 255
202 225 255
202 225 255
202 225 255
203 225 255
203 225 255
203 225 255
203 225 255
203 225 255
203 225 255
203 225 255
203 225 255
203 225 255
203 226 255
203 226 255
203 226 255
203 226 255
203 226 255
203 226 255
203 226 255
204 226 255
204 226 255
204 226 255
204 226 255
204 226 255
204 226 255
204 226 255
204 226 255
204 226 255
204 226 255
204 226 255
204 226 255
204 226 255
204 226 255
204 226 255
204 226 255
204 226 255
205 226 255
205 226 255
205 226 255
205 226 255
205 226 255
205 226 255
205 226 255
205 227 255
205 227 255
205 227 255
205 227 255
205 227 255
205 227 255
205 227 255
205 227 255
205 227 255
205 227 255
205 227 255
206 227 255
206 227 255
206 227 255
206 227 255
206 227 255
206 227 255
206 227 255
206 227 255
206 227 255
206 227 255
206 227 255
206 227 255
206 227 255
206 227 255
206 227 255
206 227 255
206 227 255
206 227 255
206 227 255
206 227 255
206 227 255
206 227 255
206 227 255
206 227 255
206 227 255
206 227 255
206 227 255
206 227 255
206 227 255
206 227 255
205 227 255
205 227 255
205 227 255
205 227 255
205 227 255
205 227 255
205 227 255
205 227 255
205 227 255
205 227 255
205 227 255
205 226 255
205 226 255
205 226 255
205 226 255
205 226 255
205 226 255
205 226 255
204 226 255
204 226 255
204 226 255
204 226 255
204 226 255
204 226 255
204 226 255
204 226 255
204 226 255
204 226 255
204 226 255
204 226 255
204 226 255
204 226 255
204 226 255
204 226 255
203 226 255
203 226 255
203 226 255
203 226 255
203 226 255
203 226 255
203 226 255
203 225 255
203 225 255
203 225 255
203 225 255
203 225 255
203 225 255
203 225 255
203 225 255
203 225 255
202 225 255
202 225 255
202 225 255
202 225 255
202 225 255
202 225 255
202 225 255
202 225 255
202 225 255
202 225 255
202 225 255
202 225 255
202 225 255
202 225 255
202 225 255
201 225 255
201 225 255
201 225 255
201 225 255
201 224 255
201 224 255
201 224 255
201 224 255
201 224 255
201 224 255
201 224 255
201 224 255
201 224 255
201 224 255
201 224 255
200 224 255
200 224 255
200 224 255
200 224 255
200 224 255
200 224 255
200 224 255
200 224 255
200 224 255
200 224 255
200 224 255
200 224 255
200 224 255
200 224 255
199 224 255
199 224 255
199 223 255
199 223 255
199 223 255
199 223 255
199 223 255
199 223 255
199 223 255
199 223 255
199 223 255
199 223 255
199 223 255
199 223 255
199 223 255
198 223 255
198 223 255
198 223 255
198 223 255
198 223 255
198 223 255
198 223 255
198 223 255
198 223 255
198 223 255
198 223 255
198 223 255
198 223 255
198 223 255
198 223 255
198 223 255
197 222 255
197 222 255
197 222 255
197 222 255
197 222 255
197 222 255
197 222 255
197 222 255
197 222 255
197 222 255
197 222 255
197 222 255
197 222 255
197 222 255
197 222 255
197 222 255
197 222 255
197 222 255
197 222 255
196 222 255
196 222 255
196 222 255
196 222 255
196 222 255
196 222 255
196 222 255
196 222 255
196 222 255
196 222 255
196 222 255
196 222 255
196 222 255
196 222 255
196 222 255
196 222 255
196 222 255
196 222 255
196 222 255
196 222 255
196 222 255
196 222 255
196 222 255
196 222 255
196 222 255
196 222 255
196 222 255
196 222 255
196 222 255
196 222 255
196 222 255
196 222 255
196 222 255
196 222 255
196 222 255
196 222 255
196 222 255
196 222 255
196 222 255
196 222 255
196 222 255
196 222 255
196 222 255
196 222 255
196 222 255
196 222 255
196 222 255
196 222 255
196 222 255
196 222 255
196 222 255
196 222 255
196 222 255
196 222 255
196 222 255
196 222 255
196 222 255
196 222 255
196 222 255
196 222 255
196 222 255
196 222 255
196 222 255
196 222 255
196 222 255
196 222 255
196 222 255
196 222 255
196 222 255
196 222 255
196 222 255
196 222 255
196 222 255
196 222 255
196 222 255
196 222 255
196 222 255
196 222 255
197 222 255
197 222 255
197 222 255
197 222 255
197 222 255
197 222 255
197 222 255
197 222 255
197 222 255
197 222 255
197 222 255
197 222 255
197 222 255
197 222 255
197 222 255
197 222 255
197 222 255
197 222 255
197 222 255
197 223 255
198 223 255
198 223 255
198 223 255
198 223 255
198 223 255
198 223 255
198 223 255
198 223 255
198 223 255
198 223 255
198 223 255
198 223 255
198 223 255
198 223 255
198 223 255
198 223 255
199 223 255
199 223 255
199 223 255
199 223 255
199 223 255
199 223 255
199 223 255
199 223 255
199 223 255
199 223 255
199 223 255
199 223 255
199 223 255
199 224 255
199 224 255
200 224 255
200 224 255
200 224 255
200 224 255
200 224 255
200 224 255
200 224 255
200 224 255
200 224 255
200 224 255
200 224 255
200 224 255
200 224 255
200 224 255
201 224 255
201 224 255
201 224 255
201 224 255
201 224 255
201 224 255
201 224 255
201 224 255
201 224 255
201 224 255
201 224 255
201 225 255
201 225 255
201 225 255
201 225 255
202 225 255
202 225 255
202 225 255
202 225 255
202 225 255
202 225 255
202 225 255
202 225 255
202 225 255
202 225 255
202 225 255
202 225 255
202 225 255
202 225 255
202 225 255
203 225 255
203 225 255
203 225 255
203 225 255
203 225 255
203 225 255
203 225 255
203 225 255
203 225 255
203 226 255
203 226 255
203 226 255
203 226 255
203 226 255
203 226 255
203 226 255
204 226 255
204 226 255
204 226 255
204 226 255
204 226 255
204 226 255
204 226 255
204 226 255
204 226 255
204 226 255
204 226 255
204 226 255
204 226 255
204 226 255
204 226 255
204 226 255
205 226 255
205 226 255
205 226 255
205 226 255
205 226 255
205 226 255
205 226 255
205 227 255
205 227 255
205 227 255
205 227 255
205 227 255
205 227 255
205 227 255
205 227 255
205 227 255
205 227 255
205 227 255
206 227 255
206 227 255
206 227 255
206 227 255
206 227 255
206 227 255
206 227 255
206 227 255
206 227 255
206 227 255
206 227 255
206 227 255
206 227 255
206 227 255
206 227 255
206 227 255
206 227 255
206 227 255
206 227 255
206 227 255
206 227 255
206 227 255
206 227 255
206 227 255
206 227 255
206 227 255
206 227 255
206 227 255
206 227 255
206 227 255
206 227 255
206 227 255
206 227 255
206 227 255
206 227 255
206 227 255
205 227 255
205 227 255
205 227 255
205 227 255
205 227 255
205 227 255
205 227 255
205 227 255
205 227 255
205 227 255
205 226 255
205 226 255
205 226 255
205 226 255
205 226 255
205 226 255
205 226 255
204 226 255
204 226 255
204 226 255
204 226 255
204 226 255
204 226 255
204 226 255
204 226 255
204 226 255
204 226 255
204 226 255
204 226 255
204 226 255
204 226 255
204 226 255
204 226 255
204 226 255
203 226 255
203 226 255
203 226 255
203 226 255
203 226 255
203 226 255
203 226 255
203 225 255
203 225 255
203 225 255
203 225 255
203 225 255
203 225 255
203 225 255
203 225 255
202 225 255
202 225 255
202 225 255
202 225 255
202 225 255
202 225 255
202 225 255
202 225 255
202 225 255
202 225 255
202 225 255
202 225 255
202 225 255
202 225 255
202 225 255
201 225 255
201 225 255
201 225 255
201 225 255
201 225 255
201 224 255
201 224 255
201 224 255
201 224 255
201 224 255
201 224 255
201 224 255
201 224 255
201 224 255
201 224 255
200 224 255
200 224 255
200 224 255
200 224 255
200 224 255
200 224 255
200 224 255
200 224 255
200 224 255
200 224 255
200 224 255
200 224 255
200 224 255
200 224 255
199 224 255
199 224 255
199 224 255
199 223 255
199 223 255
199 223 255
199 223 255
199 223 255
199 223 255
199 223 255
199 223 255
199 223 255
199 223 255
199 223 255
199 223 255
199 223 255
198 223 255
198 223 255
198 223 255
198 223 255
198 223 255
198 223 255
198 223 255
198 223 255
198 223 255
198 223 255
198 223 255
198 223 255
198 223 255
198 223 255
198 223 255
198 223 255
197 223 255
197 222 255
197 222 255
197 222 255
197 222 255
197 222 255
197 222 255
197 222 255
197 222 255
197 222 255
197 222 255
197 222 255
197 222 255
197 222 255
197 222 255
197 222 255
197 222 255
197 222 255
197 222 255
197 222 255
196 222 255
196 222 255
196 222 255
196 222 255
196 222 255
196 222 255
196 222 255
196 222 255
196 222 255
196 222 255
196 222 255
196 222 255
196 222 255
196 222 255
196 222 255
196 222 255
196 222 255
196 222 255
196 222 255
196 222 255
196 222 255
196 222 255
196 222 255
196 222 255
196 222 255
196 222 255
196 222 255
196 222 255
196 222 255
196 222 255
196 222 255
196 222 255
196 222 255
196 222 255
196 222 255
196 222 255
196 222 255
196 222 255
196 222 255
196 222 255
196 222 255
196 222 255
196 222 255
196 222 255
196 222 255
196 222 255
196 222 255
196 222 255
196 222 255
196 222 255
196 222 255
196 222 255
196 222 255
196 222 255
196 222 255
196 222 255
196 222 255
196 222 255
196 222 255
196 222 255
196 222 255
196 222 255
196 222 255
196 222 255
196 222 255
196 222 255
196 222 255
196 222 255
196 222 255
196 222 255
196 222 255
197 222 255
197 222 255
197 222 255
197 222 255
197 222 255
197 222 255
197 222 255
197 222 255
197 222 255
197 222 255
197 222 255
197 222 255
197 222 255
197 222 255
197 222 255
197 222 255
197 222 255
197 222 255
197 222 255
197 223 255
198 223 255
198 223 255
198 223 255
198 223 255
198 223 255
198 223 255
198 223 255
198 223 255
198 223 255
198 223 255
198 223 255
198 223 255
198 223 255
198 223 255
198 223 255
198 223 255
198 223 255
199 223 255
199 223 255
199 223 255
199 223 255
199 223 255
199 223 255
199 223 255
199 223 255
199 223 255
199 223 255
199 223 255
199 223 255
199 224 255
199 224 255
199 224 255
200 224 255
200 224 255
200 224 255
200 224 255
200 224 255
200 224 255
200 224 255
200 224 255
200 224 255
200 224 255
200 224 255
200 224 255
200 224 255
200 224 255
201 224 255
201 224 255
201 224 255
201 224 255
201 224 255
201 224 255
201 224 255
201 224 255
201 224 255
201 224 255
201 225 255
201 225 255
201 225 255
201 225 255
201 225 255
202 225 255
202 225 255
202 225 255
202 225 255
202 225 255
202 225 255
202 225 255
202 225 255
202 225 255
202 225 255
202 225 255
202 225 255
202 225 255
202 225 255
202 225 255
203 225 255
203 225 255
203 225 255
203 225 255
203 225 255
203 225 255
203 225 255
203 225 255
203 226 255
203 226 255
203 226 255
203 226 255
203 226 255
203 226 255
203 226 255
204 226 255
204 226 255
204 226 255
204 226 255
204 226 255
204 226 255
204 226 255
204 226 255
204 226 255
204 226 255
204 226 255
204 226 255
204 226 255
204 226 255
204 226 255
204 226 255
204 226 255
205 226 255
205 226 255
205 226 255
205 226 255
205 226 255
205 226 255
205 226 255
205 227 255
205 227 255
205 227 255
205 227 255
205 227 255
205 227 255
205 227 255
205 227 255
205 227 255
205 227 255
206 227 255
206 227 255
206 227 255
206 227 255
206 227 255
206 227 255
206 227 255
206 227 255
206 227 255
206 227 255
206 227 255
206 227 255
206 227 255
206 227 255
206 227 255
206 227 255
206 227 255
206 227 255
206 227 255
206 227 255
207 227 255
207 227 255
206 227 255
206 227 255
206 227 255
206 227 255
206 227 255
206 227 255
206 227 255
206 227 255
206 227 255
206 227 255
206 227 255
206 227 255
206 227 255
206 227 255
206 227 255
206 227 255
206 227 255
206 227 255
206 227 255
205 227 255
205 227 255
205 227 255
205 227 255
205 227 255
205 227 255
205 227 255
205 227 255
205 227 255
205 227 255
205 227 255
205 226 255
205 226 255
205 226 255
205 226 255
205 226 255
205 226 255
205 226 255
204 226 255
204 226 255
204 226 255
204 226 255
204 226 255
204 226 255
204 226 255
204 226 255
204 226 255
204 226 255
204 226 255
204 226 255
204 226 255
204 226 255
204 226 255
204 226 255
203 226 255
203 226 255
203 226 255
203 226 255
203 226 255
203 226 255
203 226 255
203 225 255
203 225 255
203 225 255
203 225 255
203 225 255
203 225 255
203 225 255
203 225 255
203 225 255
202 225 255
202 225 255
202 225 255
202 225 255
202 225 255
202 225 255
202 225 255
202 225 255
202 225 255
202 225 255
202 225 255
202 225 255
202 225 255
202 225 255
202 225 255
201 225 255
201 225 255
201 225 255
201 225 255
201 224 255
201 224 255
201 224 255
201 224 255
201 224 255
201 224 255
201 224 255
201 224 255
201 224 255
201 224 255
200 224 255
200 224 255
200 224 255
200 224 255
200 224 255
200 224 255
200 224 255
200 224 255
200 224 255
200 224 255
200 224 255
200 224 255
200 224 255
200 224 255
200 224 255
199 224 255
199 224 255
199 223 255
199 223 255
199 223 255
199 223 255
199 223 255
199 223 255
199 223 255
199 223 255
199 223 255
199 223 255
199 223 255
199 223 255
199 223 255
198 223 255
198 223 255
198 223 255
198 223 255
198 223 255
198 223 255
198 223 255
198 223 255
198 223 255
198 223 255
198 223 255
198 223 255
198 223 255
198 223 255
198 223 255
198 223 255
198 223 255
197 222 255
197 222 255
197 222 255
197 222 255
197 222 255
197 222 255
197 222 255
197 222 255
197 222 255
197 222 255
197 222 255
197 222 255
197 222 255
197 222 255
197 222 255
197 222 255
197 222 255
197 222 255
197 222 255
197 222 255
197 222 255
197 222 255
196 222 255
196 222 255
196 222 255
196 222 255
196 222 255
196 222 255
196 222 255
196 222 255
196 222 255
196 222 255
196 222 255
196 222 255
196 222 255
196 222 255
196 222 255
196 222 255
196 222 255
196 222 255
196 222 255
196 222 255
196 222 255
196 222 255
196 222 255
196 222 255
196 222 255
196 222 255
196 222 255
196 222 255
196 222 255
196 222 255
196 222 255
196 222 255
196 222 255
196 222 255
196 222 255
196 222 255
196 222 255
196 222 255
196 222 255
196 222 255
196 222 255
196 222 255
196 222 255
196 222 255
196 222 255
196 222 255
196 222 255
196 222 255
196 222 255
196 222 255
196 222 255
196 222 255
196 222 255
196 222 255
196 222 255
196 222 255
196 222 255
196 222 255
196 222 255
196 222 255
196 222 255
197 222 255
197 222 255
197 222 255
197 222 255
197 222 255
197 222 255
197 222 255
197 222 255
197 222 255
197 222 255
197 222 255
197 222 255
197 222 255
197 222 255
197 222 255
197 222 255
197 222 255
197 222 255
197 222 255
197 222 255
197 222 255
197 223 255
198 223 255
198 223 255
198 223 255
198 223 255
198 223 255
198 223 255
198 223 255
198 223 255
198 223 255
198 223 255
198 223 255
198 223 255
198 223 255
198 223 255
198 223 255
198 223 255
198 223 255
199 223 255
199 223 255
199 223 255
199 223 255
199 223 255
199 223 255
199 223 255
199 223 255
199 223 255
199 223 255
199 223 255
199 223 255
199 223 255
199 224 255
199 224 255
200 224 255
200 224 255
200 224 255
200 224 255
200 224 255
200 224 255
200 224 255
200 224 255
200 224 255
200 224 255
200 224 255
200 224 255
200 224 255
200 224 255
200 224 255
201 224 255
201 224 255
201 224 255
201 224 255
201 224 255
201 224 255
201 224 255
201 224 255
201 224 255
201 224 255
201 225 255
201 225 255
201 225 255
201 225 255
202 225 255
202 225 255
202 225 255
202 225 255
202 225 255
202 225 255
202 225 255
202 225 255
202 225 255
202 225 255
202 225 255
202 225 255
202 225 255
202 225 255
202 225 255
202 225 255
203 225 255
203 225 255
203 225 255
203 225 255
203 225 255
203 225 255
203 225 255
203 225 255
203 226 255
203 226 255
203 226 255
203 226 255
203 226 255
203 226 255
203 226 255
204 226 255
204 226 255
204 226 255
204 226 255
204 226 255
204 226 255
204 226 255
204 226 255
204 226 255
204 226 255
204 226 255
204 226 255
204 226 255
204 226 255
204 226 255
204 226 255
205 226 255
205 226 255
205 226 255
205 226 255
205 226 255
205 226 255
205 226 255
205 227 255
205 227 255
205 227 255
205 227 255
205 227 255
205 227 255
205 227 255
205 227 255
205 227 255
205 227 255
205 227 255
206 227 255
206 227 255
206 227 255
206 227 255
206 227 255
206 227 255
206 227 255
206 227 255
206 227 255
206 227 255
206 227 255
206 227 255
206 227 255
206 227 255
206 227 255
206 227 255
206 227 255
206 227 255
206 227 255
207 227 255
207 227 255
207 227 255
207 227 255
207 227 255
207 227 255
207 227 255
207 227 255
206 227 255
206 227 255
206 227 255
206 227 255
206 227 255
206 227 255
206 227 255
206 227 255
206 227 255
206 227 255
206 227 255
206 227 255
206 227 255
206 227 255
206 227 255
206 227 255
206 227 255
206 227 255
206 227 255
205 227 255
205 227 255
205 227 255
205 227 255
205 227 255
205 227 255
205 227 255
205 227 255
205 227 255
205 227 255
205 226 255
205 226 255
205 226 255
205 226 255
205 226 255
205 226 255
205 226 255
204 226 255
204 226 255
204 226 255
204 226 255
204 226 255
204 226 255
204 226 255
204 226 255
204 226 255
204 226 255
204 226 255
204 226 255
204 226 255
204 226 255
204 226 255
204 226 255
204 226 255
203 226 255
203 226 255
203 226 255
203 226 255
203 226 255
203 226 255
203 226 255
203 225 255
203 225 255
203 225 255
203 225 255
203 225 255
203 225 255
203 225 255
203 225 255
202 225 255
202 225 255
202 225 255
202 225 255
202 225 255
202 225 255
202 225 255
202 225 255
202 225 255
202 225 255
202 225 255
202 225 255
202 225 255
202 225 255
202 225 255
201 225 255
201 225 255
201 225 255
201 225 255
201 224 255
201 224 255
201 224 255
201 224 255
201 224 255
201 224 255
201 224 255
201 224 255
201 224 255
201 224 255
201 224 255
200 224 255
200 224 255
200 224 255
200 224 255
200 224 255
200 224 255
200 224 255
200 224 255
200 224 255
200 224 255
200 224 255
200 224 255
200 224 255
200 224 255
199 224 255
199 224 255
199 224 255
199 223 255
199 223 255
199 223 255
199 223 255
199 223 255
199 223 255
199 223 255
199 223 255
199 223 255
199 223 255
199 223 255
199 223 255
199 223 255
198 223 255
198 223 255
198 223 255
198 223 255
198 223 255
198 223 255
198 223 255
198 223 255
198 223 255
198 223 255
198 223 255
198 223 255
198 223 255
198 223 255
198 223 255
198 223 255
198 223 255
197 223 255
197 222 255
197 222 255
197 222 255
197 222 255
197 222 255
197 222 255
197 222 255
197 222 255
197 222 255
197 222 255
197 222 255
197 222 255
197 222 255
197 222 255
197 222 255
197 222 255
197 222 255
197 222 255
197 222 255
197 222 255
197 222 255
197 222 255
197 222 255
196 222 255
196 222 255
196 222 255
196 222 255
196 222 255
196 222 255
196 222 255
196 222 255
196 222 255
196 222 255
196 222 255
196 222 255
196 222 255
196 222 255
196 222 255
196 222 255
196 222 255
196 222 255
196 222 255
196 222 255
196 222 255
196 222 255
196 222 255
196 222 255
196 222 255
196 222 255
196 222 255
196 222 255
196 222 255
196 222 255
196 222 255
196 222 255
196 222 255
196 222 255
196 222 255
196 222 255
196 222 255
196 222 255
196 222 255
196 222 255
196 222 255
196 222 255
196 222 255
196 222 255
196 222 255
196 222 255
196 222 255
196 222 255
196 222 255
196 222 255
196 222 255
197 222 255
197 222 255
197 222 255
197 222 255
197 222 255
197 222 255
197 222 255
197 222 255
197 222 255
197 222 255
197 222 255
197 222 255
197 222 255
197 222 255
197 222 255
197 222 255
197 222 255
197 222 255
197 222 255
197 222 255
197 222 255
197 222 255
197 222 255
197 223 255
198 223 255
198 223 255
198 223 255
198 223 255
198 223 255
198 223 255
198 223 255
198 223 255
198 223 255
198 223 255
198 223 255
198 223 255
198 223 255
198 223 255
198 223 255
198 223 255
198 223 255
199 223 255
199 223 255
199 223 255
199 223 255
199 223 255
199 223 255
199 223 255
199 223 255
199 223 255
199 223 255
199 223 255
199 223 255
199 223 255
199 224 255
199 224 255
199 224 255
200 224 255
200 224 255
200 224 255
200 224 255
200 224 255
200 224 255
200 224 255
200 224 255
200 224 255
200 224 255
200 224 255
200 224 255
200 224 255
200 224 255
201 224 255
201 224 255
201 224 255
201 224 255
201 224 255
201 224 255
201 224 255
201 224 255
201 224 255
201 224 255
201 224 255
201 225 255
201 225 255
201 225 255
201 225 255
202 225 255
202 225 255
202 225 255
202 225 255
202 225 255
202 225 255
202 225 255
202 225 255
202 225 255
202 225 255
202 225 255
202 225 255
202 225 255
202 225 255
202 225 255
203 225 255
203 225 255
203 225 255
203 225 255
203 225 255
203 225 255
203 225 255
203 225 255
203 226 255
203 226 255
203 226 255
203 226 255
203 226 255
203 226 255
203 226 255
204 226 255
204 226 255
204 226 255
204 226 255
204 226 255
204 226 255
204 226 255
204 226 255
204 226 255
204 226 255
204 226 255
204 226 255
204 226 255
204 226 255
204 226 255
204 226 255
204 226 255
205 226 255
205 226 255
205 226 255
205 226 255
205 226 255
205 226 255
205 226 255
205 227 255
205 227 255
205 227 255
205 227 255
205 227 255
205 227 255
205 227 255
205 227 255
205 227 255
205 227 255
206 227 255
206 227 255
206 227 255
206 227 255
206 227 255
206 227 255
206 227 255
206 227 255
206 227 255
206 227 255
206 227 255
206 227 255
206 227 255
206 227 255
206 227 255
206 227 255
206 227 255
206 227 255
206 227 255
207 227 255
207 227 255
207 227 255
207 227 255
207 227 255
207 228 255
207 228 255
207 228 255
207 228 255
207 227 255
207 227 255
207 227 255
207 227 255
207 227 255
206 227 255
206 227 255
206 227 255
206 227 255
206 227 255
206 227 255
206 227 255
206 227 255
206 227 255
206 227 255
206 227 255
206 227 255
206 227 255
206 227 255
206 227 255
206 227 255
206 227 255
206 227 255
205 227 255
205 227 255
205 227 255
205 227 255
205 227 255
205 227 255
205 227 255
205 227 255
205 227 255
205 227 255
205 227 255
205 226 255
205 226 255
205 226 255
205 226 255
205 226 255
205 226 255
205 226 255
204 226 255
204 226 255
204 226 255
204 226 255
204 226 255
204 226 255
204 226 255
204 226 255
204 226 255
204 226 255
204 226 255
204 226 255
204 226 255
204 226 255
204 226 255
204 226 255
203 226 255
203 226 255
203 226 255
203 226 255
203 226 255
203 226 255
203 226 255
203 225 255
203 225 255
203 225 255
203 225 255
203 225 255
203 225 255
203 225 255
203 225 255
203 225 255
202 225 255
202 225 255
202 225 255
202 225 255
202 225 255
202 225 255
202 225 255
202 225 255
202 225 255
202 225 255
202 225 255
202 225 255
202 225 255
202 225 255
201 225 255
201 225 255
201 225 255
201 225 255
201 225 255
201 224 255
201 224 255
201 224 255
201 224 255
201 224 255
201 224 255
201 224 255
201 224 255
201 224 255
201 224 255
200 224 255
200 224 255
200 224 255
200 224 255
200 224 255
200 224 255
200 224 255
200 224 255
200 224 255
200 224 255
200 224 255
200 224 255
200 224 255
200 224 255
200 224 255
199 224 255
199 224 255
199 223 255
199 223 255
199 223 255
199 223 255
199 223 255
199 223 255
199 223 255
199 223 255
199 223 255
199 223 255
199 223 255
199 223 255
199 223 255
199 223 255
198 223 255
198 223 255
198 223 255
198 223 255
198 223 255
198 223 255
198 223 255
198 223 255
198 223 255
198 223 255
198 223 255
198 223 255
198 223 255
198 223 255
198 223 255
198 223 255
198 223 255
197 223 255
197 223 255
197 222 255
197 222 255
197 222 255
197 222 255
197 222 255
197 222 255
197 222 255
197 222 255
197 222 255
197 222 255
197 222 255
197 222 255
197 222 255
197 222 255
197 222 255
197 222 255
197 222 255
197 222 255
197 222 255
197 222 255
197 222 255
197 222 255
197 222 255
197 222 255
197 222 255
196 222 255
196 222 255
196 222 255
196 222 255
196 222 255
196 222 255
196 222 255
196 222 255
196 222 255
196 222 255
196 222 255
196 222 255
196 222 255
196 222 255
196 222 255
196 222 255
196 222 255
196 222 255
196 222 255
196 222 255
196 222 255
196 222 255
196 222 255
196 222 255
196 222 255
196 222 255
196 222 255
196 222 255
196 222 255
196 222 255
196 222 255
196 222 255
196 222 255
196 222 255
196 222 255
196 222 255
196 222 255
196 222 255
196 222 255
197 222 255
197 222 255
197 222 255
197 222 255
197 222 255
197 222 255
197 222 255
197 222 255
197 222 255
197 222 255
197 222 255
197 222 255
197 222 255
197 222 255
197 222 255
197 222 255
197 222 255
197 222 255
197 222 255
197 222 255
197 222 255
197 222 255
197 222 255
197 222 255
197 222 255
197 222 255
198 223 255
198 223 255
198 223 255
198 223 255
198 223 255
198 223 255
198 223 255
198 223 255
198 223 255
198 223 255
198 223 255
198 223 255
198 223 255
198 223 255
198 223 255
198 223 255
198 223 255
198 223 255
198 223 255
199 223 255
199 223 255
199 223 255
199 223 255
199 223 255
199 223 255
199 223 255
199 223 255
199 223 255
199 223 255
199 223 255
199 223 255
199 223 255
199 224 255
199 224 255
200 224 255
200 224 255
200 224 255
200 224 255
200 224 255
200 224 255
200 224 255
200 224 255
200 224 255
200 224 255
200 224 255
200 224 255
200 224 255
200 224 255
200 224 255
201 224 255
201 224 255
201 224 255
201 224 255
201 224 255
201 224 255
201 224 255
201 224 255
201 224 255
201 224 255
201 225 255
201 225 255
201 225 255
201 225 255
201 225 255
202 225 255
202 225 255
202 225 255
202 225 255
202 225 255
202 225 255
202 225 255
202 225 255
202 225 255
202 225 255
202 225 255
202 225 255
202 225 255
202 225 255
203 225 255
203 225 255
203 225 255
203 225 255
203 225 255
203 225 255
203 225 255
203 225 255
203 225 255
203 226 255
203 226 255
203 226 255
203 226 255
203 226 255
203 226 255
203 226 255
204 226 255
204 226 255
204 226 255
204 226 255
204 226 255
204 226 255
204 226 255
204 226 255
204 226 255
204 226 255
204 226 255
204 226 255
204 226 255
204 226 255
204 226 255
204 226 255
205 226 255
205 226 255
205 226 255
205 226 255
205 226 255
205 226 255
205 226 255
205 227 255
205 227 255
205 227 255
205 227 255
205 227 255
205 227 255
205 227 255
205 227 255
205 227 255
205 227 255
205 227 255
206 227 255
206 227 255
206 227 255
206 227 255
206 227 255
206 227 255
206 227 255
206 227 255
206 227 255
206 227 255
206 227 255
206 227 255
206 227 255
206 227 255
206 227 255
206 227 255
206 227 255
206 227 255
207 227 255
207 227 255
207 227 255
207 227 255
207 227 255
207 228 255
207 228 255
207 228 255
207 228 255
207 228 255
207 228 255
207 228 255
207 228 255
207 228 255
207 227 255
207 227 255
207 227 255
207 227 255
207 227 255
206 227 255
206 227 255
206 227 255
206 227 255
206 227 255
206 227 255
206 227 255
206 227 255
206 227 255
206 227 255
206 227 255
206 227 255
206 227 255
206 227 255
206 227 255
206 227 255
206 227 255
206 227 255
206 227 255
205 227 255
205 227 255
205 227 255
205 227 255
205 227 255
205 227 255
205 227 255
205 227 255
205 227 255
205 227 255
205 226 255
205 226 255
205 226 255
205 226 255
205 226 255
205 226 255
205 226 255
204 226 255
204 226 255
204 226 255
204 226 255
204 226 255
204 226 255
204 226 255
204 226 255
204 226 255
204 226 255
204 226 255
204 226 255
204 226 255
204 226 255
204 226 255
204 226 255
204 226 255
203 226 255
203 226 255
203 226 255
203 226 255
203 226 255
203 226 255
203 225 255
203 225 255
203 225 255
203 225 255
203 225 255
203 225 255
203 225 255
203 225 255
203 225 255
202 225 255
202 225 255
202 225 255
202 225 255
202 225 255
202 225 255
202 225 255
202 225 255
202 225 255
202 225 255
202 225 255
202 225 255
202 225 255
202 225 255
202 225 255
201 225 255
201 225 255
201 225 255
201 225 255
201 224 255
201 224 255
201 224 255
201 224 255
201 224 255
201 224 255
201 224 255
201 224 255
201 224 255
201 224 255
200 224 255
200 224 255
200 224 255
200 224 255
200 224 255
200 224 255
200 224 255
200 224 255
200 224 255
200 224 255
200 224 255
200 224 255
200 224 255
200 224 255
200 224 255
199 224 255
199 224 255
199 224 255
199 223 255
199 223 255
199 223 255
199 223 255
199 223 255
199 223 255
199 223 255
199 223 255
199 223 255
199 223 255
199 223 255
199 223 255
199 223 255
198 223 255
198 223 255
198 223 255
198 223 255
198 223 255
198 223 255
198 223 255
198 223 255
198 223 255
198 223 255
198 223 255
198 223 255
198 223 255
198 223 255
198 223 255
198 223 255
198 223 255
198 223 255
198 223 255
197 223 255
197 222 255
197 222 255
197 222 255
197 222 255
197 222 255
197 222 255
197 222 255
197 222 255
197 222 255
197 222 255
197 222 255
197 222 255
197 222 255
197 222 255
197 222 255
197 222 255
197 222 255
197 222 255
197 222 255
197 222 255
197 222 255
197 222 255
197 222 255
197 222 255
197 222 255
197 222 255
197 222 255
197 222 255
197 222 255
197 222 255
197 222 255
197 222 255
196 222 255
196 222 255
196 222 255
196 222 255
196 222 255
196 222 255
196 222 255
196 222 255
196 222 255
196 222 255
196 222 255
196 222 255
196 222 255
196 222 255
196 222 255
196 222 255
196 222 255
196 222 255
196 222 255
197 222 255
197 222 255
197 222 255
197 222 255
197 222 255
197 222 255
197 222 255
197 222 255
197 222 255
197 222 255
197 222 255
197 222 255
197 222 255
197 222 255
197 222 255
197 222 255
197 222 255
197 222 255
197 222 255
197 222 255
197 222 255
197 222 255
197 222 255
197 222 255
197 222 255
197 222 255
197 222 255
197 222 255
197 222 255
197 222 255
197 222 255
197 222 255
197 223 255
198 223 255
198 223 255
198 223 255
198 223 255
198 223 255
198 223 255
198 223 255
198 223 255
198 223 255
198 223 255
198 223 255
198 223 255
198 223 255
198 223 255
198 223 255
198 223 255
198 223 255
198 223 255
198 223 255
199 223 255
199 223 255
199 223 255
199 223 255
199 223 255
199 223 255
199 223 255
199 223 255
199 223 255
199 223 255
199 223 255
199 223 255
199 223 255
199 224 255
199 224 255
200 224 255
200 224 255
200 224 255
200 224 255
200 224 255
200 224 255
200 224 255
200 224 255
200 224 255
200 224 255
200 224 255
200 224 255
200 224 255
200 224 255
200 224 255
201 224 255
201 224 255
201 224 255
201 224 255
201 224 255
201 224 255
201 224 255
201 224 255
201 224 255
201 224 255
201 224 255
201 225 255
201 225 255
201 225 255
201 225 255
202 225 255
202 225 255
202 225 255
202 225 255
202 225 255
202 225 255
202 225 255
202 225 255
202 225 255
202 225 255
202 225 255
202 225 255
202 225 255
202 225 255
202 225 255
203 225 255
203 225 255
203 225 255
203 225 255
203 225 255
203 225 255
203 225 255
203 225 255
203 225 255
203 226 255
203 226 255
203 226 255
203 226 255
203 226 255
203 226 255
204 226 255
204 226 255
204 226 255
204 226 255
204 226 255
204 226 255
204 226 255
204 226 255
204 226 255
204 226 255
204 226 255
204 226 255
204 226 255
204 226 255
204 226 255
204 226 255
205 226 255
205 226 255
205 226 255
205 226 255
205 226 255
205 226 255
205 226 255
205 227 255
205 227 255
205 227 255
205 227 255
205 227 255
205 227 255
205 227 255
205 227 255
205 227 255
205 227 255
205 227 255
206 227 255
206 227 255
206 227 255
206 227 255
206 227 255
206 227 255
206 227 255
206 227 255
206 227 255
206 227 255
206 227 255
206 227 255
206 227 255
206 227 255
206 227 255
206 227 255
206 227 255
206 227 255
206 227 255
207 227 255
207 227 255
207 227 255
207 227 255
207 228 255
207 228 255
207 228 255
207 228 255
207 228 255
207 228 255
207 228 255
207 228 255
207 228 255
207 228 255
207 228 255
207 228 255
207 228 255
207 228 255
207 228 255
207 227 255
207 227 255
207 227 255
207 227 255
207 227 255
206 227 255
206 227 255
206 227 255
206 227 255
206 227 255
206 227 255
206 227 255
206 227 255
206 227 255
206 227 255
206 227 255
206 227 255
206 227 255
206 227 255
206 227 255
206 227 255
206 227 255
206 227 255
206 227 255
205 227 255
205 227 255
205 227 255
205 227 255
205 227 255
205 227 255
205 227 255
205 227 255
205 227 255
205 227 255
205 226 255
205 226 255
205 226 255
205 226 255
205 226 255
205 226 255
205 226 255
204 226 255
204 226 255
204 226 255
204 226 255
204 226 255
204 226 255
204 226 255
204 226 255
204 226 255
204 226 255
204 226 255
204 226 255
204 226 255
204 226 255
204 226 255
204 226 255
203 226 255
203 226 255
203 226 255
203 226 255
203 226 255
203 226 255
203 226 255
203 225 255
203 225 255
203 225 255
203 225 255
203 225 255
203 225 255
203 225 255
203 225 255
202 225 255
202 225 255
202 225 255
202 225 255
202 225 255
202 225 255
202 225 255
202 225 255
202 225 255
202 225 255
202 225 255
202 225 255
202 225 255
202 225 255
202 225 255
201 225 255
201 225 255
201 225 255
201 225 255
201 225 255
201 224 255
201 224 255
201 224 255
201 224 255
201 224 255
201 224 255
201 224 255
201 224 255
201 224 255
201 224 255
200 224 255
200 224 255
200 224 255
200 224 255
200 224 255
200 224 255
200 224 255
200 224 255
200 224 255
200 224 255
200 224 255
200 224 255
200 224 255
200 224 255
200 224 255
199 224 255
199 224 255
199 224 255
199 223 255
199 223 255
199 223 255
199 223 255
199 223 255
199 223 255
199 223 255
199 223 255
199 223 255
199 223 255
199 223 255
199 223 255
199 223 255
198 223 255
198 223 255
198 223 255
198 223 255
198 223 255
198 223 255
198 223 255
198 223 255
198 223 255
198 223 255
198 223 255
198 223 255
198 223 255
198 223 255
198 223 255
198 223 255
198 223 255
198 223 255
198 223 255
198 223 255
197 223 255
197 222 255
197 222 255
197 222 255
197 222 255
197 222 255
197 222 255
197 222 255
197 222 255
197 222 255
197 222 255
197 222 255
197 222 255
197 222 255
197 222 255
197 222 255
197 222 255
197 222 255
197 222 255
197 222 255
197 222 255
197 222 255
197 222 255
197 222 255
197 222 255
197 222 255
197 222 255
197 222 255
197 222 255
197 222 255
197 222 255
197 222 255
197 222 255
197 222 255
197 222 255
197 222 255
197 222 255
197 222 255
197 222 255
197 222 255
197 222 255
197 222 255
197 222 255
197 222 255
197 222 255
197 222 255
197 222 255
197 222 255
197 222 255
197 222 255
197 222 255
197 222 255
197 222 255
197 222 255
197 222 255
197 222 255
197 222 255
197 222 255
197 222 255
197 222 255
197 222 255
197 222 255
197 222 255
197 222 255
197 222 255
197 222 255
197 222 255
197 222 255
197 222 255
197 222 255
197 222 255
197 222 255
197 222 255
197 222 255
197 222 255
197 222 255
197 223 255
198 223 255
198 223 255
198 223 255
198 223 255
198 223 255
198 223 255
198 223 255
198 223 255
198 223 255
198 223 255
198 223 255
198 223 255
198 223 255
198 223 255
198 223 255
198 223 255
198 223 255
198 223 255
198 223 255
198 223 255
199 223 255
199 223 255
199 223 255
199 223 255
199 223 255
199 223 255
199 223 255
199 223 255
199 223 255
199 223 255
199 223 255
199 223 255
199 223 255
199 224 255
199 224 255
199 224 255
200 224 255
200 224 255
200 224 255
200 224 255
200 224 255
200 224 255
200 224 255
200 224 255
200 224 255
200 224 255
200 224 255
200 224 255
200 224 255
200 224 255
200 224 255
201 224 255
201 224 255
201 224 255
201 224 255
201 224 255
201 224 255
201 224 255
201 224 255
201 224 255
201 224 255
201 225 255
201 225 255
201 225 255
201 225 255
201 225 255
202 225 255
202 225 255
202 225 255
202 225 255
202 225 255
202 225 255
202 225 255
202 225 255
202 225 255
202 225 255
202 225 255
202 225 255
202 225 255
202 225 255
202 225 255
203 225 255
203 225 255
203 225 255
203 225 255
203 225 255
203 225 255
203 225 255
203 225 255
203 226 255
203 226 255
203 226 255
203 226 255
203 226 255
203 226 255
203 226 255
204 226 255
204 226 255
204 226 255
204 226 255
204 226 255
204 226 255
204 226 255
204 226 255
204 226 255
204 226 255
204 226 255
204 226 255
204 226 255
204 226 255
204 226 255
204 226 255
205 226 255
205 226 255
205 226 255
205 226 255
205 226 255
205 226 255
205 226 255
205 227 255
205 227 255
205 227 255
205 227 255
205 227 255
205 227 255
205 227 255
205 227 255
205 227 255
205 227 255
206 227 255
206 227 255
206 227 255
206 227 255
206 227 255
206 227 255
206 227 255
206 227 255
206 227 255
206 227 255
206 227 255
206 227 255
206 227 255
206 227 255
206 227 255
206 227 255
206 227 255
206 227 255
206 227 255
207 227 255
207 227 255
207 227 255
207 227 255
207 227 255
207 228 255
207 228 255
207 228 255
207 228 255
207 228 255
207 228 255
207 228 255
207 228 255
207 228 255
207 228 255
207 228 255
207 228 255
207 228 255
207 228 255
207 228 255
207 228 255
207 228 255
207 228 255
207 228 255
207 228 255
207 227 255
207 227 255
207 227 255
207 227 255
207 227 255
206 227 255
206 227 255
206 227 255
206 227 255
206 227 255
206 227 255
206 227 255
206 227 255
206 227 255
206 227 255
206 227 255
206 227 255
206 227 255
206 227 255
206 227 255
206 227 255
206 227 255
206 227 255
206 227 255
205 227 255
205 227 255
205 227 255
205 227 255
205 227 255
205 227 255
205 227 255
205 227 255
205 227 255
205 227 255
205 226 255
205 226 255
205 226 255
205 226 255
205 226 255
205 226 255
205 226 255
204 226 255
204 226 255
204 226 255
204 226 255
204 226 255
204 226 255
204 226 255
204 226 255
204 226 255
204 226 255
204 226 255
204 226 255
204 226 255
204 226 255
204 226 255
204 226 255
203 226 255
203 226 255
203 226 255
203 226 255
203 226 255
203 226 255
203 226 255
203 225 255
203 225 255
203 225 255
203 225 255
203 225 255
203 225 255
203 225 255
203 225 255
202 225 255
202 225 255
202 225 255
202 225 255
202 225 255
202 225 255
202 225 255
202 225 255
202 225 255
202 225 255
202 225 255
202 225 255
202 225 255
202 225 255
202 225 255
201 225 255
201 225 255
201 225 255
201 225 255
201 224 255
201 224 255
201 224 255
201 224 255
201 224 255
201 224 255
201 224 255
201 224 255
201 224 255
201 224 255
200 224 255
200 224 255
200 224 255
200 224 255
200 224 255
200 224 255
200 224 255
200 224 255
200 224 255
200 224 255
200 224 255
200 224 255
200 224 255
200 224 255
200 224 255
200 224 255
199 224 255
199 224 255
199 223 255
199 223 255
199 223 255
199 223 255
199 223 255
199 223 255
199 223 255
199 223 255
199 223 255
199 223 255
199 223 255
199 223 255
199 223 255
199 223 255
198 223 255
198 223 255
198 223 255
198 223 255
198 223 255
198 223 255
198 223 255
198 223 255
198 223 255
198 223 255
198 223 255
198 223 255
198 223 255
198 223 255
198 223 255
198 223 255
198 223 255
198 223 255
198 223 255
198 223 255
198 223 255
197 223 255
197 222 255
197 222 255
197 222 255
197 222 255
197 222 255
197 222 255
197 222 255
197 222 255
197 222 255
197 222 255
197 222 255
197 222 255
197 222 255
197 222 255
197 222 255
197 222 255
197 222 255
197 222 255
197 222 255
197 222 255
197 222 255
197 222 255
197 222 255
197 222 255
197 222 255
197 222 255
197 222 255
197 222 255
197 222 255
197 222 255
197 222 255
197 222 255
197 222 255
197 222 255
197 222 255
197 222 255
197 222 255
197 222 255
197 222 255
197 222 255
197 222 255
197 222 255
197 222 255
197 222 255
197 222 255
197 222 255
197 222 255
197 222 255
197 222 255
197 222 255
197 222 255
197 222 255
197 222 255
197 222 255
197 222 255
197 222 255
197 222 255
197 222 255
197 222 255
197 222 255
197 222 255
197 222 255
197 222 255
197 222 255
197 222 255
197 222 255
197 222 255
197 223 255
198 223 255
198 223 255
198 223 255
198 223 255
198 223 255
198 223 255
198 223 255
198 223 255
198 223 255
198 223 255
198 223 255
198 223 255
198 223 255
198 223 255
198 223 255
198 223 255
198 223 255
198 223 255
198 223 255
198 223 255
198 223 255
199 223 255
199 223 255
199 223 255
199 223 255
199 223 255
199 223 255
199 223 255
199 223 255
199 223 255
199 223 255
199 223 255
199 223 255
199 223 255
199 223 255
199 224 255
199 224 255
200 224 255
200 224 255
200 224 255
200 224 255
200 224 255
200 224 255
200 224 255
200 224 255
200 224 255
200 224 255
200 224 255
200 224 255
200 224 255
200 224 255
200 224 255
200 224 255
201 224 255
201 224 255
201 224 255
201 224 255
201 224 255
201 224 255
201 224 255
201 224 255
201 224 255
201 224 255
201 225 255
201 225 255
201 225 255
201 225 255
202 225 255
202 225 255
202 225 255
202 225 255
202 225 255
202 225 255
202 225 255
202 225 255
202 225 255
202 225 255
202 225 255
202 225 255
202 225 255
202 225 255
202 225 255
203 225 255
203 225 255
203 225 255
203 225 255
203 225 255
203 225 255
203 225 255
203 225 255
203 225 255
203 226 255
203 226 255
203 226 255
203 226 255
203 226 255
203 226 255
204 226 255
204 226 255
204 226 255
204 226 255
204 226 255
204 226 255
204 226 255
204 226 255
204 226 255
204 226 255
204 226 255
204 226 255
204 226 255
204 226 255
204 226 255
204 226 255
205 226 255
205 226 255
205 226 255
205 226 255
205 226 255
205 226 255
205 226 255
205 227 255
205 227 255
205 227 255
205 227 255
205 227 255
205 227 255
205 227 255
205 227 255
205 227 255
205 227 255
205 227 255
206 227 255
206 227 255
206 227 255
206 227 255
206 227 255
206 227 255
206 227 255
206 227 255
206 227 255
206 227 255
206 227 255
206 227 255
206 227 255
206 227 255
206 227 255
206 227 255
206 227 255
206 227 255
207 227 255
207 227 255
207 227 255
207 227 255
207 227 255
207 228 255
207 228 255
207 228 255
207 228 255
207 228 255
207 228 255
207 228 255
207 228 255
207 228 255
207 228 255
207 228 255
207 228 255
207 228 255
207 228 255
207 228 255
207 228 255
207 228 255
207 228 255
207 228 255
207 228 255
207 228 255
207 228 255
207 228 255
207 228 255
207 228 255
207 228 255
207 227 255
207 227 255
207 227 255
207 227 255
207 227 255
206 227 255
206 227 255
206 227 255
206 227 255
206 227 255
206 227 255
206 227 255
206 227 255
206 227 255
206 227 255
206 227 255
206 227 255
206 227 255
206 227 255
206 227 255
206 227 255
206 227 255
206 227 255
205 227 255
205 227 255
205 227 255
205 227 255
205 227 255
205 227 255
205 227 255
205 227 255
205 227 255
205 227 255
205 226 255
205 226 255
205 226 255
205 226 255
205 226 255
205 226 255
205 226 255
204 226 255
204 226 255
204 226 255
204 226 255
204 226 255
204 226 255
204 226 255
204 226 255
204 226 255
204 226 255
204 226 255
204 226 255
204 226 255
204 226 255
204 226 255
204 226 255
203 226 255
203 226 255
203 226 255
203 226 255
203 226 255
203 226 255
203 226 255
203 225 255
203 225 255
203 225 255
203 225 255
203 225 255
203 225 255
203 225 255
203 225 255
202 225 255
202 225 255
202 225 255
202 225 255
202 225 255
202 225 255
202 225 255
202 225 255
202 225 255
202 225 255
202 225 255
202 225 255
202 225 255
202 225 255
202 225 255
202 225 255
201 225 255
201 225 255
201 225 255
201 225 255
201 224 255
201 224 255
201 224 255
201 224 255
201 224 255
201 224 255
201 224 255
201 224 255
201 224 255
201 224 255
200 224 255
200 224 255
200 224 255
200 224 255
200 224 255
200 224 255
200 224 255
200 224 255
200 224 255
200 224 255
200 224 255
200 224 255
200 224 255
200 224 255
200 224 255
200 224 255
199 224 255
199 224 255
199 223 255
199 223 255
199 223 255
199 223 255
199 223 255
199 223 255
199 223 255
199 223 255
199 223 255
199 223 255
199 223 255
199 223 255
199 223 255
199 223 255
199 223 255
198 223 255
198 223 255
198 223 255
198 223 255
198 223 255
198 223 255
198 223 255
198 223 255
198 223 255
198 223 255
198 223 255
198 223 255
198 223 255
198 223 255
198 223 255
198 223 255
198 223 255
198 223 255
198 223 255
198 223 255
198 223 255
198 223 255
197 223 255
197 222 255
197 222 255
197 222 255
197 222 255
197 222 255
197 222 255
197 222 255
197 222 255
197 222 255
197 222 255
197 222 255
197 222 255
197 222 255
197 222 255
197 222 255
197 222 255
197 222 255
197 222 255
197 222 255
197 222 255
197 222 255
197 222 255
197 222 255
197 222 255
197 222 255
197 222 255
197 222 255
197 222 255
197 222 255
197 222 255
197 222 255
197 222 255
197 222 255
197 222 255
197 222 255
197 222 255
197 222 255
197 222 255
197 222 255
197 222 255
197 222 255
197 222 255
197 222 255
197 222 255
197 222 255
197 222 255
197 222 255
197 222 255
197 222 255
197 222 255
197 222 255
197 222 255
197 222 255
197 222 255
197 222 255
197 222 255
197 222 255
197 223 255
198 223 255
198 223 255
198 223 255
198 223 255
198 223 255
198 223 255
198 223 255
198 223 255
198 223 255
198 223 255
198 223 255
198 223 255
198 223 255
198 223 255
198 223 255
198 223 255
198 223 255
198 223 255
198 223 255
198 223 255
198 223 255
198 223 255
199 223 255
199 223 255
199 223 255
199 223 255
199 223 255
199 223 255
199 223 255
199 223 255
199 223 255
199 223 255
199 223 255
199 223 255
199 223 255
199 223 255
199 223 255
199 224 255
199 224 255
200 224 255
200 224 255
200 224 255
200 224 255
200 224 255
200 224 255
200 224 255
200 224 255
200 224 255
200 224 255
200 224 255
200 224 255
200 224 255
200 224 255
200 224 255
200 224 255
201 224 255
201 224 255
201 224 255
201 224 255
201 224 255
201 224 255
201 224 255
201 224 255
201 224 255
201 224 255
201 225 255
201 225 255
201 225 255
201 225 255
201 225 255
202 225 255
202 225 255
202 225 255
202 225 255
202 225 255
202 225 255
202 225 255
202 225 255
202 225 255
202 225 255
202 225 255
202 225 255
202 225 255
202 225 255
202 225 255
203 225 255
203 225 255
203 225 255
203 225 255
203 225 255
203 225 255
203 225 255
203 225 255
203 226 255
203 226 255
203 226 255
203 226 255
203 226 255
203 226 255
203 226 255
204 226 255
204 226 255
204 226 255
204 226 255
204 226 255
204 226 255
204 226 255
204 226 255
204 226 255
204 226 255
204 226 255
204 226 255
204 226 255
204 226 255
204 226 255
204 226 255
205 226 255
205 226 255
205 226 255
205 226 255
205 226 255
205 226 255
205 226 255
205 227 255
205 227 255
205 227 255
205 227 255
205 227 255
205 227 255
205 227 255
205 227 255
205 227 255
205 227 255
206 227 255
206 227 255
206 227 255
206 227 255
206 227 255
206 227 255
206 227 255
206 227 255
206 227 255
206 227 255
206 227 255
206 227 255
206 227 255
206 227 255
206 227 255
206 227 255
206 227 255
206 227 255
207 227 255
207 227 255
207 227 255
207 227 255
207 227 255
207 228 255
207 228 255
207 228 255
207 228 255
207 228 255
207 228 255
207 228 255
207 228 255
207 228 255
207 228 255
207 228 255
207 228 255
207 228 255
207 228 255
207 228 255
208 228 255
208 228 255
207 228 255
207 228 255
207 228 255
207 228 255
207 228 255
207 228 255
207 228 255
207 228 255
207 228 255
207 228 255
207 228 255
207 228 255
207 228 255
207 228 255
207 228 255
207 227 255
207 227 255
207 227 255
207 227 255
207 227 255
206 227 255
206 227 255
206 227 255
206 227 255
206 227 255
206 227 255
206 227 255
206 227 255
206 227 255
206 227 255
206 227 255
206 227 255
206 227 255
206 227 255
206 227 255
206 227 255
206 227 255
206 227 255
205 227 255
205 227 255
205 227 255
205 227 255
205 227 255
205 227 255
205 227 255
205 227 255
205 227 255
205 227 255
205 226 255
205 226 255
205 226 255
205 226 255
205 226 255
205 226 255
205 226 255
204 226 255
204 226 255
204 226 255
204 226 255
204 226 255
204 226 255
204 226 255
204 226 255
204 226 255
204 226 255
204 226 255
204 226 255
204 226 255
204 226 255
204 226 255
204 226 255
203 226 255
203 226 255
203 226 255
203 226 255
203 226 255
203 226 255
203 226 255
203 225 255
203 225 255
203 225 255
203 225 255
203 225 255
203 225 255
203 225 255
203 225 255
202 225 255
202 225 255
202 225 255
202 225 255
202 225 255
202 225 255
202 225 255
202 225 255
202 225 255
202 225 255
202 225 255
202 225 255
202 225 255
202 225 255
202 225 255
201 225 255
201 225 255
201 225 255
201 225 255
201 224 255
201 224 255
201 224 255
201 224 255
201 224 255
201 224 255
201 224 255
201 224 255
201 224 255
201 224 255
201 224 255
200 224 255
200 224 255
200 224 255
200 224 255
200 224 255
200 224 255
200 224 255
200 224 255
200 224 255
200 224 255
200 224 255
200 224 255
200 224 255
200 224 255
200 224 255
200 224 255
199 224 255
199 224 255
199 223 255
199 223 255
199 223 255
199 223 255
199 223 255
199 223 255
199 223 255
199 223 255
199 223 255
199 223 255
199 223 255
199 223 255
199 223 255
199 223 255
199 223 255
198 223 255
198 223 255
198 223 255
198 223 255
198 223 255
198 223 255
198 223 255
198 223 255
198 223 255
198 223 255
198 223 255
198 223 255
198 223 255
198 223 255
198 223 255
198 223 255
198 223 255
198 223 255
198 223 255
198 223 255
198 223 255
198 223 255
198 223 255
198 223 255
198 223 255
197 223 255
197 222 255
197 222 255
197 222 255
197 222 255
197 222 255
197 222 255
197 222 255
197 222 255
197 222 255
197 222 255
197 222 255
197 222 255
197 222 255
197 222 255
197 222 255
197 222 255
197 222 255
197 222 255
197 222 255
197 222 255
197 222 255
197 222 255
197 222 255
197 222 255
197 222 255
197 222 255
197 222 255
197 222 255
197 222 255
197 222 255
197 222 255
197 222 255
197 222 255
197 222 255
197 222 255
197 222 255
197 222 255
197 222 255
197 222 255
197 222 255
197 222 255
197 222 255
197 222 255
197 222 255
197 222 255
197 223 255
198 223 255
198 223 255
198 223 255
198 223 255
198 223 255
198 223 255
198 223 255
198 223 255
198 223 255
198 223 255
198 223 255
198 223 255
198 223 255
198 223 255
198 223 255
198 223 255
198 223 255
198 223 255
198 223 255
198 223 255
198 223 255
198 223 255
198 223 255
198 223 255
198 223 255
199 223 255
199 223 255
199 223 255
199 223 255
199 223 255
199 223 255
199 223 255
199 223 255
199 223 255
199 223 255
199 223 255
199 223 255
199 223 255
199 223 255
199 223 255
199 224 255
199 224 255
199 224 255
200 224 255
200 224 255
200 224 255
200 224 255
200 224 255
200 224 255
200 224 255
200 224 255
200 224 255
200 224 255
200 224 255
200 224 255
200 224 255
200 224 255
200 224 255
201 224 255
201 224 255
201 224 255
201 224 255
201 224 255
201 224 255
201 224 255
201 224 255
201 224 255
201 224 255
201 224 255
201 225 255
201 225 255
201 225 255
201 225 255
202 225 255
202 225 255
202 225 255
202 225 255
202 225 255
202 225 255
202 225 255
202 225 255
202 225 255
202 225 255
202 225 255
202 225 255
202 225 255
202 225 255
202 225 255
203 225 255
203 225 255
203 225 255
203 225 255
203 225 255
203 225 255
203 225 255
203 225 255
203 226 255
203 226 255
203 226 255
203 226 255
203 226 255
203 226 255
203 226 255
204 226 255
204 226 255
204 226 255
204 226 255
204 226 255
204 226 255
204 226 255
204 226 255
204 226 255
204 226 255
204 226 255
204 226 255
204 226 255
204 226 255
204 226 255
204 226 255
205 226 255
205 226 255
205 226 255
205 226 255
205 226 255
205 226 255
205 226 255
205 227 255
205 227 255
205 227 255
205 227 255
205 227 255
205 227 255
205 227 255
205 227 255
205 227 255
205 227 255
206 227 255
206 227 255
206 227 255
206 227 255
206 227 255
206 227 255
206 227 255
206 227 255
206 227 255
206 227 255
206 227 255
206 227 255
206 227 255
206 227 255
206 227 255
206 227 255
206 227 255
206 227 255
207 227 255
207 227 255
207 227 255
207 227 255
207 227 255
207 228 255
207 228 255
207 228 255
207 228 255
207 228 255
207 228 255
207 228 255
207 228 255
207 228 255
207 228 255
207 228 255
207 228 255
207 228 255
207 228 255
207 228 255
207 228 255
208 228 255
208 228 255
208 228 255
208 228 255
208 228 255
208 228 255
207 228 255
207 228 255
207 228 255
207 228 255
207 228 255
207 228 255
207 228 255
207 228 255
207 228 255
207 228 255
207 228 255
207 228 255
207 228 255
207 228 255
207 228 255
207 228 255
207 227 255
207 227 255
207 227 255
207 227 255
206 227 255
206 227 255
206 227 255
206 227 255
206 227 255
206 227 255
206 227 255
206 227 255
206 227 255
206 227 255
206 227 255
206 227 255
206 227 255
206 227 255
206 227 255
206 227 255
206 227 255
206 227 255
206 227 255
205 227 255
205 227 255
205 227 255
205 227 255
205 227 255
205 227 255
205 227 255
205 227 255
205 227 255
205 227 255
205 226 255
205 226 255
205 226 255
205 226 255
205 226 255
205 226 255
205 226 255
204 226 255
204 226 255
204 226 255
204 226 255
204 226 255
204 226 255
204 226 255
204 226 255
204 226 255
204 226 255
204 226 255
204 226 255
204 226 255
204 226 255
204 226 255
203 226 255
203 226 255
203 226 255
203 226 255
203 226 255
203 226 255
203 226 255
203 225 255
203 225 255
203 225 255
203 225 255
203 225 255
203 225 255
203 225 255
203 225 255
203 225 255
202 225 255
202 225 255
202 225 255
202 225 255
202 225 255
202 225 255
202 225 255
202 225 255
202 225 255
202 225 255
202 225 255
202 225 255
202 225 255
202 225 255
202 225 255
201 225 255
201 225 255
201 225 255
201 225 255
201 224 255
201 224 255
201 224 255
201 224 255
201 224 255
201 224 255
201 224 255
201 224 255
201 224 255
201 224 255
201 224 255
200 224 255
200 224 255
200 224 255
200 224 255
200 224 255
200 224 255
200 224 255
200 224 255
200 224 255
200 224 255
200 224 255
200 224 255
200 224 255
200 224 255
200 224 255
199 224 255
199 224 255
199 224 255
199 223 255
199 223 255
199 223 255
199 223 255
199 223 255
199 223 255
199 223 255
199 223 255
199 223 255
199 223 255
199 223 255
199 223 255
199 223 255
199 223 255
199 223 255
199 223 255
198 223 255
198 223 255
198 223 255
198 223 255
198 223 255
198 223 255
198 223 255
198 223 255
198 223 255
198 223 255
198 223 255
198 223 255
198 223 255
198 223 255
198 223 255
198 223 255
198 223 255
198 223 255
198 223 255
198 223 255
198 223 255
198 223 255
198 223 255
198 223 255
198 223 255
198 223 255
198 223 255
198 223 255
197 223 255
197 223 255
197 222 255
197 222 255
197 222 255
197 222 255
197 222 255
197 222 255
197 222 255
197 222 255
197 222 255
197 222 255
197 222 255
197 222 255
197 222 255
197 222 255
197 222 255
197 222 255
197 222 255
197 222 255
197 222 255
197 222 255
197 222 255
197 222 255
197 222 255
197 222 255
197 222 255
197 222 255
197 222 255
197 222 255
197 222 255
197 223 255
197 223 255
198 223 255
198 223 255
198 223 255
198 223 255
198 223 255
198 223 255
198 223 255
198 223 255
198 223 255
198 223 255
198 223 255
198 223 255
198 223 255
198 223 255
198 223 255
198 223 255
198 223 255
198 223 255
198 223 255
198 223 255
198 223 255
198 223 255
198 223 255
198 223 255
198 223 255
198 223 255
198 223 255
198 223 255
199 223 255
199 223 255
199 223 255
199 223 255
199 223 255
199 223 255
199 223 255
199 223 255
199 223 255
199 223 255
199 223 255
199 223 255
199 223 255
199 223 255
199 223 255
199 223 255
199 224 255
199 224 255
200 224 255
200 224 255
200 224 255
200 224 255
200 224 255
200 224 255
200 224 255
200 224 255
200 224 255
200 224 255
200 224 255
200 224 255
200 224 255
200 224 255
200 224 255
200 224 255
201 224 255
201 224 255
201 224 255
201 224 255
201 224 255
201 224 255
201 224 255
201 224 255
201 224 255
201 224 255
201 224 255
201 225 255
201 225 255
201 225 255
201 225 255
202 225 255
202 225 255
202 225 255
202 225 255
202 225 255
202 225 255
202 225 255
202 225 255
202 225 255
202 225 255
202 225 255
202 225 255
202 225 255
202 225 255
202 225 255
203 225 255
203 225 255
203 225 255
203 225 255
203 225 255
203 225 255
203 225 255
203 225 255
203 225 255
203 226 255
203 226 255
203 226 255
203 226 255
203 226 255
203 226 255
203 226 255
204 226 255
204 226 255
204 226 255
204 226 255
204 226 255
204 226 255
204 226 255
204 226 255
204 226 255
204 226 255
204 226 255
204 226 255
204 226 255
204 226 255
204 226 255
205 226 255
205 226 255
205 226 255
205 226 255
205 226 255
205 226 255
205 226 255
205 227 255
205 227 255
205 227 255
205 227 255
205 227 255
205 227 255
205 227 255
205 227 255
205 227 255
205 227 255
206 227 255
206 227 255
206 227 255
206 227 255
206 227 255
206 227 255
206 227 255
206 227 255
206 227 255
206 227 255
206 227 255
206 227 255
206 227 255
206 227 255
206 227 255
206 227 255
206 227 255
206 227 255
206 227 255
207 227 255
207 227 255
207 227 255
207 227 255
207 228 255
207 228 255
207 228 255
207 228 255
207 228 255
207 228 255
207 228 255
207 228 255
207 228 255
207 228 255
207 228 255
207 228 255
207 228 255
207 228 255
207 228 255
207 228 255
208 228 255
208 228 255
208 228 255
208 228 255
208 228 255
208 228 255
208 228 255
208 228 255
208 228 255
208 228 255
208 228 255
208 228 255
208 228 255
207 228 255
207 228 255
207 228 255
207 228 255
207 228 255
207 228 255
207 228 255
207 228 255
207 228 255
207 228 255
207 228 255
207 228 255
207 228 255
207 228 255
207 228 255
207 227 255
207 227 255
207 227 255
207 227 255
206 227 255
206 227 255
206 227 255
206 227 255
206 227 255
206 227 255
206 227 255
206 227 255
206 227 255
206 227 255
206 227 255
206 227 255
206 227 255
206 227 255
206 227 255
206 227 255
206 227 255
206 227 255
205 227 255
205 227 255
205 227 255
205 227 255
205 227 255
205 227 255
205 227 255
205 227 255
205 227 255
205 227 255
205 227 255
205 226 255
205 226 255
205 226 255
205 226 255
205 226 255
205 226 255
204 226 255
204 226 255
204 226 255
204 226 255
204 226 255
204 226 255
204 226 255
204 226 255
204 226 255
204 226 255
204 226 255
204 226 255
204 226 255
204 226 255
204 226 255
204 226 255
203 226 255
203 226 255
203 226 255
203 226 255
203 226 255
203 226 255
203 226 255
203 225 255
203 225 255
203 225 255
203 225 255
203 225 255
203 225 255
203 225 255
203 225 255
202 225 255
202 225 255
202 225 255
202 225 255
202 225 255
202 225 255
202 225 255
202 225 255
202 225 255
202 225 255
202 225 255
202 225 255
202 225 255
202 225 255
202 225 255
201 225 255
201 225 255
201 225 255
201 225 255
201 225 255
201 224 255
201 224 255
201 224 255
201 224 255
201 224 255
201 224 255
201 224 255
201 224 255
201 224 255
201 224 255
200 224 255
200 224 255
200 224 255
200 224 255
200 224 255
200 224 255
200 224 255
200 224 255
200 224 255
200 224 255
200 224 255
200 224 255
200 224 255
200 224 255
200 224 255
200 224 255
200 224 255
199 224 255
199 224 255
199 223 255
199 223 255
199 223 255
199 223 255
199 223 255
199 223 255
199 223 255
199 223 255
199 223 255
199 223 255
199 223 255
199 223 255
199 223 255
199 223 255
199 223 255
199 223 255
199 223 255
198 223 255
198 223 255
198 223 255
198 223 255
198 223 255
198 223 255
198 223 255
198 223 255
198 223 255
198 223 255
198 223 255
198 223 255
198 223 255
198 223 255
198 223 255
198 223 255
198 223 255
198 223 255
198 223 255
198 223 255
198 223 255
198 223 255
198 223 255
198 223 255
198 223 255
198 223 255
198 223 255
198 223 255
198 223 255
198 223 255
198 223 255
198 223 255
198 223 255
198 223 255
198 223 255
198 223 255
198 223 255
198 223 255
198 223 255
198 223 255
198 223 255
198 223 255
198 223 255
198 223 255
198 223 255
198 223 255
198 223 255
198 223 255
198 223 255
198 223 255
198 223 255
198 223 255
198 223 255
198 223 255
198 223 255
198 223 255
198 223 255
198 223 255
198 223 255
198 223 255
198 223 255
198 223 255
198 223 255
198 223 255
198 223 255
198 223 255
198 223 255
198 223 255
198 223 255
198 223 255
198 223 255
198 223 255
198 223 255
198 223 255
198 223 255
198 223 255
198 223 255
198 223 255
198 223 255
198 223 255
198 223 255
199 223 255
199 223 255
199 223 255
199 223 255
199 223 255
199 223 255
199 223 255
199 223 255
199 223 255
199 223 255
199 223 255
199 223 255
199 223 255
199 223 255
199 223 255
199 223 255
199 223 255
199 224 255
199 224 255
200 224 255
200 224 255
200 224 255
200 224 255
200 224 255
200 224 255
200 224 255
200 224 255
200 224 255
200 224 255
200 224 255
200 224 255
200 224 255
200 224 255
200 224 255
200 224 255
200 224 255
201 224 255
201 224 255
201 224 255
201 224 255
201 224 255
201 224 255
201 224 255
201 224 255
201 224 255
201 224 255
201 224 255
201 225 255
201 225 255
201 225 255
201 225 255
202 225 255
202 225 255
202 225 255
202 225 255
202 225 255
202 225 255
202 225 255
202 225 255
202 225 255
202 225 255
202 225 255
202 225 255
202 225 255
202 225 255
202 225 255
203 225 255
203 225 255
203 225 255
203 225 255
203 225 255
203 225 255
203 225 255
203 225 255
203 226 255
203 226 255
203 226 255
203 226 255
203 226 255
203 226 255
203 226 255
204 226 255
204 226 255
204 226 255
204 226 255
204 226 255
204 226 255
204 226 255
204 226 255
204 226 255
204 226 255
204 226 255
204 226 255
204 226 255
204 226 255
204 226 255
204 226 255
205 226 255
205 226 255
205 226 255
205 226 255
205 226 255
205 226 255
205 227 255
205 227 255
205 227 255
205 227 255
205 227 255
205 227 255
205 227 255
205 227 255
205 227 255
205 227 255
205 227 255
206 227 255
206 227 255
206 227 255
206 227 255
206 227 255
206 227 255
206 227 255
206 227 255
206 227 255
206 227 255
206 227 255
206 227 255
206 227 255
206 227 255
206 227 255
206 227 255
206 227 255
206 227 255
207 227 255
207 227 255
207 227 255
207 227 255
207 228 255
207 228 255
207 228 255
207 228 255
207 228 255
207 228 255
207 228 255
207 228 255
207 228 255
207 228 255
207 228 255
207 228 255
207 228 255
207 228 255
207 228 255
207 228 255
208 228 255
208 228 255
208 228 255
208 228 255
208 228 255
208 228 255
208 228 255
208 228 255
208 228 255
208 228 255
208 228 255
208 228 255
208 228 255
208 228 255
208 228 255
208 228 255
208 228 255
208 228 255
207 228 255
207 228 255
207 228 255
207 228 255
207 228 255
207 228 255
207 228 255
207 228 255
207 228 255
207 228 255
207 228 255
207 228 255
207 228 255
207 228 255
207 228 255
207 228 255
207 227 255
207 227 255
207 227 255
207 227 255
206 227 255
206 227 255
206 227 255
206 227 255
206 227 255
206 227 255
206 227 255
206 227 255
206 227 255
206 227 255
206 227 255
206 227 255
206 227 255
206 227 255
206 227 255
206 227 255
206 227 255
206 227 255
205 227 255
205 227 255
205 227 255
205 227 255
205 227 255
205 227 255
205 227 255
205 227 255
205 227 255
205 227 255
205 226 255
205 226 255
205 226 255
205 226 255
205 226 255
205 226 255
205 226 255
204 226 255
204 226 255
204 226 255
204 226 255
204 226 255
204 226 255
204 226 255
204 226 255
204 226 255
204 226 255
204 226 255
204 226 255
204 226 255
204 226 255
204 226 255
204 226 255
203 226 255
203 226 255
203 226 255
203 226 255
203 226 255
203 226 255
203 226 255
203 225 255
203 225 255
203 225 255
203 225 255
203 225 255
203 225 255
203 225 255
203 225 255
202 225 255
202 225 255
202 225 255
202 225 255
202 225 255
202 225 255
202 225 255
202 225 255
202 225 255
202 225 255
202 225 255
202 225 255
202 225 255
202 225 255
202 225 255
201 225 255
201 225 255
201 225 255
201 225 255
201 225 255
201 224 255
201 224 255
201 224 255
201 224 255
201 224 255
201 224 255
201 224 255
201 224 255
201 224 255
201 224 255
200 224 255
200 224 255
200 224 255
200 224 255
200 224 255
200 224 255
200 224 255
200 224 255
200 224 255
200 224 255
200 224 255
200 224 255
200 224 255
200 224 255
200 224 255
200 224 255
200 224 255
199 224 255
199 224 255
199 224 255
199 223 255
199 223 255
199 223 255
199 223 255
199 223 255
199 223 255
199 223 255
199 223 255
199 223 255
199 223 255
199 223 255
199 223 255
199 223 255
199 223 255
199 223 255
199 223 255
199 223 255
198 223 255
198 223 255
198 223 255
198 223 255
198 223 255
198 223 255
198 223 255
198 223 255
198 223 255
198 223 255
198 223 255
198 223 255
198 223 255
198 223 255
198 223 255
198 223 255
198 223 255
198 223 255
198 223 255
198 223 255
198 223 255
198 223 255
198 223 255
198 223 255
198 223 255
198 223 255
198 223 255
198 223 255
198 223 255
198 223 255
198 223 255
198 223 255
198 223 255
198 223 255
198 223 255
198 223 255
198 223 255
198 223 255
198 223 255
198 223 255
198 223 255
198 223 255
198 223 255
198 223 255
198 223 255
198 223 255
198 223 255
198 223 255
198 223 255
198 223 255
198 223 255
198 223 255
198 223 255
198 223 255
198 223 255
198 223 255
198 223 255
198 223 255
198 223 255
198 223 255
198 223 255
198 223 255
198 223 255
198 223 255
198 223 255
198 223 255
198 223 255
198 223 255
198 223 255
198 223 255
198 223 255
198 223 255
198 223 255
199 223 255
199 223 255
199 223 255
199 223 255
199 223 255
199 223 255
199 223 255
199 223 255
199 223 255
199 223 255
199 223 255
199 223 255
199 223 255
199 223 255
199 223 255
199 223 255
199 223 255
199 224 255
199 224 255
199 224 255
200 224 255
200 224 255
200 224 255
200 224 255
200 224 255
200 224 255
200 224 255
200 224 255
200 224 255
200 224 255
200 224 255
200 224 255
200 224 255
200 224 255
200 224 255
200 224 255
200 224 255
201 224 255
201 224 255
201 224 255
201 224 255
201 224 255
201 224 255
201 224 255
201 224 255
201 224 255
201 224 255
201 224 255
201 225 255
201 225 255
201 225 255
201 225 255
202 225 255
202 225 255
202 225 255
202 225 255
202 225 255
202 225 255
202 225 255
202 225 255
202 225 255
202 225 255
202 225 255
202 225 255
202 225 255
202 225 255
202 225 255
203 225 255
203 225 255
203 225 255
203 225 255
203 225 255
203 225 255
203 225 255
203 225 255
203 225 255
203 226 255
203 226 255
203 226 255
203 226 255
203 226 255
203 226 255
204 226 255
204 226 255
204 226 255
204 226 255
204 226 255
204 226 255
204 226 255
204 226 255
204 226 255
204 226 255
204 226 255
204 226 255
204 226 255
204 226 255
204 226 255
204 226 255
205 226 255
205 226 255
205 226 255
205 226 255
205 226 255
205 226 255
205 226 255
205 227 255
205 227 255
205 227 255
205 227 255
205 227 255
205 227 255
205 227 255
205 227 255
205 227 255
205 227 255
206 227 255
206 227 255
206 227 255
206 227 255
206 227 255
206 227 255
206 227 255
206 227 255
206 227 255
206 227 255
206 227 255
206 227 255
206 227 255
206 227 255
206 227 255
206 227 255
206 227 255
206 227 255
207 227 255
207 227 255
207 227 255
207 227 255
207 227 255
207 228 255
207 228 255
207 228 255
207 228 255
207 228 255
207 228 255
207 228 255
207 228 255
207 228 255
207 228 255
207 228 255
207 228 255
207 228 255
207 228 255
207 228 255
208 228 255
208 228 255
208 228 255
208 228 255
208 228 255
208 228 255
208 228 255
208 228 255
208 228 255
208 228 255
208 228 255
208 228 255
208 228 255
208 228 255
208 228 255
208 228 255
208 228 255
208 228 255
208 228 255
208 228 255
208 228 255
208 228 255
208 228 255
208 228 255
207 228 255
207 228 255
207 228 255
207 228 255
207 228 255
207 228 255
207 228 255
207 228 255
207 228 255
207 228 255
207 228 255
207 228 255
207 228 255
207 228 255
207 228 255
207 227 255
207 227 255
207 227 255
207 227 255
207 227 255
206 227 255
206 227 255
206 227 255
206 227 255
206 227 255
206 227 255
206 227 255
206 227 255
206 227 255
206 227 255
206 227 255
206 227 255
206 227 255
206 227 255
206 227 255
206 227 255
206 227 255
206 227 255
205 227 255
205 227 255
205 227 255
205 227 255
205 227 255
205 227 255
205 227 255
205 227 255
205 227 255
205 227 255
205 226 255
205 226 255
205 226 255
205 226 255
205 226 255
205 226 255
205 226 255
204 226 255
204 226 255
204 226 255
204 226 255
204 226 255
204 226 255
204 226 255
204 226 255
204 226 255
204 226 255
204 226 255
204 226 255
204 226 255
204 226 255
204 226 255
203 226 255
203 226 255
203 226 255
203 226 255
203 226 255
203 226 255
203 226 255
203 225 255
203 225 255
203 225 255
203 225 255
203 225 255
203 225 255
203 225 255
203 225 255
203 225 255
202 225 255
202 225 255
202 225 255
202 225 255
202 225 255
202 225 255
202 225 255
202 225 255
202 225 255
202 225 255
202 225 255
202 225 255
202 225 255
202 225 255
202 225 255
201 225 255
201 225 255
201 225 255
201 225 255
201 224 255
201 224 255
201 224 255
201 224 255
201 224 255
201 224 255
201 224 255
201 224 255
201 224 255
201 224 255
201 224 255
200 224 255
200 224 255
200 224 255
200 224 255
200 224 255
200 224 255
200 224 255
200 224 255
200 224 255
200 224 255
200 224 255
200 224 255
200 224 255
200 224 255
200 224 255
200 224 255
200 224 255
199 224 255
199 224 255
199 224 255
199 223 255
199 223 255
199 223 255
199 223 255
199 223 255
199 223 255
199 223 255
199 223 255
199 223 255
199 223 255
199 223 255
199 223 255
199 223 255
199 223 255
199 223 255
199 223 255
199 223 255
199 223 255
199 223 255
198 223 255
198 223 255
198 223 255
198 223 255
198 223 255
198 223 255
198 223 255
198 223 255
198 223 255
198 223 255
198 223 255
198 223 255
198 223 255
198 223 255
198 223 255
198 223 255
198 223 255
198 223 255
198 223 255
198 223 255
198 223 255
198 223 255
198 223 255
198 223 255
198 223 255
198 223 255
198 223 255
198 223 255
198 223 255
198 223 255
198 223 255
198 223 255
198 223 255
198 223 255
198 223 255
198 223 255
198 223 255
198 223 255
198 223 255
198 223 255
198 223 255
198 223 255
198 223 255
198 223 255
198 223 255
198 223 255
198 223 255
198 223 255
198 223 255
198 223 255
198 223 255
198 223 255
198 223 255
198 223 255
198 223 255
198 223 255
198 223 255
198 223 255
198 223 255
198 223 255
198 223 255
198 223 255
198 223 255
199 223 255
199 223 255
199 223 255
199 223 255
199 223 255
199 223 255
199 223 255
199 223 255
199 223 255
199 223 255
199 223 255
199 223 255
199 223 255
199 223 255
199 223 255
199 223 255
199 223 255
199 223 255
199 223 255
199 224 255
199 224 255
199 224 255
200 224 255
200 224 255
200 224 255
200 224 255
200 224 255
200 224 255
200 224 255
200 224 255
200 224 255
200 224 255
200 224 255
200 224 255
200 224 255
200 224 255
200 224 255
200 224 255
200 224 255
201 224 255
201 224 255
201 224 255
201 224 255
201 224 255
201 224 255
201 224 255
201 224 255
201 224 255
201 224 255
201 224 255
201 225 255
201 225 255
201 225 255
201 225 255
202 225 255
202 225 255
202 225 255
202 225 255
202 225 255
202 225 255
202 225 255
202 225 255
202 225 255
202 225 255
202 225 255
202 225 255
202 225 255
202 225 255
202 225 255
203 225 255
203 225 255
203 225 255
203 225 255
203 225 255
203 225 255
203 225 255
203 225 255
203 225 255
203 226 255
203 226 255
203 226 255
203 226 255
203 226 255
203 226 255
203 226 255
204 226 255
204 226 255
204 226 255
204 226 255
204 226 255
204 226 255
204 226 255
204 226 255
204 226 255
204 226 255
204 226 255
204 226 255
204 226 255
204 226 255
204 226 255
205 226 255
205 226 255
205 226 255
205 226 255
205 226 255
205 226 255
205 226 255
205 227 255
205 227 255
205 227 255
205 227 255
205 227 255
205 227 255
205 227 255
205 227 255
205 227 255
205 227 255
206 227 255
206 227 255
206 227 255
206 227 255
206 227 255
206 227 255
206 227 255
206 227 255
206 227 255
206 227 255
206 227 255
206 227 255
206 227 255
206 227 255
206 227 255
206 227 255
206 227 255
206 227 255
207 227 255
207 227 255
207 227 255
207 227 255
207 228 255
207 228 255
207 228 255
207 228 255
207 228 255
207 228 255
207 228 255
207 228 255
207 228 255
207 228 255
207 228 255
207 228 255
207 228 255
207 228 255
207 228 255
207 228 255
208 228 255
208 228 255
208 228 255
208 228 255
208 228 255
208 228 255
208 228 255
208 228 255
208 228 255
208 228 255
208 228 255
208 228 255
208 228 255
208 228 255
208 228 255
208 228 255
208 228 255
208 228 255
208 228 255
208 228 255
208 228 255
208 228 255
208 228 255
208 228 255
208 228 255
208 228 255
208 228 255
208 228 255
208 228 255
208 228 255
208 228 255
207 228 255
207 228 255
207 228 255
207 228 255
207 228 255
207 228 255
207 228 255
207 228 255
207 228 255
207 228 255
207 228 255
207 228 255
207 228 255
207 228 255
207 227 255
207 227 255
207 227 255
207 227 255
207 227 255
206 227 255
206 227 255
206 227 255
206 227 255
206 227 255
206 227 255
206 227 255
206 227 255
206 227 255
206 227 255
206 227 255
206 227 255
206 227 255
206 227 255
206 227 255
206 227 255
206 227 255
206 227 255
205 227 255
205 227 255
205 227 255
205 227 255
205 227 255
205 227 255
205 227 255
205 227 255
205 227 255
205 227 255
205 226 255
205 226 255
205 226 255
205 226 255
205 226 255
205 226 255
204 226 255
204 226 255
204 226 255
204 226 255
204 226 255
204 226 255
204 226 255
204 226 255
204 226 255
204 226 255
204 226 255
204 226 255
204 226 255
204 226 255
204 226 255
204 226 255
203 226 255
203 226 255
203 226 255
203 226 255
203 226 255
203 226 255
203 226 255
203 225 255
203 225 255
203 225 255
203 225 255
203 225 255
203 225 255
203 225 255
203 225 255
202 225 255
202 225 255
202 225 255
202 225 255
202 225 255
202 225 255
202 225 255
202 225 255
202 225 255
202 225 255
202 225 255
202 225 255
202 225 255
202 225 255
202 225 255
201 225 255
201 225 255
201 225 255
201 225 255
201 225 255
201 224 255
201 224 255
201 224 255
201 224 255
201 224 255
201 224 255
201 224 255
201 224 255
201 224 255
201 224 255
201 224 255
200 224 255
200 224 255
200 224 255
200 224 255
200 224 255
200 224 255
200 224 255
200 224 255
200 224 255
200 224 255
200 224 255
200 224 255
200 224 255
200 224 255
200 224 255
200 224 255
200 224 255
200 224 255
199 224 255
199 224 255
199 224 255
199 223 255
199 223 255
199 223 255
199 223 255
199 223 255
199 223 255
199 223 255
199 223 255
199 223 255
199 223 255
199 223 255
199 223 255
199 223 255
199 223 255
199 223 255
199 223 255
199 223 255
199 223 255
199 223 255
199 223 255
198 223 255
198 223 255
198 223 255
198 223 255
198 223 255
198 223 255
198 223 255
198 223 255
198 223 255
198 223 255
198 223 255
198 223 255
198 223 255
198 223 255
198 223 255
198 223 255
198 223 255
198 223 255
198 223 255
198 223 255
198 223 255
198 223 255
198 223 255
198 223 255
198 223 255
198 223 255
198 223 255
198 223 255
198 223 255
198 223 255
198 223 255
198 223 255
198 223 255
198 223 255
198 223 255
198 223 255
198 223 255
198 223 255
198 223 255
198 223 255
198 223 255
198 223 255
198 223 255
198 223 255
198 223 255
198 223 255
198 223 255
198 223 255
198 223 255
198 223 255
198 223 255
198 223 255
199 223 255
199 223 255
199 223 255
199 223 255
199 223 255
199 223 255
199 223 255
199 223 255
199 223 255
199 223 255
199 223 255
199 223 255
199 223 255
199 223 255
199 223 255
199 223 255
199 223 255
199 223 255
199 223 255
199 223 255
199 223 255
199 224 255
199 224 255
199 224 255
200 224 255
200 224 255
200 224 255
200 224 255
200 224 255
200 224 255
200 224 255
200 224 255
200 224 255
200 224 255
200 224 255
200 224 255
200 224 255
200 224 255
200 224 255
200 224 255
200 224 255
200 224 255
201 224 255
201 224 255
201 224 255
201 224 255
201 224 255
201 224 255
201 224 255
201 224 255
201 224 255
201 224 255
201 224 255
201 225 255
201 225 255
201 225 255
201 225 255
202 225 255
202 225 255
202 225 255
202 225 255
202 225 255
202 225 255
202 225 255
202 225 255
202 225 255
202 225 255
202 225 255
202 225 255
202 225 255
202 225 255
202 225 255
202 225 255
203 225 255
203 225 255
203 225 255
203 225 255
203 225 255
203 225 255
203 225 255
203 225 255
203 226 255
203 226 255
203 226 255
203 226 255
203 226 255
203 226 255
203 226 255
204 226 255
204 226 255
204 226 255
204 226 255
204 226 255
204 226 255
204 226 255
204 226 255
204 226 255
204 226 255
204 226 255
204 226 255
204 226 255
204 226 255
204 226 255
204 226 255
205 226 255
205 226 255
205 226 255
205 226 255
205 226 255
205 226 255
205 227 255
205 227 255
205 227 255
205 227 255
205 227 255
205 227 255
205 227 255
205 227 255
205 227 255
205 227 255
206 227 255
206 227 255
206 227 255
206 227 255
206 227 255
206 227 255
206 227 255
206 227 255
206 227 255
206 227 255
206 227 255
206 227 255
206 227 255
206 227 255
206 227 255
206 227 255
206 227 255
206 227 255
207 227 255
207 227 255
207 227 255
207 227 255
207 228 255
207 228 255
207 228 255
207 228 255
207 228 255
207 228 255
207 228 255
207 228 255
207 228 255
207 228 255
207 228 255
207 228 255
207 228 255
207 228 255
207 228 255
208 228 255
208 228 255
208 228 255
208 228 255
208 228 255
208 228 255
208 228 255
208 228 255
208 228 255
208 228 255
208 228 255
208 228 255
208 228 255
208 228 255
208 228 255
208 228 255
208 228 255
208 228 255
208 228 255
208 228 255
208 228 255
208 228 255
208 228 255
208 228 255
208 228 255
208 228 255
208 228 255
208 228 255
208 228 255
208 228 255
208 228 255
208 228 255
208 228 255
208 228 255
208 228 255
208 228 255
208 228 255
208 228 255
207 228 255
207 228 255
207 228 255
207 228 255
207 228 255
207 228 255
207 228 255
207 228 255
207 228 255
207 228 255
207 228 255
207 228 255
207 228 255
207 228 255
207 227 255
207 227 255
207 227 255
207 227 255
207 227 255
206 227 255
206 227 255
206 227 255
206 227 255
206 227 255
206 227 255
206 227 255
206 227 255
206 227 255
206 227 255
206 227 255
206 227 255
206 227 255
206 227 255
206 227 255
206 227 255
206 227 255
206 227 255
205 227 255
205 227 255
205 227 255
205 227 255
205 227 255
205 227 255
205 227 255
205 227 255
205 227 255
205 226 255
205 226 255
205 226 255
205 226 255
205 226 255
205 226 255
205 226 255
204 226 255
204 226 255
204 226 255
204 226 255
204 226 255
204 226 255
204 226 255
204 226 255
204 226 255
204 226 255
204 226 255
204 226 255
204 226 255
204 226 255
204 226 255
204 226 255
203 226 255
203 226 255
203 226 255
203 226 255
203 226 255
203 226 255
203 226 255
203 225 255
203 225 255
203 225 255
203 225 255
203 225 255
203 225 255
203 225 255
203 225 255
202 225 255
202 225 255
202 225 255
202 225 255
202 225 255
202 225 255
202 225 255
202 225 255
202 225 255
202 225 255
202 225 255
202 225 255
202 225 255
202 225 255
202 225 255
201 225 255
201 225 255
201 225 255
201 225 255
201 225 255
201 224 255
201 224 255
201 224 255
201 224 255
201 224 255
201 224 255
201 224 255
201 224 255
201 224 255
201 224 255
201 224 255
200 224 255
200 224 255
200 224 255
200 224 255
200 224 255
200 224 255
200 224 255
200 224 255
200 224 255
200 224 255
200 224 255
200 224 255
200 224 255
200 224 255
200 224 255
200 224 255
200 224 255
200 224 255
200 224 255
199 224 255
199 224 255
199 224 255
199 223 255
199 223 255
199 223 255
199 223 255
199 223 255
199 223 255
199 223 255
199 223 255
199 223 255
199 223 255
199 223 255
199 223 255
199 223 255
199 223 255
199 223 255
199 223 255
199 223 255
199 223 255
199 223 255
199 223 255
199 223 255
199 223 255
199 223 255
199 223 255
198 223 255
198 223 255
198 223 255
198 223 255
198 223 255
198 223 255
198 223 255
198 223 255
198 223 255
198 223 255
198 223 255
198 223 255
198 223 255
198 223 255
198 223 255
198 223 255
198 223 255
198 223 255
198 223 255
198 223 255
198 223 255
198 223 255
198 223 255
198 223 255
198 223 255
198 223 255
198 223 255
198 223 255
198 223 255
198 223 255
198 223 255
198 223 255
198 223 255
198 223 255
198 223 255
198 223 255
198 223 255
199 223 255
199 223 255
199 223 255
199 223 255
199 223 255
199 223 255
199 223 255
199 223 255
199 223 255
199 223 255
199 223 255
199 223 255
199 223 255
199 223 255
199 223 255
199 223 255
199 223 255
199 223 255
199 223 255
199 223 255
199 223 255
199 223 255
199 223 255
199 223 255
199 224 255
199 224 255
199 224 255
199 224 255
200 224 255
200 224 255
200 224 255
200 224 255
200 224 255
200 224 255
200 224 255
200 224 255
200 224 255
200 224 255
200 224 255
200 224 255
200 224 255
200 224 255
200 224 255
200 224 255
200 224 255
200 224 255
201 224 255
201 224 255
201 224 255
201 224 255
201 224 255
201 224 255
201 224 255
201 224 255
201 224 255
201 224 255
201 224 255
201 225 255
201 225 255
201 225 255
201 225 255
201 225 255
202 225 255
202 225 255
202 225 255
202 225 255
202 225 255
202 225 255
202 225 255
202 225 255
202 225 255
202 225 255
202 225 255
202 225 255
202 225 255
202 225 255
202 225 255
203 225 255
203 225 255
203 225 255
203 225 255
203 225 255
203 225 255
203 225 255
203 225 255
203 225 255
203 226 255
203 226 255
203 226 255
203 226 255
203 226 255
203 226 255
204 226 255
204 226 255
204 226 255
204 226 255
204 226 255
204 226 255
204 226 255
204 226 255
204 226 255
204 226 255
204 226 255
204 226 255
204 226 255
204 226 255
204 226 255
204 226 255
205 226 255
205 226 255
205 226 255
205 226 255
205 226 255
205 226 255
205 227 255
205 227 255
205 227 255
205 227 255
205 227 255
205 227 255
205 227 255
205 227 255
205 227 255
205 227 255
206 227 255
206 227 255
206 227 255
206 227 255
206 227 255
206 227 255
206 227 255
206 227 255
206 227 255
206 227 255
206 227 255
206 227 255
206 227 255
206 227 255
206 227 255
206 227 255
206 227 255
206 227 255
207 227 255
207 227 255
207 227 255
207 227 255
207 227 255
207 228 255
207 228 255
207 228 255
207 228 255
207 228 255
207 228 255
207 228 255
207 228 255
207 228 255
207 228 255
207 228 255
207 228 255
207 228 255
207 228 255
207 228 255
208 228 255
208 228 255
208 228 255
208 228 255
208 228 255
208 228 255
208 228 255
208 228 255
208 228 255
208 228 255
208 228 255
208 228 255
208 228 255
208 228 255
208 228 255
208 228 255
208 228 255
208 228 255
208 228 255
208 228 255
209 228 255
208 228 255
208 228 255
208 228 255
208 228 255
208 228 255
208 228 255
208 228 255
208 228 255
208 228 255
208 228 255
208 228 255
208 228 255
208 228 255
208 228 255
208 228 255
208 228 255
208 228 255
208 228 255
208 228 255
208 228 255
208 228 255
208 228 255
207 228 255
207 228 255
207 228 255
207 228 255
207 228 255
207 228 255
207 228 255
207 228 255
207 228 255
207 228 255
207 228 255
207 228 255
207 228 255
207 228 255
207 227 255
207 227 255
207 227 255
207 227 255
207 227 255
206 227 255
206 227 255
206 227 255
206 227 255
206 227 255
206 227 255
206 227 255
206 227 255
206 227 255
206 227 255
206 227 255
206 227 255
206 227 255
206 227 255
206 227 255
206 227 255
206 227 255
205 227 255
205 227 255
205 227 255
205 227 255
205 227 255
205 227 255
205 227 255
205 227 255
205 227 255
205 227 255
205 226 255
205 226 255
205 226 255
205 226 255
205 226 255
205 226 255
205 226 255
204 226 255
204 226 255
204 226 255
204 226 255
204 226 255
204 226 255
204 226 255
204 226 255
204 226 255
204 226 255
204 226 255
204 226 255
204 226 255
204 226 255
204 226 255
204 226 255
203 226 255
203 226 255
203 226 255
203 226 255
203 226 255
203 226 255
203 225 255
203 225 255
203 225 255
203 225 255
203 225 255
203 225 255
203 225 255
203 225 255
203 225 255
202 225 255
202 225 255
202 225 255
202 225 255
202 225 255
202 225 255
202 225 255
202 225 255
202 225 255
202 225 255
202 225 255
202 225 255
202 225 255
202 225 255
202 225 255
201 225 255
201 225 255
201 225 255
201 225 255
201 225 255
201 224 255
201 224 255
201 224 255
201 224 255
201 224 255
201 224 255
201 224 255
201 224 255
201 224 255
201 224 255
201 224 255
201 224 255
200 224 255
200 224 255
200 224 255
200 224 255
200 224 255
200 224 255
200 224 255
200 224 255
200 224 255
200 224 255
200 224 255
200 224 255
200 224 255
200 224 255
200 224 255
200 224 255
200 224 255
200 224 255
200 224 255
199 224 255
199 224 255
199 224 255
199 223 255
199 223 255
199 223 255
199 223 255
199 223 255
199 223 255
199 223 255
199 223 255
199 223 255
199 223 255
199 223 255
199 223 255
199 223 255
199 223 255
199 223 255
199 223 255
199 223 255
199 223 255
199 223 255
199 223 255
199 223 255
199 223 255
199 223 255
199 223 255
199 223 255
199 223 255
199 223 255
199 223 255
199 223 255
199 223 255
199 223 255
199 223 255
198 223 255
198 223 255
198 223 255
198 223 255
198 223 255
198 223 255
198 223 255
198 223 255
198 223 255
198 223 255
198 223 255
198 223 255
199 223 255
198 223 255
199 223 255
199 223 255
199 223 255
199 223 255
199 223 255
199 223 255
199 223 255
199 223 255
199 223 255
199 223 255
199 223 255
199 223 255
199 223 255
199 223 255
199 223 255
199 223 255
199 223 255
199 223 255
199 223 255
199 223 255
199 223 255
199 223 255
199 223 255
199 223 255
199 223 255
199 223 255
199 223 255
199 223 255
199 223 255
199 223 255
199 223 255
199 224 255
199 224 255
199 224 255
200 224 255
200 224 255
200 224 255
200 224 255
200 224 255
200 224 255
200 224 255
200 224 255
200 224 255
200 224 255
200 224 255
200 224 255
200 224 255
200 224 255
200 224 255
200 224 255
200 224 255
200 224 255
200 224 255
201 224 255
201 224 255
201 224 255
201 224 255
201 224 255
201 224 255
201 224 255
201 224 255
201 224 255
201 224 255
201 224 255
201 224 255
201 225 255
201 225 255
201 225 255
201 225 255
201 225 255
202 225 255
202 225 255
202 225 255
202 225 255
202 225 255
202 225 255
202 225 255
202 225 255
202 225 255
202 225 255
202 225 255
202 225 255
202 225 255
202 225 255
202 225 255
203 225 255
203 225 255
203 225 255
203 225 255
203 225 255
203 225 255
203 225 255
203 225 255
203 225 255
203 226 255
203 226 255
203 226 255
203 226 255
203 226 255
203 226 255
203 226 255
204 226 255
204 226 255
204 226 255
204 226 255
204 226 255
204 226 255
204 226 255
204 226 255
204 226 255
204 226 255
204 226 255
204 226 255
204 226 255
204 226 255
204 226 255
205 226 255
205 226 255
205 226 255
205 226 255
205 226 255
205 226 255
205 226 255
205 227 255
205 227 255
205 227 255
205 227 255
205 227 255
205 227 255
205 227 255
205 227 255
205 227 255
205 227 255
206 227 255
206 227 255
206 227 255
206 227 255
206 227 255
206 227 255
206 227 255
206 227 255
206 227 255
206 227 255
206 227 255
206 227 255
206 227 255
206 227 255
206 227 255
206 227 255
206 227 255
207 227 255
207 227 255
207 227 255
207 227 255
207 227 255
207 228 255
207 228 255
207 228 255
207 228 255
207 228 255
207 228 255
207 228 255
207 228 255
207 228 255
207 228 255
207 228 255
207 228 255
207 228 255
207 228 255
208 228 255
208 228 255
208 228 255
208 228 255
208 228 255
208 228 255
208 228 255
208 228 255
208 228 255
208 228 255
208 228 255
208 228 255
208 228 255
208 228 255
208 228 255
208 228 255
208 228 255
208 228 255
208 228 255
208 228 255
208 228 255
208 228 255
209 228 255
209 229 255
209 229 255
209 229 255
209 229 255
209 228 255
209 228 255
208 228 255
208 228 255
208 228 255
208 228 255
208 228 255
208 228 255
208 228 255
208 228 255
208 228 255
208 228 255
208 228 255
208 228 255
208 228 255
208 228 255
208 228 255
208 228 255
208 228 255
208 228 255
208 228 255
208 228 255
208 228 255
207 228 255
207 228 255
207 228 255
207 228 255
207 228 255
207 228 255
207 228 255
207 228 255
207 228 255
207 228 255
207 228 255
207 228 255
207 228 255
207 228 255
207 227 255
207 227 255
207 227 255
207 227 255
207 227 255
206 227 255
206 227 255
206 227 255
206 227 255
206 227 255
206 227 255
206 227 255
206 227 255
206 227 255
206 227 255
206 227 255
206 227 255
206 227 255
206 227 255
206 227 255
206 227 255
206 227 255
205 227 255
205 227 255
205 227 255
205 227 255
205 227 255
205 227 255
205 227 255
205 227 255
205 227 255
205 227 255
205 226 255
205 226 255
205 226 255
205 226 255
205 226 255
205 226 255
205 226 255
204 226 255
204 226 255
204 226 255
204 226 255
204 226 255
204 226 255
204 226 255
204 226 255
204 226 255
204 226 255
204 226 255
204 226 255
204 226 255
204 226 255
204 226 255
203 226 255
203 226 255
203 226 255
203 226 255
203 226 255
203 226 255
203 226 255
203 225 255
203 225 255
203 225 255
203 225 255
203 225 255
203 225 255
203 225 255
203 225 255
203 225 255
202 225 255
202 225 255
202 225 255
202 225 255
202 225 255
202 225 255
202 225 255
202 225 255
202 225 255
202 225 255
202 225 255
202 225 255
202 225 255
202 225 255
202 225 255
201 225 255
201 225 255
201 225 255
201 225 255
201 225 255
201 224 255
201 224 255
201 224 255
201 224 255
201 224 255
201 224 255
201 224 255
201 224 255
201 224 255
201 224 255
201 224 255
201 224 255
200 224 255
200 224 255
200 224 255
200 224 255
200 224 255
200 224 255
200 224 255
200 224 255
200 224 255
200 224 255
200 224 255
200 224 255
200 224 255
200 224 255
200 224 255
200 224 255
200 224 255
200 224 255
200 224 255
200 224 255
199 224 255
199 224 255
199 224 255
199 224 255
199 223 255
199 223 255
199 223 255
199 223 255
199 223 255
199 223 255
199 223 255
199 223 255
199 223 255
199 223 255
199 223 255
199 223 255
199 223 255
199 223 255
199 223 255
199 223 255
199 223 255
199 223 255
199 223 255
199 223 255
199 223 255
199 223 255
199 223 255
199 223 255
199 223 255
199 223 255
199 223 255
199 223 255
199 223 255
199 223 255
199 223 255
199 223 255
199 223 255
199 223 255
199 223 255
199 223 255
199 223 255
199 223 255
199 223 255
199 223 255
199 223 255
199 223 255
199 223 255
199 223 255
199 223 255
199 223 255
199 223 255
199 223 255
199 223 255
199 223 255
199 223 255
199 223 255
199 223 255
199 223 255
199 223 255
199 223 255
199 223 255
199 223 255
199 223 255
199 223 255
199 223 255
199 223 255
199 223 255
199 223 255
199 223 255
199 223 255
199 223 255
199 224 255
199 224 255
199 224 255
199 224 255
200 224 255
200 224 255
200 224 255
200 224 255
200 224 255
200 224 255
200 224 255
200 224 255
200 224 255
200 224 255
200 224 255
200 224 255
200 224 255
200 224 255
200 224 255
200 224 255
200 224 255
200 224 255
200 224 255
200 224 255
201 224 255
201 224 255
201 224 255
201 224 255
201 224 255
201 224 255
201 224 255
201 224 255
201 224 255
201 224 255
201 224 255
201 224 255
201 225 255
201 225 255
201 225 255
201 225 255
201 225 255
202 225 255
202 225 255
202 225 255
202 225 255
202 225 255
202 225 255
202 225 255
202 225 255
202 225 255
202 225 255
202 225 255
202 225 255
202 225 255
202 225 255
202 225 255
203 225 255
203 225 255
203 225 255
203 225 255
203 225 255
203 225 255
203 225 255
203 225 255
203 225 255
203 226 255
203 226 255
203 226 255
203 226 255
203 226 255
203 226 255
203 226 255
204 226 255
204 226 255
204 226 255
204 226 255
204 226 255
204 226 255
204 226 255
204 226 255
204 226 255
204 226 255
204 226 255
204 226 255
204 226 255
204 226 255
204 226 255
205 226 255
205 226 255
205 226 255
205 226 255
205 226 255
205 226 255
205 226 255
205 227 255
205 227 255
205 227 255
205 227 255
205 227 255
205 227 255
205 227 255
205 227 255
205 227 255
205 227 255
206 227 255
206 227 255
206 227 255
206 227 255
206 227 255
206 227 255
206 227 255
206 227 255
206 227 255
206 227 255
206 227 255
206 227 255
206 227 255
206 227 255
206 227 255
206 227 255
206 227 255
207 227 255
207 227 255
207 227 255
207 227 255
207 227 255
207 228 255
207 228 255
207 228 255
207 228 255
207 228 255
207 228 255
207 228 255
207 228 255
207 228 255
207 228 255
207 228 255
207 228 255
207 228 255
207 228 255
208 228 255
208 228 255
208 228 255
208 228 255
208 228 255
208 228 255
208 228 255
208 228 255
208 228 255
208 228 255
208 228 255
208 228 255
208 228 255
208 228 255
208 228 255
208 228 255
208 228 255
208 228 255
208 228 255
208 228 255
208 228 255
209 228 255
209 228 255
209 229 255
209 229 255
209 229 255
209 229 255
209 229 255
209 229 255
209 229 255
209 229 255
209 229 255
209 229 255
209 228 255
209 228 255
208 228 255
208 228 255
208 228 255
208 228 255
208 228 255
208 228 255
208 228 255
208 228 255
208 228 255
208 228 255
208 228 255
208 228 255
208 228 255
208 228 255
208 228 255
208 228 255
208 228 255
208 228 255
208 228 255
208 228 255
208 228 255
207 228 255
207 228 255
207 228 255
207 228 255
207 228 255
207 228 255
207 228 255
207 228 255
207 228 255
207 228 255
207 228 255
207 228 255
207 228 255
207 228 255
207 227 255
207 227 255
207 227 255
207 227 255
207 227 255
206 227 255
206 227 255
206 227 255
206 227 255
206 227 255
206 227 255
206 227 255
206 227 255
206 227 255
206 227 255
206 227 255
206 227 255
206 227 255
206 227 255
206 227 255
206 227 255
206 227 255
205 227 255
205 227 255
205 227 255
205 227 255
205 227 255
205 227 255
205 227 255
205 227 255
205 227 255
205 227 255
205 226 255
205 226 255
205 226 255
205 226 255
205 226 255
205 226 255
205 226 255
204 226 255
204 226 255
204 226 255
204 226 255
204 226 255
204 226 255
204 226 255
204 226 255
204 226 255
204 226 255
204 226 255
204 226 255
204 226 255
204 226 255
204 226 255
203 226 255
203 226 255
203 226 255
203 226 255
203 226 255
203 226 255
203 226 255
203 225 255
203 225 255
203 225 255
203 225 255
203 225 255
203 225 255
203 225 255
203 225 255
203 225 255
202 225 255
202 225 255
202 225 255
202 225 255
202 225 255
202 225 255
202 225 255
202 225 255
202 225 255
202 225 255
202 225 255
202 225 255
202 225 255
202 225 255
202 225 255
202 225 255
201 225 255
201 225 255
201 225 255
201 225 255
201 224 255
201 224 255
201 224 255
201 224 255
201 224 255
201 224 255
201 224 255
201 224 255
201 224 255
201 224 255
201 224 255
201 224 255
200 224 255
200 224 255
200 224 255
200 224 255
200 224 255
200 224 255
200 224 255
200 224 255
200 224 255
200 224 255
200 224 255
200 224 255
200 224 255
200 224 255
200 224 255
200 224 255
200 224 255
200 224 255
200 224 255
200 224 255
200 224 255
200 224 255
199 224 255
199 224 255
199 224 255
199 224 255
199 224 255
199 223 255
199 223 255
199 223 255
199 223 255
199 223 255
199 223 255
199 223 255
199 223 255
199 223 255
199 223 255
199 223 255
199 223 255
199 223 255
199 223 255
199 223 255
199 223 255
199 223 255
199 223 255
199 223 255
199 223 255
199 223 255
199 223 255
199 223 255
199 223 255
199 223 255
199 223 255
199 223 255
199 223 255
199 223 255
199 223 255
199 223 255
199 223 255
199 223 255
199 223 255
199 223 255
199 223 255
199 223 255
199 223 255
199 223 255
199 223 255
199 223 255
199 223 255
199 223 255
199 223 255
199 223 255
199 223 255
199 223 255
199 223 255
199 223 255
199 223 255
199 223 255
199 223 255
199 223 255
199 223 255
199 223 255
199 224 255
199 224 255
199 224 255
199 224 255
199 224 255
200 224 255
200 224 255
200 224 255
200 224 255
200 224 255
200 224 255
200 224 255
200 224 255
200 224 255
200 224 255
200 224 255
200 224 255
200 224 255
200 224 255
200 224 255
200 224 255
200 224 255
200 224 255
200 224 255
200 224 255
200 224 255
200 224 255
201 224 255
201 224 255
201 224 255
201 224 255
201 224 255
201 224 255
201 224 255
201 224 255
201 224 255
201 224 255
201 224 255
201 224 255
201 225 255
201 225 255
201 225 255
201 225 255
201 225 255
202 225 255
202 225 255
202 225 255
202 225 255
202 225 255
202 225 255
202 225 255
202 225 255
202 225 255
202 225 255
202 225 255
202 225 255
202 225 255
202 225 255
202 225 255
203 225 255
203 225 255
203 225 255
203 225 255
203 225 255
203 225 255
203 225 255
203 225 255
203 225 255
203 226 255
203 226 255
203 226 255
203 226 255
203 226 255
203 226 255
203 226 255
204 226 255
204 226 255
204 226 255
204 226 255
204 226 255
204 226 255
204 226 255
204 226 255
204 226 255
204 226 255
204 226 255
204 226 255
204 226 255
204 226 255
204 226 255
204 226 255
205 226 255
205 226 255
205 226 255
205 226 255
205 226 255
205 226 255
205 227 255
205 227 255
205 227 255
205 227 255
205 227 255
205 227 255
205 227 255
205 227 255
205 227 255
205 227 255
206 227 255
206 227 255
206 227 255
206 227 255
206 227 255
206 227 255
206 227 255
206 227 255
206 227 255
206 227 255
206 227 255
206 227 255
206 227 255
206 227 255
206 227 255
206 227 255
206 227 255
207 227 255
207 227 255
207 227 255
207 227 255
207 227 255
207 228 255
207 228 255
207 228 255
207 228 255
207 228 255
207 228 255
207 228 255
207 228 255
207 228 255
207 228 255
207 228 255
207 228 255
207 228 255
207 228 255
208 228 255
208 228 255
208 228 255
208 228 255
208 228 255
208 228 255
208 228 255
208 228 255
208 228 255
208 228 255
208 228 255
208 228 255
208 228 255
208 228 255
208 228 255
208 228 255
208 228 255
208 228 255
208 228 255
208 228 255
208 228 255
209 228 255
209 228 255
209 229 255
209 229 255
209 229 255
209 229 255
209 229 255
209 229 255
209 229 255
209 229 255
209 229 255
209 229 255
209 229 255
209 229 255
209 229 255
209 229 255
209 229 255
209 229 255
209 229 255
209 228 255
208 228 255
208 228 255
208 228 255
208 228 255
208 228 255
208 228 255
208 228 255
208 228 255
208 228 255
208 228 255
208 228 255
208 228 255
208 228 255
208 228 255
208 228 255
208 228 255
208 228 255
208 228 255
208 228 255
208 228 255
208 228 255
207 228 255
207 228 255
207 228 255
207 228 255
207 228 255
207 228 255
207 228 255
207 228 255
207 228 255
207 228 255
207 228 255
207 228 255
207 228 255
207 228 255
207 227 255
207 227 255
207 227 255
207 227 255
207 227 255
206 227 255
206 227 255
206 227 255
206 227 255
206 227 255
206 227 255
206 227 255
206 227 255
206 227 255
206 227 255
206 227 255
206 227 255
206 227 255
206 227 255
206 227 255
206 227 255
206 227 255
205 227 255
205 227 255
205 227 255
205 227 255
205 227 255
205 227 255
205 227 255
205 227 255
205 227 255
205 227 255
205 226 255
205 226 255
205 226 255
205 226 255
205 226 255
205 226 255
204 226 255
204 226 255
204 226 255
204 226 255
204 226 255
204 226 255
204 226 255
204 226 255
204 226 255
204 226 255
204 226 255
204 226 255
204 226 255
204 226 255
204 226 255
204 226 255
203 226 255
203 226 255
203 226 255
203 226 255
203 226 255
203 226 255
203 226 255
203 225 255
203 225 255
203 225 255
203 225 255
203 225 255
203 225 255
203 225 255
203 225 255
203 225 255
202 225 255
202 225 255
202 225 255
202 225 255
202 225 255
202 225 255
202 225 255
202 225 255
202 225 255
202 225 255
202 225 255
202 225 255
202 225 255
202 225 255
202 225 255
202 225 255
201 225 255
201 225 255
201 225 255
201 225 255
201 224 255
201 224 255
201 224 255
201 224 255
201 224 255
201 224 255
201 224 255
201 224 255
201 224 255
201 224 255
201 224 255
201 224 255
201 224 255
201 224 255
200 224 255
200 224 255
200 224 255
200 224 255
200 224 255
200 224 255
200 224 255
200 224 255
200 224 255
200 224 255
200 224 255
200 224 255
200 224 255
200 224 255
200 224 255
200 224 255
200 224 255
200 224 255
200 224 255
200 224 255
200 224 255
200 224 255
200 224 255
199 224 255
199 224 255
199 224 255
199 224 255
199 224 255
199 224 255
199 223 255
199 223 255
199 223 255
199 223 255
199 223 255
199 223 255
199 223 255
199 223 255
199 223 255
199 223 255
199 223 255
199 223 255
199 223 255
199 223 255
199 223 255
199 223 255
199 223 255
199 223 255
199 223 255
199 223 255
199 223 255
199 223 255
199 223 255
199 223 255
199 223 255
199 223 255
199 223 255
199 223 255
199 223 255
199 223 255
199 223 255
199 223 255
199 223 255
199 223 255
199 223 255
199 223 255
199 223 255
199 223 255
199 223 255
199 223 255
199 223 255
199 224 255
199 224 255
199 224 255
199 224 255
199 224 255
199 224 255
200 224 255
200 224 255
200 224 255
200 224 255
200 224 255
200 224 255
200 224 255
200 224 255
200 224 255
200 224 255
200 224 255
200 224 255
200 224 255
200 224 255
200 224 255
200 224 255
200 224 255
200 224 255
200 224 255
200 224 255
200 224 255
200 224 255
200 224 255
200 224 255
201 224 255
201 224 255
201 224 255
201 224 255
201 224 255
201 224 255
201 224 255
201 224 255
201 224 255
201 224 255
201 224 255
201 224 255
201 225 255
201 225 255
201 225 255
201 225 255
201 225 255
202 225 255
202 225 255
202 225 255
202 225 255
202 225 255
202 225 255
202 225 255
202 225 255
202 225 255
202 225 255
202 225 255
202 225 255
202 225 255
202 225 255
202 225 255
202 225 255
203 225 255
203 225 255
203 225 255
203 225 255
203 225 255
203 225 255
203 225 255
203 225 255
203 225 255
203 226 255
203 226 255
203 226 255
203 226 255
203 226 255
203 226 255
203 226 255
204 226 255
204 226 255
204 226 255
204 226 255
204 226 255
204 226 255
204 226 255
204 226 255
204 226 255
204 226 255
204 226 255
204 226 255
204 226 255
204 226 255
204 226 255
205 226 255
205 226 255
205 226 255
205 226 255
205 226 255
205 226 255
205 226 255
205 227 255
205 227 255
205 227 255
205 227 255
205 227 255
205 227 255
205 227 255
205 227 255
205 227 255
205 227 255
206 227 255
206 227 255
206 227 255
206 227 255
206 227 255
206 227 255
206 227 255
206 227 255
206 227 255
206 227 255
206 227 255
206 227 255
206 227 255
206 227 255
206 227 255
206 227 255
206 227 255
207 227 255
207 227 255
207 227 255
207 227 255
207 227 255
207 228 255
207 228 255
207 228 255
207 228 255
207 228 255
207 228 255
207 228 255
207 228 255
207 228 255
207 228 255
207 228 255
207 228 255
207 228 255
207 228 255
208 228 255
208 228 255
208 228 255
208 228 255
208 228 255
208 228 255
208 228 255
208 228 255
208 228 255
208 228 255
208 228 255
208 228 255
208 228 255
208 228 255
208 228 255
208 228 255
208 228 255
208 228 255
208 228 255
208 228 255
208 228 255
209 228 255
209 229 255
209 229 255
209 229 255
209 229 255
209 229 255
209 229 255
209 229 255
209 229 255
209 229 255
209 229 255
209 229 255
209 229 255
209 229 255
209 229 255
209 229 255
209 229 255
209 229 255
209 229 255
209 229 255
209 229 255
209 229 255
209 229 255
209 229 255
209 229 255
209 228 255
209 228 255
208 228 255
208 228 255
208 228 255
208 228 255
208 228 255
208 228 255
208 228 255
208 228 255
208 228 255
208 228 255
208 228 255
208 228 255
208 228 255
208 228 255
208 228 255
208 228 255
208 228 255
208 228 255
208 228 255
208 228 255
207 228 255
207 228 255
207 228 255
207 228 255
207 228 255
207 228 255
207 228 255
207 228 255
207 228 255
207 228 255
207 228 255
207 228 255
207 228 255
207 228 255
207 227 255
207 227 255
207 227 255
207 227 255
207 227 255
206 227 255
206 227 255
206 227 255
206 227 255
206 227 255
206 227 255
206 227 255
206 227 255
206 227 255
206 227 255
206 227 255
206 227 255
206 227 255
206 227 255
206 227 255
206 227 255
206 227 255
205 227 255
205 227 255
205 227 255
205 227 255
205 227 255
205 227 255
205 227 255
205 227 255
205 227 255
205 227 255
205 226 255
205 226 255
205 226 255
205 226 255
205 226 255
205 226 255
204 226 255
204 226 255
204 226 255
204 226 255
204 226 255
204 226 255
204 226 255
204 226 255
204 226 255
204 226 255
204 226 255
204 226 255
204 226 255
204 226 255
204 226 255
204 226 255
203 226 255
203 226 255
203 226 255
203 226 255
203 226 255
203 226 255
203 226 255
203 225 255
203 225 255
203 225 255
203 225 255
203 225 255
203 225 255
203 225 255
203 225 255
203 225 255
202 225 255
202 225 255
202 225 255
202 225 255
202 225 255
202 225 255
202 225 255
202 225 255
202 225 255
202 225 255
202 225 255
202 225 255
202 225 255
202 225 255
202 225 255
202 225 255
201 225 255
201 225 255
201 225 255
201 225 255
201 225 255
201 224 255
201 224 255
201 224 255
201 224 255
201 224 255
201 224 255
201 224 255
201 224 255
201 224 255
201 224 255
201 224 255
201 224 255
201 224 255
201 224 255
200 224 255
200 224 255
200 224 255
200 224 255
200 224 255
200 224 255
200 224 255
200 224 255
200 224 255
200 224 255
200 224 255
200 224 255
200 224 255
200 224 255
200 224 255
200 224 255
200 224 255
200 224 255
200 224 255
200 224 255
200 224 255
200 224 255
200 224 255
200 224 255
200 224 255
200 224 255
199 224 255
199 224 255
199 224 255
199 224 255
199 224 255
199 224 255
199 224 255
199 224 255
199 224 255
199 224 255
199 223 255
199 223 255
199 223 255
199 223 255
199 223 255
199 223 255
199 223 255
199 223 255
199 223 255
199 223 255
199 223 255
199 223 255
199 223 255
199 223 255
199 223 255
199 223 255
199 223 255
199 223 255
199 223 255
199 224 255
199 224 255
199 224 255
199 224 255
199 224 255
199 224 255
199 224 255
199 224 255
199 224 255
200 224 255
200 224 255
200 224 255
200 224 255
200 224 255
200 224 255
200 224 255
200 224 255
200 224 255
200 224 255
200 224 255
200 224 255
200 224 255
200 224 255
200 224 255
200 224 255
200 224 255
200 224 255
200 224 255
200 224 255
200 224 255
200 224 255
200 224 255
200 224 255
200 224 255
200 224 255
200 224 255
200 224 255
201 224 255
201 224 255
201 224 255
201 224 255
201 224 255
201 224 255
201 224 255
201 224 255
201 224 255
201 224 255
201 224 255
201 224 255
201 224 255
201 225 255
201 225 255
201 225 255
201 225 255
201 225 255
202 225 255
202 225 255
202 225 255
202 225 255
202 225 255
202 225 255
202 225 255
202 225 255
202 225 255
202 225 255
202 225 255
202 225 255
202 225 255
202 225 255
202 225 255
202 225 255
203 225 255
203 225 255
203 225 255
203 225 255
203 225 255
203 225 255
203 225 255
203 225 255
203 225 255
203 226 255
203 226 255
203 226 255
203 226 255
203 226 255
203 226 255
203 226 255
204 226 255
204 226 255
204 226 255
204 226 255
204 226 255
204 226 255
204 226 255
204 226 255
204 226 255
204 226 255
204 226 255
204 226 255
204 226 255
204 226 255
204 226 255
204 226 255
205 226 255
205 226 255
205 226 255
205 226 255
205 226 255
205 226 255
205 227 255
205 227 255
205 227 255
205 227 255
205 227 255
205 227 255
205 227 255
205 227 255
205 227 255
205 227 255
206 227 255
206 227 255
206 227 255
206 227 255
206 227 255
206 227 255
206 227 255
206 227 255
206 227 255
206 227 255
206 227 255
206 227 255
206 227 255
206 227 255
206 227 255
206 227 255
206 227 255
207 227 255
207 227 255
207 227 255
207 227 255
207 227 255
207 228 255
207 228 255
207 228 255
207 228 255
207 228 255
207 228 255
207 228 255
207 228 255
207 228 255
207 228 255
207 228 255
207 228 255
207 228 255
207 228 255
208 228 255
208 228 255
208 228 255
208 228 255
208 228 255
208 228 255
208 228 255
208 228 255
208 228 255
208 228 255
208 228 255
208 228 255
208 228 255
208 228 255
208 228 255
208 228 255
208 228 255
208 228 255
208 228 255
208 228 255
209 228 255
209 228 255
209 229 255
209 229 255
209 229 255
209 229 255
209 229 255
209 229 255
209 229 255
209 229 255
209 229 255
209 229 255
209 229 255
209 229 255
209 229 255
209 229 255
209 229 255
209 229 255
209 229 255
209 229 255
209 229 255
209 229 255
209 229 255
209 229 255
209 229 255
209 229 255
209 229 255
209 229 255
209 229 255
209 229 255
209 229 255
209 229 255
209 228 255
209 228 255
208 228 255
208 228 255
208 228 255
208 228 255
208 228 255
208 228 255
208 228 255
208 228 255
208 228 255
208 228 255
208 228 255
208 228 255
208 228 255
208 228 255
208 228 255
208 228 255
208 228 255
208 228 255
208 228 255
208 228 255
207 228 255
207 228 255
207 228 255
207 228 255
207 228 255
207 228 255
207 228 255
207 228 255
207 228 255
207 228 255
207 228 255
207 228 255
207 228 255
207 228 255
207 228 255
207 227 255
207 227 255
207 227 255
207 227 255
206 227 255
206 227 255
206 227 255
206 227 255
206 227 255
206 227 255
206 227 255
206 227 255
206 227 255
206 227 255
206 227 255
206 227 255
206 227 255
206 227 255
206 227 255
206 227 255
206 227 255
205 227 255
205 227 255
205 227 255
205 227 255
205 227 255
205 227 255
205 227 255
205 227 255
205 227 255
205 227 255
205 226 255
205 226 255
205 226 255
205 226 255
205 226 255
205 226 255
204 226 255
204 226 255
204 226 255
204 226 255
204 226 255
204 226 255
204 226 255
204 226 255
204 226 255
204 226 255
204 226 255
204 226 255
204 226 255
204 226 255
204 226 255
204 226 255
203 226 255
203 226 255
203 226 255
203 226 255
203 226 255
203 226 255
203 226 255
203 225 255
203 225 255
203 225 255
203 225 255
203 225 255
203 225 255
203 225 255
203 225 255
203 225 255
202 225 255
202 225 255
202 225 255
202 225 255
202 225 255
202 225 255
202 225 255
202 225 255
202 225 255
202 225 255
202 225 255
202 225 255
202 225 255
202 225 255
202 225 255
202 225 255
202 225 255
201 225 255
201 225 255
201 225 255
201 225 255
201 225 255
201 224 255
201 224 255
201 224 255
201 224 255
201 224 255
201 224 255
201 224 255
201 224 255
201 224 255
201 224 255
201 224 255
201 224 255
201 224 255
201 224 255
200 224 255
200 224 255
200 224 255
200 224 255
200 224 255
200 224 255
200 224 255
200 224 255
200 224 255
200 224 255
200 224 255
200 224 255
200 224 255
200 224 255
200 224 255
200 224 255
200 224 255
200 224 255
200 224 255
200 224 255
200 224 255
200 224 255
200 224 255
200 224 255
200 224 255
200 224 255
200 224 255
200 224 255
200 224 255
200 224 255
200 224 255
200 224 255
200 224 255
200 224 255
200 224 255
200 224 255
199 224 255
199 224 255
200 224 255
199 224 255
199 224 255
199 224 255
199 224 255
199 224 255
199 224 255
200 224 255
200 224 255
200 224 255
200 224 255
200 224 255
200 224 255
200 224 255
200 224 255
200 224 255
200 224 255
200 224 255
200 224 255
200 224 255
200 224 255
200 224 255
200 224 255
200 224 255
200 224 255
200 224 255
200 224 255
200 224 255
200 224 255
200 224 255
200 224 255
200 224 255
200 224 255
200 224 255
200 224 255
200 224 255
200 224 255
200 224 255
200 224 255
200 224 255
200 224 255
200 224 255
200 224 255
200 224 255
200 224 255
201 224 255
201 224 255
201 224 255
201 224 255
201 224 255
201 224 255
201 224 255
201 224 255
201 224 255
201 224 255
201 224 255
201 224 255
201 224 255
201 224 255
201 225 255
201 225 255
201 225 255
201 225 255
201 225 255
201 225 255
202 225 255
202 225 255
202 225 255
202 225 255
202 225 255
202 225 255
202 225 255
202 225 255
202 225 255
202 225 255
202 225 255
202 225 255
202 225 255
202 225 255
202 225 255
202 225 255
203 225 255
203 225 255
203 225 255
203 225 255
203 225 255
203 225 255
203 225 255
203 225 255
203 225 255
203 226 255
203 226 255
203 226 255
203 226 255
203 226 255
203 226 255
203 226 255
204 226 255
204 226 255
204 226 255
204 226 255
204 226 255
204 226 255
204 226 255
204 226 255
204 226 255
204 226 255
204 226 255
204 226 255
204 226 255
204 226 255
204 226 255
204 226 255
205 226 255
205 226 255
205 226 255
205 226 255
205 226 255
205 226 255
205 227 255
205 227 255
205 227 255
205 227 255
205 227 255
205 227 255
205 227 255
205 227 255
205 227 255
205 227 255
206 227 255
206 227 255
206 227 255
206 227 255
206 227 255
206 227 255
206 227 255
206 227 255
206 227 255
206 227 255
206 227 255
206 227 255
206 227 255
206 227 255
206 227 255
206 227 255
206 227 255
207 227 255
207 227 255
207 227 255
207 227 255
207 228 255
207 228 255
207 228 255
207 228 255
207 228 255
207 228 255
207 228 255
207 228 255
207 228 255
207 228 255
207 228 255
207 228 255
207 228 255
207 228 255
207 228 255
208 228 255
208 228 255
208 228 255
208 228 255
208 228 255
208 228 255
208 228 255
208 228 255
208 228 255
208 228 255
208 228 255
208 228 255
208 228 255
208 228 255
208 228 255
208 228 255
208 228 255
208 228 255
208 228 255
208 228 255
209 228 255
209 228 255
209 229 255
209 229 255
209 229 255
209 229 255
209 229 255
209 229 255
209 229 255
209 229 255
209 229 255
209 229 255
209 229 255
209 229 255
209 229 255
209 229 255
209 229 255
209 229 255
209 229 255
209 229 255
209 229 255
209 229 255
209 229 255
209 229 255
209 229 255
209 229 255
209 229 255
209 229 255
209 229 255
209 229 255
209 229 255
209 229 255
209 229 255
209 229 255
209 229 255
209 229 255
209 229 255
209 229 255
209 229 255
209 228 255
208 228 255
208 228 255
208 228 255
208 228 255
208 228 255
208 228 255
208 228 255
208 228 255
208 228 255
208 228 255
208 228 255
208 228 255
208 228 255
208 228 255
208 228 255
208 228 255
208 228 255
208 228 255
208 228 255
208 228 255
207 228 255
207 228 255
207 228 255
207 228 255
207 228 255
207 228 255
207 228 255
207 228 255
207 228 255
207 228 255
207 228 255
207 228 255
207 228 255
207 228 255
207 228 255
207 227 255
207 227 255
207 227 255
207 227 255
206 227 255
206 227 255
206 227 255
206 227 255
206 227 255
206 227 255
206 227 255
206 227 255
206 227 255
206 227 255
206 227 255
206 227 255
206 227 255
206 227 255
206 227 255
206 227 255
206 227 255
205 227 255
205 227 255
205 227 255
205 227 255
205 227 255
205 227 255
205 227 255
205 227 255
205 227 255
205 227 255
205 226 255
205 226 255
205 226 255
205 226 255
205 226 255
205 226 255
204 226 255
204 226 255
204 226 255
204 226 255
204 226 255
204 226 255
204 226 255
204 226 255
204 226 255
204 226 255
204 226 255
204 226 255
204 226 255
204 226 255
204 226 255
204 226 255
203 226 255
203 226 255
203 226 255
203 226 255
203 226 255
203 226 255
203 226 255
203 225 255
203 225 255
203 225 255
203 225 255
203 225 255
203 225 255
203 225 255
203 225 255
203 225 255
202 225 255
202 225 255
202 225 255
202 225 255
202 225 255
202 225 255
202 225 255
202 225 255
202 225 255
202 225 255
202 225 255
202 225 255
202 225 255
202 225 255
202 225 255
202 225 255
202 225 255
201 225 255
201 225 255
201 225 255
201 225 255
201 225 255
201 225 255
201 224 255
201 224 255
201 224 255
201 224 255
201 224 255
201 224 255
201 224 255
201 224 255
201 224 255
201 224 255
201 224 255
201 224 255
201 224 255
201 224 255
200 224 255
200 224 255
200 224 255
200 224 255
200 224 255
200 224 255
200 224 255
200 224 255
200 224 255
200 224 255
200 224 255
200 224 255
200 224 255
200 224 255
200 224 255
200 224 255
200 224 255
200 224 255
200 224 255
200 224 255
200 224 255
200 224 255
200 224 255
200 224 255
200 224 255
200 224 255
200 224 255
200 224 255
200 224 255
200 224 255
200 224 255
200 224 255
200 224 255
200 224 255
200 224 255
200 224 255
200 224 255
200 224 255
200 224 255
200 224 255
200 224 255
200 224 255
200 224 255
200 224 255
200 224 255
200 224 255
200 224 255
200 224 255
200 224 255
200 224 255
200 224 255
200 224 255
200 224 255
200 224 255
200 224 255
200 224 255
200 224 255
200 224 255
200 224 255
200 224 255
200 224 255
200 224 255
200 224 255
200 224 255
200 224 255
200 224 255
200 224 255
200 224 255
200 224 255
200 224 255
200 224 255
200 224 255
200 224 255
200 224 255
201 224 255
201 224 255
201 224 255
201 224 255
201 224 255
201 224 255
201 224 255
201 224 255
201 224 255
201 224 255
201 224 255
201 224 255
201 224 255
201 224 255
201 224 255
201 225 255
201 225 255
201 225 255
201 225 255
201 225 255
201 225 255
202 225 255
202 225 255
202 225 255
202 225 255
202 225 255
202 225 255
202 225 255
202 225 255
202 225 255
202 225 255
202 225 255
202 225 255
202 225 255
202 225 255
202 225 255
202 225 255
202 225 255
203 225 255
203 225 255
203 225 255
203 225 255
203 225 255
203 225 255
203 225 255
203 225 255
203 225 255
203 226 255
203 226 255
203 226 255
203 226 255
203 226 255
203 226 255
203 226 255
204 226 255
204 226 255
204 226 255
204 226 255
204 226 255
204 226 255
204 226 255
204 226 255
204 226 255
204 226 255
204 226 255
204 226 255
204 226 255
204 226 255
204 226 255
204 226 255
205 226 255
205 226 255
205 226 255
205 226 255
205 226 255
205 226 255
205 227 255
205 227 255
205 227 255
205 227 255
205 227 255
205 227 255
205 227 255
205 227 255
205 227 255
205 227 255
206 227 255
206 227 255
206 227 255
206 227 255
206 227 255
206 227 255
206 227 255
206 227 255
206 227 255
206 227 255
206 227 255
206 227 255
206 227 255
206 227 255
206 227 255
206 227 255
206 227 255
207 227 255
207 227 255
207 227 255
207 227 255
207 228 255
207 228 255
207 228 255
207 228 255
207 228 255
207 228 255
207 228 255
207 228 255
207 228 255
207 228 255
207 228 255
207 228 255
207 228 255
207 228 255
207 228 255
208 228 255
208 228 255
208 228 255
208 228 255
208 228 255
208 228 255
208 228 255
208 228 255
208 228 255
208 228 255
208 228 255
208 228 255
208 228 255
208 228 255
208 228 255
208 228 255
208 228 255
208 228 255
208 228 255
208 228 255
209 228 255
209 229 255
209 229 255
209 229 255
209 229 255
209 229 255
209 229 255
209 229 255
209 229 255
209 229 255
209 229 255
209 229 255
209 229 255
209 229 255
209 229 255
209 229 255
209 229 255
209 229 255
209 229 255
209 229 255
209 229 255
209 229 255
210 229 255
210 229 255
209 229 255
209 229 255
209 229 255
209 229 255
209 229 255
209 229 255
209 229 255
209 229 255
209 229 255
209 229 255
209 229 255
209 229 255
209 229 255
209 229 255
209 229 255
209 229 255
209 229 255
209 229 255
209 229 255
209 229 255
209 229 255
209 228 255
208 228 255
208 228 255
208 228 255
208 228 255
208 228 255
208 228 255
208 228 255
208 228 255
208 228 255
208 228 255
208 228 255
208 228 255
208 228 255
208 228 255
208 228 255
208 228 255
208 228 255
208 228 255
208 228 255
208 228 255
207 228 255
207 228 255
207 228 255
207 228 255
207 228 255
207 228 255
207 228 255
207 228 255
207 228 255
207 228 255
207 228 255
207 228 255
207 228 255
207 228 255
207 228 255
207 227 255
207 227 255
207 227 255
207 227 255
206 227 255
206 227 255
206 227 255
206 227 255
206 227 255
206 227 255
206 227 255
206 227 255
206 227 255
206 227 255
206 227 255
206 227 255
206 227 255
206 227 255
206 227 255
206 227 255
206 227 255
205 227 255
205 227 255
205 227 255
205 227 255
205 227 255
205 227 255
205 227 255
205 227 255
205 227 255
205 227 255
205 226 255
205 226 255
205 226 255
205 226 255
205 226 255
205 226 255
204 226 255
204 226 255
204 226 255
204 226 255
204 226 255
204 226 255
204 226 255
204 226 255
204 226 255
204 226 255
204 226 255
204 226 255
204 226 255
204 226 255
204 226 255
204 226 255
203 226 255
203 226 255
203 226 255
203 226 255
203 226 255
203 226 255
203 226 255
203 225 255
203 225 255
203 225 255
203 225 255
203 225 255
203 225 255
203 225 255
203 225 255
203 225 255
202 225 255
202 225 255
202 225 255
202 225 255
202 225 255
202 225 255
202 225 255
202 225 255
202 225 255
202 225 255
202 225 255
202 225 255
202 225 255
202 225 255
202 225 255
202 225 255
202 225 255
202 225 255
201 225 255
201 225 255
201 225 255
201 225 255
201 225 255
201 225 255
201 224 255
201 224 255
201 224 255
201 224 255
201 224 255
201 224 255
201 224 255
201 224 255
201 224 255
201 224 255
201 224 255
201 224 255
201 224 255
201 224 255
201 224 255
201 224 255
200 224 255
200 224 255
200 224 255
200 224 255
200 224 255
200 224 255
200 224 255
200 224 255
200 224 255
200 224 255
200 224 255
200 224 255
200 224 255
200 224 255
200 224 255
200 224 255
200 224 255
200 224 255
200 224 255
200 224 255
200 224 255
200 224 255
200 224 255
200 224 255
200 224 255
200 224 255
200 224 255
200 224 255
200 224 255
200 224 255
200 224 255
200 224 255
200 224 255
200 224 255
200 224 255
200 224 255
200 224 255
200 224 255
200 224 255
200 224 255
200 224 255
200 224 255
200 224 255
200 224 255
200 224 255
200 224 255
200 224 255
200 224 255
200 224 255
200 224 255
200 224 255
200 224 255
200 224 255
200 224 255
200 224 255
200 224 255
200 224 255
200 224 255
200 224 255
200 224 255
200 224 255
200 224 255
200 224 255
201 224 255
201 224 255
201 224 255
201 224 255
201 224 255
201 224 255
201 224 255
201 224 255
201 224 255
201 224 255
201 224 255
201 224 255
201 224 255
201 224 255
201 224 255
201 224 255
201 225 255
201 225 255
201 225 255
201 225 255
201 225 255
201 225 255
202 225 255
202 225 255
202 225 255
202 225 255
202 225 255
202 225 255
202 225 255
202 225 255
202 225 255
202 225 255
202 225 255
202 225 255
202 225 255
202 225 255
202 225 255
202 225 255
202 225 255
202 225 255
203 225 255
203 225 255
203 225 255
203 225 255
203 225 255
203 225 255
203 225 255
203 225 255
203 225 255
203 226 255
203 226 255
203 226 255
203 226 255
203 226 255
203 226 255
203 226 255
204 226 255
204 226 255
204 226 255
204 226 255
204 226 255
204 226 255
204 226 255
204 226 255
204 226 255
204 226 255
204 226 255
204 226 255
204 226 255
204 226 255
204 226 255
204 226 255
205 226 255
205 226 255
205 226 255
205 226 255
205 226 255
205 226 255
205 227 255
205 227 255
205 227 255
205 227 255
205 227 255
205 227 255
205 227 255
205 227 255
205 227 255
205 227 255
206 227 255
206 227 255
206 227 255
206 227 255
206 227 255
206 227 255
206 227 255
206 227 255
206 227 255
206 227 255
206 227 255
206 227 255
206 227 255
206 227 255
206 227 255
206 227 255
206 227 255
207 227 255
207 227 255
207 227 255
207 227 255
207 228 255
207 228 255
207 228 255
207 228 255
207 228 255
207 228 255
207 228 255
207 228 255
207 228 255
207 228 255
207 228 255
207 228 255
207 228 255
207 228 255
208 228 255
208 228 255
208 228 255
208 228 255
208 228 255
208 228 255
208 228 255
208 228 255
208 228 255
208 228 255
208 228 255
208 228 255
208 228 255
208 228 255
208 228 255
208 228 255
208 228 255
208 228 255
208 228 255
208 228 255
208 228 255
209 228 255
209 229 255
209 229 255
209 229 255
209 229 255
209 229 255
209 229 255
209 229 255
209 229 255
209 229 255
209 229 255
209 229 255
209 229 255
209 229 255
209 229 255
209 229 255
209 229 255
209 229 255
209 229 255
209 229 255
209 229 255
209 229 255
210 229 255
210 229 255
210 229 255
210 229 255
210 229 255
210 229 255
210 229 255
210 229 255
210 229 255
209 229 255
209 229 255
209 229 255
209 229 255
209 229 255
209 229 255
209 229 255
209 229 255
209 229 255
209 229 255
209 229 255
209 229 255
209 229 255
209 229 255
209 229 255
209 229 255
209 229 255
209 229 255
209 229 255
209 229 255
209 228 255
209 228 255
208 228 255
208 228 255
208 228 255
208 228 255
208 228 255
208 228 255
208 228 255
208 228 255
208 228 255
208 228 255
208 228 255
208 228 255
208 228 255
208 228 255
208 228 255
208 228 255
208 228 255
208 228 255
208 228 255
208 228 255
207 228 255
207 228 255
207 228 255
207 228 255
207 228 255
207 228 255
207 228 255
207 228 255
207 228 255
207 228 255
207 228 255
207 228 255
207 228 255
207 228 255
207 227 255
207 227 255
207 227 255
207 227 255
206 227 255
206 227 255
206 227 255
206 227 255
206 227 255
206 227 255
206 227 255
206 227 255
206 227 255
206 227 255
206 227 255
206 227 255
206 227 255
206 227 255
206 227 255
206 227 255
206 227 255
205 227 255
205 227 255
205 227 255
205 227 255
205 227 255
205 227 255
205 227 255
205 227 255
205 227 255
205 227 255
205 226 255
205 226 255
205 226 255
205 226 255
205 226 255
205 226 255
204 226 255
204 226 255
204 226 255
204 226 255
204 226 255
204 226 255
204 226 255
204 226 255
204 226 255
204 226 255
204 226 255
204 226 255
204 226 255
204 226 255
204 226 255
204 226 255
203 226 255
203 226 255
203 226 255
203 226 255
203 226 255
203 226 255
203 226 255
203 225 255
203 225 255
203 225 255
203 225 255
203 225 255
203 225 255
203 225 255
203 225 255
203 225 255
203 225 255
202 225 255
202 225 255
202 225 255
202 225 255
202 225 255
202 225 255
202 225 255
202 225 255
202 225 255
202 225 255
202 225 255
202 225 255
202 225 255
202 225 255
202 225 255
202 225 255
202 225 255
202 225 255
201 225 255
201 225 255
201 225 255
201 225 255
201 225 255
201 225 255
201 224 255
201 224 255
201 224 255
201 224 255
201 224 255
201 224 255
201 224 255
201 224 255
201 224 255
201 224 255
201 224 255
201 224 255
201 224 255
201 224 255
201 224 255
201 224 255
201 224 255
201 224 255
201 224 255
200 224 255
200 224 255
200 224 255
200 224 255
200 224 255
200 224 255
200 224 255
200 224 255
200 224 255
200 224 255
200 224 255
200 224 255
200 224 255
200 224 255
200 224 255
200 224 255
200 224 255
200 224 255
200 224 255
200 224 255
200 224 255
200 224 255
200 224 255
200 224 255
200 224 255
200 224 255
200 224 255
200 224 255
200 224 255
200 224 255
200 224 255
200 224 255
200 224 255
200 224 255
200 224 255
200 224 255
200 224 255
200 224 255
200 224 255
200 224 255
200 224 255
200 224 255
200 224 255
200 224 255
200 224 255
200 224 255
200 224 255
200 224 255
200 224 255
200 224 255
201 224 255
201 224 255
201 224 255
201 224 255
201 224 255
201 224 255
201 224 255
201 224 255
201 224 255
201 224 255
201 224 255
201 224 255
201 224 255
201 224 255
201 224 255
201 224 255
201 224 255
201 224 255
201 225 255
201 225 255
201 225 255
201 225 255
201 225 255
201 225 255
202 225 255
202 225 255
202 225 255
202 225 255
202 225 255
202 225 255
202 225 255
202 225 255
202 225 255
202 225 255
202 225 255
202 225 255
202 225 255
202 225 255
202 225 255
202 225 255
202 225 255
202 225 255
203 225 255
203 225 255
203 225 255
203 225 255
203 225 255
203 225 255
203 225 255
203 225 255
203 225 255
203 226 255
203 226 255
203 226 255
203 226 255
203 226 255
203 226 255
203 226 255
203 226 255
204 226 255
204 226 255
204 226 255
204 226 255
204 226 255
204 226 255
204 226 255
204 226 255
204 226 255
204 226 255
204 226 255
204 226 255
204 226 255
204 226 255
204 226 255
204 226 255
205 226 255
205 226 255
205 226 255
205 226 255
205 226 255
205 226 255
205 227 255
205 227 255
205 227 255
205 227 255
205 227 255
205 227 255
205 227 255
205 227 255
205 227 255
205 227 255
206 227 255
206 227 255
206 227 255
206 227 255
206 227 255
206 227 255
206 227 255
206 227 255
206 227 255
206 227 255
206 227 255
206 227 255
206 227 255
206 227 255
206 227 255
206 227 255
206 227 255
207 227 255
207 227 255
207 227 255
207 227 255
207 228 255
207 228 255
207 228 255
207 228 255
207 228 255
207 228 255
207 228 255
207 228 255
207 228 255
207 228 255
207 228 255
207 228 255
207 228 255
207 228 255
208 228 255
208 228 255
208 228 255
208 228 255
208 228 255
208 228 255
208 228 255
208 228 255
208 228 255
208 228 255
208 228 255
208 228 255
208 228 255
208 228 255
208 228 255
208 228 255
208 228 255
208 228 255
208 228 255
208 228 255
209 228 255
209 229 255
209 229 255
209 229 255
209 229 255
209 229 255
209 229 255
209 229 255
209 229 255
209 229 255
209 229 255
209 229 255
209 229 255
209 229 255
209 229 255
209 229 255
209 229 255
209 229 255
209 229 255
209 229 255
209 229 255
209 229 255
210 229 255
210 229 255
210 229 255
210 229 255
210 229 255
210 229 255
210 229 255
210 229 255
210 229 255
210 229 255
210 229 255
210 229 255
210 229 255
210 229 255
210 229 255
210 229 255
209 229 255
209 229 255
209 229 255
209 229 255
209 229 255
209 229 255
209 229 255
209 229 255
209 229 255
209 229 255
209 229 255
209 229 255
209 229 255
209 229 255
209 229 255
209 229 255
209 229 255
209 229 255
209 229 255
209 229 255
209 229 255
209 228 255
208 228 255
208 228 255
208 228 255
208 228 255
208 228 255
208 228 255
208 228 255
208 228 255
208 228 255
208 228 255
208 228 255
208 228 255
208 228 255
208 228 255
208 228 255
208 228 255
208 228 255
208 228 255
208 228 255
208 228 255
207 228 255
207 228 255
207 228 255
207 228 255
207 228 255
207 228 255
207 228 255
207 228 255
207 228 255
207 228 255
207 228 255
207 228 255
207 228 255
207 228 255
207 227 255
207 227 255
207 227 255
207 227 255
206 227 255
206 227 255
206 227 255
206 227 255
206 227 255
206 227 255
206 227 255
206 227 255
206 227 255
206 227 255
206 227 255
206 227 255
206 227 255
206 227 255
206 227 255
206 227 255
206 227 255
205 227 255
205 227 255
205 227 255
205 227 255
205 227 255
205 227 255
205 227 255
205 227 255
205 227 255
205 227 255
205 226 255
205 226 255
205 226 255
205 226 255
205 226 255
205 226 255
205 226 255
204 226 255
204 226 255
204 226 255
204 226 255
204 226 255
204 226 255
204 226 255
204 226 255
204 226 255
204 226 255
204 226 255
204 226 255
204 226 255
204 226 255
204 226 255
204 226 255
203 226 255
203 226 255
203 226 255
203 226 255
203 226 255
203 226 255
203 226 255
203 225 255
203 225 255
203 225 255
203 225 255
203 225 255
203 225 255
203 225 255
203 225 255
203 225 255
202 225 255
202 225 255
202 225 255
202 225 255
202 225 255
202 225 255
202 225 255
202 225 255
202 225 255
202 225 255
202 225 255
202 225 255
202 225 255
202 225 255
202 225 255
202 225 255
202 225 255
202 225 255
202 225 255
201 225 255
201 225 255
201 225 255
201 225 255
201 225 255
201 225 255
201 225 255
201 224 255
201 224 255
201 224 255
201 224 255
201 224 255
201 224 255
201 224 255
201 224 255
201 224 255
201 224 255
201 224 255
201 224 255
201 224 255
201 224 255
201 224 255
201 224 255
201 224 255
201 224 255
201 224 255
201 224 255
201 224 255
201 224 255
200 224 255
200 224 255
200 224 255
200 224 255
200 224 255
200 224 255
200 224 255
200 224 255
200 224 255
200 224 255
200 224 255
200 224 255
200 224 255
200 224 255
200 224 255
200 224 255
200 224 255
200 224 255
200 224 255
200 224 255
200 224 255
200 224 255
200 224 255
200 224 255
200 224 255
200 224 255
200 224 255
200 224 255
200 224 255
200 224 255
200 224 255
200 224 255
201 224 255
201 224 255
201 224 255
201 224 255
201 224 255
201 224 255
201 224 255
201 224 255
201 224 255
201 224 255
201 224 255
201 224 255
201 224 255
201 224 255
201 224 255
201 224 255
201 224 255
201 224 255
201 224 255
201 224 255
201 224 255
201 224 255
201 224 255
201 225 255
201 225 255
201 225 255
201 225 255
201 225 255
201 225 255
201 225 255
202 225 255
202 225 255
202 225 255
202 225 255
202 225 255
202 225 255
202 225 255
202 225 255
202 225 255
202 225 255
202 225 255
202 225 255
202 225 255
202 225 255
202 225 255
202 225 255
202 225 255
202 225 255
202 225 255
203 225 255
203 225 255
203 225 255
203 225 255
203 225 255
203 225 255
203 225 255
203 225 255
203 225 255
203 226 255
203 226 255
203 226 255
203 226 255
203 226 255
203 226 255
203 226 255
204 226 255
204 226 255
204 226 255
204 226 255
204 226 255
204 226 255
204 226 255
204 226 255
204 226 255
204 226 255
204 226 255
204 226 255
204 226 255
204 226 255
204 226 255
204 226 255
205 226 255
205 226 255
205 226 255
205 226 255
205 226 255
205 226 255
205 226 255
205 227 255
205 227 255
205 227 255
205 227 255
205 227 255
205 227 255
205 227 255
205 227 255
205 227 255
205 227 255
206 227 255
206 227 255
206 227 255
206 227 255
206 227 255
206 227 255
206 227 255
206 227 255
206 227 255
206 227 255
206 227 255
206 227 255
206 227 255
206 227 255
206 227 255
206 227 255
206 227 255
207 227 255
207 227 255
207 227 255
207 227 255
207 228 255
207 228 255
207 228 255
207 228 255
207 228 255
207 228 255
207 228 255
207 228 255
207 228 255
207 228 255
207 228 255
207 228 255
207 228 255
207 228 255
208 228 255
208 228 255
208 228 255
208 228 255
208 228 255
208 228 255
208 228 255
208 228 255
208 228 255
208 228 255
208 228 255
208 228 255
208 228 255
208 228 255
208 228 255
208 228 255
208 228 255
208 228 255
208 228 255
208 228 255
209 228 255
209 229 255
209 229 255
209 229 255
209 229 255
209 229 255
209 229 255
209 229 255
209 229 255
209 229 255
209 229 255
209 229 255
209 229 255
209 229 255
209 229 255
209 229 255
209 229 255
209 229 255
209 229 255
209 229 255
209 229 255
209 229 255
210 229 255
210 229 255
210 229 255
210 229 255
210 229 255
210 229 255
210 229 255
210 229 255
210 229 255
210 229 255
210 229 255
210 229 255
210 229 255
210 229 255
210 229 255
210 229 255
210 229 255
210 229 255
210 229 255
210 229 255
210 229 255
210 229 255
210 229 255
209 229 255
209 229 255
209 229 255
209 229 255
209 229 255
209 229 255
209 229 255
209 229 255
209 229 255
209 229 255
209 229 255
209 229 255
209 229 255
209 229 255
209 229 255
209 229 255
209 229 255
209 229 255
209 229 255
209 229 255
209 228 255
209 228 255
208 228 255
208 228 255
208 228 255
208 228 255
208 228 255
208 228 255
208 228 255
208 228 255
208 228 255
208 228 255
208 228 255
208 228 255
208 228 255
208 228 255
208 228 255
208 228 255
208 228 255
208 228 255
208 228 255
207 228 255
207 228 255
207 228 255
207 228 255
207 228 255
207 228 255
207 228 255
207 228 255
207 228 255
207 228 255
207 228 255
207 228 255
207 228 255
207 228 255
207 227 255
207 227 255
207 227 255
207 227 255
206 227 255
206 227 255
206 227 255
206 227 255
206 227 255
206 227 255
206 227 255
206 227 255
206 227 255
206 227 255
206 227 255
206 227 255
206 227 255
206 227 255
206 227 255
206 227 255
206 227 255
205 227 255
205 227 255
205 227 255
205 227 255
205 227 255
205 227 255
205 227 255
205 227 255
205 227 255
205 227 255
205 226 255
205 226 255
205 226 255
205 226 255
205 226 255
205 226 255
205 226 255
204 226 255
204 226 255
204 226 255
204 226 255
204 226 255
204 226 255
204 226 255
204 226 255
204 226 255
204 226 255
204 226 255
204 226 255
204 226 255
204 226 255
204 226 255
204 226 255
203 226 255
203 226 255
203 226 255
203 226 255
203 226 255
203 226 255
203 226 255
203 226 255
203 225 255
203 225 255
203 225 255
203 225 255
203 225 255
203 225 255
203 225 255
203 225 255
203 225 255
202 225 255
202 225 255
202 225 255
202 225 255
202 225 255
202 225 255
202 225 255
202 225 255
202 225 255
202 225 255
202 225 255
202 225 255
202 225 255
202 225 255
202 225 255
202 225 255
202 225 255
202 225 255
202 225 255
202 225 255
201 225 255
201 225 255
201 225 255
201 225 255
201 225 255
201 225 255
201 225 255
201 225 255
201 224 255
201 224 255
201 224 255
201 224 255
201 224 255
201 224 255
201 224 255
201 224 255
201 224 255
201 224 255
201 224 255
201 224 255
201 224 255
201 224 255
201 224 255
201 224 255
201 224 255
201 224 255
201 224 255
201 224 255
201 224 255
201 224 255
201 224 255
201 224 255
201 224 255
201 224 255
201 224 255
201 224 255
201 224 255
201 224 255
201 224 255
201 224 255
201 224 255
201 224 255
201 224 255
201 224 255
201 224 255
201 224 255
201 224 255
201 224 255
201 224 255
201 224 255
201 224 255
201 224 255
201 224 255
201 224 255
201 224 255
201 224 255
201 224 255
201 224 255
201 224 255
201 224 255
201 224 255
201 224 255
201 224 255
201 224 255
201 224 255
201 224 255
201 224 255
201 224 255
201 224 255
201 224 255
201 224 255
201 224 255
201 224 255
201 225 255
201 225 255
201 225 255
201 225 255
201 225 255
201 225 255
201 225 255
201 225 255
202 225 255
202 225 255
202 225 255
202 225 255
202 225 255
202 225 255
202 225 255
202 225 255
202 225 255
202 225 255
202 225 255
202 225 255
202 225 255
202 225 255
202 225 255
202 225 255
202 225 255
202 225 255
202 225 255
202 225 255
203 225 255
203 225 255
203 225 255
203 225 255
203 225 255
203 225 255
203 225 255
203 225 255
203 225 255
203 225 255
203 226 255
203 226 255
203 226 255
203 226 255
203 226 255
203 226 255
203 226 255
204 226 255
204 226 255
204 226 255
204 226 255
204 226 255
204 226 255
204 226 255
204 226 255
204 226 255
204 226 255
204 226 255
204 226 255
204 226 255
204 226 255
204 226 255
204 226 255
205 226 255
205 226 255
205 226 255
205 226 255
205 226 255
205 226 255
205 226 255
205 227 255
205 227 255
205 227 255
205 227 255
205 227 255
205 227 255
205 227 255
205 227 255
205 227 255
205 227 255
206 227 255
206 227 255
206 227 255
206 227 255
206 227 255
206 227 255
206 227 255
206 227 255
206 227 255
206 227 255
206 227 255
206 227 255
206 227 255
206 227 255
206 227 255
206 227 255
206 227 255
207 227 255
207 227 255
207 227 255
207 227 255
207 228 255
207 228 255
207 228 255
207 228 255
207 228 255
207 228 255
207 228 255
207 228 255
207 228 255
207 228 255
207 228 255
207 228 255
207 228 255
207 228 255
208 228 255
208 228 255
208 228 255
208 228 255
208 228 255
208 228 255
208 228 255
208 228 255
208 228 255
208 228 255
208 228 255
208 228 255
208 228 255
208 228 255
208 228 255
208 228 255
208 228 255
208 228 255
208 228 255
209 228 255
209 228 255
209 229 255
209 229 255
209 229 255
209 229 255
209 229 255
209 229 255
209 229 255
209 229 255
209 229 255
209 229 255
209 229 255
209 229 255
209 229 255
209 229 255
209 229 255
209 229 255
209 229 255
209 229 255
209 229 255
209 229 255
210 229 255
210 229 255
210 229 255
210 229 255
210 229 255
210 229 255
210 229 255
210 229 255
210 229 255
210 229 255
210 229 255
210 229 255
210 229 255
210 229 255
210 229 255
210 229 255
210 229 255
210 229 255
210 229 255
210 229 255
210 229 255
210 229 255
210 229 255
210 229 255
210 229 255
210 229 255
210 229 255
210 229 255
210 229 255
210 229 255
209 229 255
209 229 255
209 229 255
209 229 255
209 229 255
209 229 255
209 229 255
209 229 255
209 229 255
209 229 255
209 229 255
209 229 255
209 229 255
209 229 255
209 229 255
209 229 255
209 229 255
209 229 255
209 229 255
209 229 255
209 229 255
209 228 255
208 228 255
208 228 255
208 228 255
208 228 255
208 228 255
208 228 255
208 228 255
208 228 255
208 228 255
208 228 255
208 228 255
208 228 255
208 228 255
208 228 255
208 228 255
208 228 255
208 228 255
208 228 255
208 228 255
208 228 255
207 228 255
207 228 255
207 228 255
207 228 255
207 228 255
207 228 255
207 228 255
207 228 255
207 228 255
207 228 255
207 228 255
207 228 255
207 228 255
207 227 255
207 227 255
207 227 255
207 227 255
207 227 255
206 227 255
206 227 255
206 227 255
206 227 255
206 227 255
206 227 255
206 227 255
206 227 255
206 227 255
206 227 255
206 227 255
206 227 255
206 227 255
206 227 255
206 227 255
206 227 255
206 227 255
205 227 255
205 227 255
205 227 255
205 227 255
205 227 255
205 227 255
205 227 255
205 227 255
205 227 255
205 226 255
205 226 255
205 226 255
205 226 255
205 226 255
205 226 255
205 226 255
204 226 255
204 226 255
204 226 255
204 226 255
204 226 255
204 226 255
204 226 255
204 226 255
204 226 255
204 226 255
204 226 255
204 226 255
204 226 255
204 226 255
204 226 255
204 226 255
204 226 255
203 226 255
203 226 255
203 226 255
203 226 255
203 226 255
203 226 255
203 226 255
203 225 255
203 225 255
203 225 255
203 225 255
203 225 255
203 225 255
203 225 255
203 225 255
203 225 255
203 225 255
202 225 255
202 225 255
202 225 255
202 225 255
202 225 255
202 225 255
202 225 255
202 225 255
202 225 255
202 225 255
202 225 255
202 225 255
202 225 255
202 225 255
202 225 255
202 225 255
202 225 255
202 225 255
202 225 255
202 225 255
202 225 255
201 225 255
201 225 255
201 225 255
201 225 255
201 225 255
201 225 255
201 225 255
201 225 255
201 225 255
201 224 255
201 224 255
201 224 255
201 224 255
201 224 255
201 224 255
201 224 255
201 224 255
201 224 255
201 224 255
201 224 255
201 224 255
201 224 255
201 224 255
201 224 255
201 224 255
201 224 255
201 224 255
201 224 255
201 224 255
201 224 255
201 224 255
201 224 255
201 224 255
201 224 255
201 224 255
201 224 255
201 224 255
201 224 255
201 224 255
201 224 255
201 224 255
201 224 255
201 224 255
201 224 255
201 224 255
201 224 255
201 224 255
201 224 255
201 224 255
201 224 255
201 224 255
201 224 255
201 224 255
201 224 255
201 224 255
201 224 255
201 224 255
201 224 255
201 224 255
201 224 255
201 224 255
201 224 255
201 225 255
201 225 255
201 225 255
201 225 255
201 225 255
201 225 255
201 225 255
201 225 255
202 225 255
202 225 255
202 225 255
202 225 255
202 225 255
202 225 255
202 225 255
202 225 255
202 225 255
202 225 255
202 225 255
202 225 255
202 225 255
202 225 255
202 225 255
202 225 255
202 225 255
202 225 255
202 225 255
202 225 255
202 225 255
202 225 255
203 225 255
203 225 255
203 225 255
203 225 255
203 225 255
203 225 255
203 225 255
203 225 255
203 225 255
203 225 255
203 226 255
203 226 255
203 226 255
203 226 255
203 226 255
203 226 255
203 226 255
204 226 255
204 226 255
204 226 255
204 226 255
204 226 255
204 226 255
204 226 255
204 226 255
204 226 255
204 226 255
204 226 255
204 226 255
204 226 255
204 226 255
204 226 255
204 226 255
204 226 255
205 226 255
205 226 255
205 226 255
205 226 255
205 226 255
205 226 255
205 227 255
205 227 255
205 227 255
205 227 255
205 227 255
205 227 255
205 227 255
205 227 255
205 227 255
205 227 255
206 227 255
206 227 255
206 227 255
206 227 255
206 227 255
206 227 255
206 227 255
206 227 255
206 227 255
206 227 255
206 227 255
206 227 255
206 227 255
206 227 255
206 227 255
206 227 255
206 227 255
207 227 255
207 227 255
207 227 255
207 227 255
207 228 255
207 228 255
207 228 255
207 228 255
207 228 255
207 228 255
207 228 255
207 228 255
207 228 255
207 228 255
207 228 255
207 228 255
207 228 255
207 228 255
208 228 255
208 228 255
208 228 255
208 228 255
208 228 255
208 228 255
208 228 255
208 228 255
208 228 255
208 228 255
208 228 255
208 228 255
208 228 255
208 228 255
208 228 255
208 228 255
208 228 255
208 228 255
208 228 255
208 228 255
209 228 255
209 229 255
209 229 255
209 229 255
209 229 255
209 229 255
209 229 255
209 229 255
209 229 255
209 229 255
209 229 255
209 229 255
209 229 255
209 229 255
209 229 255
209 229 255
209 229 255
209 229 255
209 229 255
209 229 255
209 229 255
209 229 255
210 229 255
210 229 255
210 229 255
210 229 255
210 229 255
210 229 255
210 229 255
210 229 255
210 229 255
210 229 255
210 229 255
210 229 255
210 229 255
210 229 255
210 229 255
210 229 255
210 229 255
210 229 255
210 229 255
210 229 255
210 229 255
210 229 255
210 229 255
210 229 255
210 229 255
210 229 255
210 229 255
210 229 255
210 229 255
210 229 255
210 229 255
210 229 255
210 229 255
210 229 255
210 229 255
210 229 255
210 229 255
209 229 255
209 229 255
209 229 255
209 229 255
209 229 255
209 229 255
209 229 255
209 229 255
209 229 255
209 229 255
209 229 255
209 229 255
209 229 255
209 229 255
209 229 255
209 229 255
209 229 255
209 229 255
209 229 255
209 229 255
209 228 255
209 228 255
208 228 255
208 228 255
208 228 255
208 228 255
208 228 255
208 228 255
208 228 255
208 228 255
208 228 255
208 228 255
208 228 255
208 228 255
208 228 255
208 228 255
208 228 255
208 228 255
208 228 255
208 228 255
208 228 255
207 228 255
207 228 255
207 228 255
207 228 255
207 228 255
207 228 255
207 228 255
207 228 255
207 228 255
207 228 255
207 228 255
207 228 255
207 228 255
207 228 255
207 227 255
207 227 255
207 227 255
207 227 255
206 227 255
206 227 255
206 227 255
206 227 255
206 227 255
206 227 255
206 227 255
206 227 255
206 227 255
206 227 255
206 227 255
206 227 255
206 227 255
206 227 255
206 227 255
206 227 255
206 227 255
205 227 255
205 227 255
205 227 255
205 227 255
205 227 255
205 227 255
205 227 255
205 227 255
205 227 255
205 227 255
205 226 255
205 226 255
205 226 255
205 226 255
205 226 255
205 226 255
204 226 255
204 226 255
204 226 255
204 226 255
204 226 255
204 226 255
204 226 255
204 226 255
204 226 255
204 226 255
204 226 255
204 226 255
204 226 255
204 226 255
204 226 255
204 226 255
204 226 255
203 226 255
203 226 255
203 226 255
203 226 255
203 226 255
203 226 255
203 226 255
203 226 255
203 225 255
203 225 255
203 225 255
203 225 255
203 225 255
203 225 255
203 225 255
203 225 255
203 225 255
203 225 255
202 225 255
202 225 255
202 225 255
202 225 255
202 225 255
202 225 255
202 225 255
202 225 255
202 225 255
202 225 255
202 225 255
202 225 255
202 225 255
202 225 255
202 225 255
202 225 255
202 225 255
202 225 255
202 225 255
202 225 255
202 225 255
202 225 255
202 225 255
201 225 255
201 225 255
201 225 255
201 225 255
201 225 255
201 225 255
201 225 255
201 225 255
201 225 255
201 225 255
201 225 255
201 224 255
201 224 255
201 224 255
201 224 255
201 224 255
201 224 255
201 224 255
201 224 255
201 224 255
201 224 255
201 224 255
201 224 255
201 224 255
201 224 255
201 224 255
201 224 255
201 224 255
201 224 255
201 224 255
201 224 255
201 224 255
201 224 255
201 224 255
201 224 255
201 224 255
201 224 255
201 224 255
201 224 255
201 224 255
201 224 255
201 224 255
201 224 255
201 224 255
201 224 255
201 224 255
201 224 255
201 225 255
201 225 255
201 225 255
201 225 255
201 225 255
201 225 255
201 225 255
201 225 255
201 225 255
201 225 255
201 225 255
202 225 255
202 225 255
202 225 255
202 225 255
202 225 255
202 225 255
202 225 255
202 225 255
202 225 255
202 225 255
202 225 255
202 225 255
202 225 255
202 225 255
202 225 255
202 225 255
202 225 255
202 225 255
202 225 255
202 225 255
202 225 255
202 225 255
202 225 255
202 225 255
203 225 255
203 225 255
203 225 255
203 225 255
203 225 255
203 225 255
203 225 255
203 225 255
203 225 255
203 225 255
203 226 255
203 226 255
203 226 255
203 226 255
203 226 255
203 226 255
203 226 255
203 226 255
204 226 255
204 226 255
204 226 255
204 226 255
204 226 255
204 226 255
204 226 255
204 226 255
204 226 255
204 226 255
204 226 255
204 226 255
204 226 255
204 226 255
204 226 255
204 226 255
204 226 255
205 226 255
205 226 255
205 226 255
205 226 255
205 226 255
205 226 255
205 227 255
205 227 255
205 227 255
205 227 255
205 227 255
205 227 255
205 227 255
205 227 255
205 227 255
205 227 255
206 227 255
206 227 255
206 227 255
206 227 255
206 227 255
206 227 255
206 227 255
206 227 255
206 227 255
206 227 255
206 227 255
206 227 255
206 227 255
206 227 255
206 227 255
206 227 255
206 227 255
207 227 255
207 227 255
207 227 255
207 227 255
207 228 255
207 228 255
207 228 255
207 228 255
207 228 255
207 228 255
207 228 255
207 228 255
207 228 255
207 228 255
207 228 255
207 228 255
207 228 255
207 228 255
208 228 255
208 228 255
208 228 255
208 228 255
208 228 255
208 228 255
208 228 255
208 228 255
208 228 255
208 228 255
208 228 255
208 228 255
208 228 255
208 228 255
208 228 255
208 228 255
208 228 255
208 228 255
208 228 255
209 228 255
209 228 255
209 229 255
209 229 255
209 229 255
209 229 255
209 229 255
209 229 255
209 229 255
209 229 255
209 229 255
209 229 255
209 229 255
209 229 255
209 229 255
209 229 255
209 229 255
209 229 255
209 229 255
209 229 255
209 229 255
209 229 255
210 229 255
210 229 255
210 229 255
210 229 255
210 229 255
210 229 255
210 229 255
210 229 255
210 229 255
210 229 255
210 229 255
210 229 255
210 229 255
210 229 255
210 229 255
210 229 255
210 229 255
210 229 255
210 229 255
210 229 255
210 229 255
210 230 255
210 230 255
210 229 255
210 229 255
210 229 255
210 229 255
210 229 255
210 229 255
210 229 255
210 229 255
210 229 255
210 229 255
210 229 255
210 229 255
210 229 255
210 229 255
210 229 255
210 229 255
210 229 255
210 229 255
210 229 255
210 229 255
210 229 255
210 229 255
209 229 255
209 229 255
209 229 255
209 229 255
209 229 255
209 229 255
209 229 255
209 229 255
209 229 255
209 229 255
209 229 255
209 229 255
209 229 255
209 229 255
209 229 255
209 229 255
209 229 255
209 229 255
209 229 255
209 228 255
209 228 255
208 228 255
208 228 255
208 228 255
208 228 255
208 228 255
208 228 255
208 228 255
208 228 255
208 228 255
208 228 255
208 228 255
208 228 255
208 228 255
208 228 255
208 228 255
208 228 255
208 228 255
208 228 255
208 228 255
207 228 255
207 228 255
207 228 255
207 228 255
207 228 255
207 228 255
207 228 255
207 228 255
207 228 255
207 228 255
207 228 255
207 228 255
207 228 255
207 228 255
207 227 255
207 227 255
207 227 255
207 227 255
206 227 255
206 227 255
206 227 255
206 227 255
206 227 255
206 227 255
206 227 255
206 227 255
206 227 255
206 227 255
206 227 255
206 227 255
206 227 255
206 227 255
206 227 255
206 227 255
206 227 255
205 227 255
205 227 255
205 227 255
205 227 255
205 227 255
205 227 255
205 227 255
205 227 255
205 227 255
205 227 255
205 226 255
205 226 255
205 226 255
205 226 255
205 226 255
205 226 255
205 226 255
204 226 255
204 226 255
204 226 255
204 226 255
204 226 255
204 226 255
204 226 255
204 226 255
204 226 255
204 226 255
204 226 255
204 226 255
204 226 255
204 226 255
204 226 255
204 226 255
204 226 255
203 226 255
203 226 255
203 226 255
203 226 255
203 226 255
203 226 255
203 226 255
203 226 255
203 225 255
203 225 255
203 225 255
203 225 255
203 225 255
203 225 255
203 225 255
203 225 255
203 225 255
203 225 255
203 225 255
202 225 255
202 225 255
202 225 255
202 225 255
202 225 255
202 225 255
202 225 255
202 225 255
202 225 255
202 225 255
202 225 255
202 225 255
202 225 255
202 225 255
202 225 255
202 225 255
202 225 255
202 225 255
202 225 255
202 225 255
202 225 255
202 225 255
202 225 255
202 225 255
202 225 255
202 225 255
201 225 255
201 225 255
201 225 255
201 225 255
201 225 255
201 225 255
201 225 255
201 225 255
201 225 255
201 225 255
201 225 255
201 225 255
201 225 255
201 225 255
201 225 255
201 225 255
201 225 255
201 225 255
201 225 255
201 225 255
201 225 255
201 225 255
201 225 255
201 225 255
201 225 255
201 225 255
201 225 255
201 225 255
201 225 255
201 225 255
201 225 255
201 225 255
201 225 255
201 225 255
201 225 255
201 225 255
201 225 255
201 225 255
201 225 255
201 225 255
201 225 255
201 225 255
202 225 255
202 225 255
202 225 255
202 225 255
202 225 255
202 225 255
202 225 255
202 225 255
202 225 255
202 225 255
202 225 255
202 225 255
202 225 255
202 225 255
202 225 255
202 225 255
202 225 255
202 225 255
202 225 255
202 225 255
202 225 255
202 225 255
202 225 255
202 225 255
202 225 255
202 225 255
202 225 255
202 225 255
203 225 255
203 225 255
203 225 255
203 225 255
203 225 255
203 225 255
203 225 255
203 225 255
203 225 255
203 225 255
203 226 255
203 226 255
203 226 255
203 226 255
203 226 255
203 226 255
203 226 255
203 226 255
204 226 255
204 226 255
204 226 255
204 226 255
204 226 255
204 226 255
204 226 255
204 226 255
204 226 255
204 226 255
204 226 255
204 226 255
204 226 255
204 226 255
204 226 255
204 226 255
204 226 255
205 226 255
205 226 255
205 226 255
205 226 255
205 226 255
205 226 255
205 226 255
205 227 255
205 227 255
205 227 255
205 227 255
205 227 255
205 227 255
205 227 255
205 227 255
205 227 255
205 227 255
206 227 255
206 227 255
206 227 255
206 227 255
206 227 255
206 227 255
206 227 255
206 227 255
206 227 255
206 227 255
206 227 255
206 227 255
206 227 255
206 227 255
206 227 255
206 227 255
206 227 255
207 227 255
207 227 255
207 227 255
207 227 255
207 228 255
207 228 255
207 228 255
207 228 255
207 228 255
207 228 255
207 228 255
207 228 255
207 228 255
207 228 255
207 228 255
207 228 255
207 228 255
207 228 255
208 228 255
208 228 255
208 228 255
208 228 255
208 228 255
208 228 255
208 228 255
208 228 255
208 228 255
208 228 255
208 228 255
208 228 255
208 228 255
208 228 255
208 228 255
208 228 255
208 228 255
208 228 255
208 228 255
209 228 255
209 229 255
209 229 255
209 229 255
209 229 255
209 229 255
209 229 255
209 229 255
209 229 255
209 229 255
209 229 255
209 229 255
209 229 255
209 229 255
209 229 255
209 229 255
209 229 255
209 229 255
209 229 255
209 229 255
209 229 255
210 229 255
210 229 255
210 229 255
210 229 255
210 229 255
210 229 255
210 229 255
210 229 255
210 229 255
210 229 255
210 229 255
210 229 255
210 229 255
210 229 255
210 229 255
210 229 255
210 229 255
210 229 255
210 229 255
210 229 255
210 229 255
210 229 255
210 230 255
210 230 255
210 230 255
211 230 255
211 230 255
211 230 255
210 230 255
210 230 255
210 230 255
210 229 255
210 229 255
210 229 255
210 229 255
210 229 255
210 229 255
210 229 255
210 229 255
210 229 255
210 229 255
210 229 255
210 229 255
210 229 255
210 229 255
210 229 255
210 229 255
210 229 255
210 229 255
210 229 255
210 229 255
210 229 255
209 229 255
209 229 255
209 229 255
209 229 255
209 229 255
209 229 255
209 229 255
209 229 255
209 229 255
209 229 255
209 229 255
209 229 255
209 229 255
209 229 255
209 229 255
209 229 255
209 229 255
209 229 255
209 229 255
209 229 255
209 228 255
209 228 255
208 228 255
208 228 255
208 228 255
208 228 255
208 228 255
208 228 255
208 228 255
208 228 255
208 228 255
208 228 255
208 228 255
208 228 255
208 228 255
208 228 255
208 228 255
208 228 255
208 228 255
208 228 255
208 228 255
207 228 255
207 228 255
207 228 255
207 228 255
207 228 255
207 228 255
207 228 255
207 228 255
207 228 255
207 228 255
207 228 255
207 228 255
207 228 255
207 227 255
207 227 255
207 227 255
207 227 255
207 227 255
206 227 255
206 227 255
206 227 255
206 227 255
206 227 255
206 227 255
206 227 255
206 227 255
206 227 255
206 227 255
206 227 255
206 227 255
206 227 255
206 227 255
206 227 255
206 227 255
206 227 255
205 227 255
205 227 255
205 227 255
205 227 255
205 227 255
205 227 255
205 227 255
205 227 255
205 227 255
205 227 255
205 226 255
205 226 255
205 226 255
205 226 255
205 226 255
205 226 255
204 226 255
204 226 255
204 226 255
204 226 255
204 226 255
204 226 255
204 226 255
204 226 255
204 226 255
204 226 255
204 226 255
204 226 255
204 226 255
204 226 255
204 226 255
204 226 255
204 226 255
204 226 255
203 226 255
203 226 255
203 226 255
203 226 255
203 226 255
203 226 255
203 226 255
203 226 255
203 225 255
203 225 255
203 225 255
203 225 255
203 225 255
203 225 255
203 225 255
203 225 255
203 225 255
203 225 255
203 225 255
203 225 255
202 225 255
202 225 255
202 225 255
202 225 255
202 225 255
202 225 255
202 225 255
202 225 255
202 225 255
202 225 255
202 225 255
202 225 255
202 225 255
202 225 255
202 225 255
202 225 255
202 225 255
202 225 255
202 225 255
202 225 255
202 225 255
202 225 255
202 225 255
202 225 255
202 225 255
202 225 255
202 225 255
202 225 255
202 225 255
202 225 255
202 225 255
202 225 255
202 225 255
202 225 255
202 225 255
202 225 255
201 225 255
201 225 255
201 225 255
201 225 255
201 225 255
201 225 255
201 225 255
201 225 255
201 225 255
201 225 255
201 225 255
201 225 255
201 225 255
201 225 255
201 225 255
202 225 255
202 225 255
202 225 255
202 225 255
202 225 255
202 225 255
202 225 255
202 225 255
202 225 255
202 225 255
202 225 255
202 225 255
202 225 255
202 225 255
202 225 255
202 225 255
202 225 255
202 225 255
202 225 255
202 225 255
202 225 255
202 225 255
202 225 255
202 225 255
202 225 255
202 225 255
202 225 255
202 225 255
202 225 255
202 225 255
202 225 255
202 225 255
202 225 255
202 225 255
202 225 255
203 225 255
203 225 255
203 225 255
203 225 255
203 225 255
203 225 255
203 225 255
203 225 255
203 225 255
203 225 255
203 225 255
203 226 255
203 226 255
203 226 255
203 226 255
203 226 255
203 226 255
203 226 255
203 226 255
204 226 255
204 226 255
204 226 255
204 226 255
204 226 255
204 226 255
204 226 255
204 226 255
204 226 255
204 226 255
204 226 255
204 226 255
204 226 255
204 226 255
204 226 255
204 226 255
204 226 255
204 226 255
205 226 255
205 226 255
205 226 255
205 226 255
205 226 255
205 226 255
205 226 255
205 227 255
205 227 255
205 227 255
205 227 255
205 227 255
205 227 255
205 227 255
205 227 255
205 227 255
206 227 255
206 227 255
206 227 255
206 227 255
206 227 255
206 227 255
206 227 255
206 227 255
206 227 255
206 227 255
206 227 255
206 227 255
206 227 255
206 227 255
206 227 255
206 227 255
206 227 255
207 227 255
207 227 255
207 227 255
207 227 255
207 227 255
207 228 255
207 228 255
207 228 255
207 228 255
207 228 255
207 228 255
207 228 255
207 228 255
207 228 255
207 228 255
207 228 255
207 228 255
207 228 255
208 228 255
208 228 255
208 228 255
208 228 255
208 228 255
208 228 255
208 228 255
208 228 255
208 228 255
208 228 255
208 228 255
208 228 255
208 228 255
208 228 255
208 228 255
208 228 255
208 228 255
208 228 255
208 228 255
208 228 255
209 228 255
209 229 255
209 229 255
209 229 255
209 229 255
209 229 255
209 229 255
209 229 255
209 229 255
209 229 255
209 229 255
209 229 255
209 229 255
209 229 255
209 229 255
209 229 255
209 229 255
209 229 255
209 229 255
209 229 255
209 229 255
210 229 255
210 229 255
210 229 255
210 229 255
210 229 255
210 229 255
210 229 255
210 229 255
210 229 255
210 229 255
210 229 255
210 229 255
210 229 255
210 229 255
210 229 255
210 229 255
210 229 255
210 229 255
210 229 255
210 229 255
210 229 255
210 230 255
210 230 255
210 230 255
211 230 255
211 230 255
211 230 255
211 230 255
211 230 255
211 230 255
211 230 255
211 230 255
211 230 255
211 230 255
211 230 255
210 230 255
210 230 255
210 230 255
210 229 255
210 229 255
210 229 255
210 229 255
210 229 255
210 229 255
210 229 255
210 229 255
210 229 255
210 229 255
210 229 255
210 229 255
210 229 255
210 229 255
210 229 255
210 229 255
210 229 255
210 229 255
210 229 255
210 229 255
210 229 255
209 229 255
209 229 255
209 229 255
209 229 255
209 229 255
209 229 255
209 229 255
209 229 255
209 229 255
209 229 255
209 229 255
209 229 255
209 229 255
209 229 255
209 229 255
209 229 255
209 229 255
209 229 255
209 229 255
209 229 255
209 228 255
208 228 255
208 228 255
208 228 255
208 228 255
208 228 255
208 228 255
208 228 255
208 228 255
208 228 255
208 228 255
208 228 255
208 228 255
208 228 255
208 228 255
208 228 255
208 228 255
208 228 255
208 228 255
208 228 255
207 228 255
207 228 255
207 228 255
207 228 255
207 228 255
207 228 255
207 228 255
207 228 255
207 228 255
207 228 255
207 228 255
207 228 255
207 228 255
207 228 255
207 227 255
207 227 255
207 227 255
207 227 255
206 227 255
206 227 255
206 227 255
206 227 255
206 227 255
206 227 255
206 227 255
206 227 255
206 227 255
206 227 255
206 227 255
206 227 255
206 227 255
206 227 255
206 227 255
206 227 255
206 227 255
205 227 255
205 227 255
205 227 255
205 227 255
205 227 255
205 227 255
205 227 255
205 227 255
205 227 255
205 227 255
205 226 255
205 226 255
205 226 255
205 226 255
205 226 255
205 226 255
205 226 255
204 226 255
204 226 255
204 226 255
204 226 255
204 226 255
204 226 255
204 226 255
204 226 255
204 226 255
204 226 255
204 226 255
204 226 255
204 226 255
204 226 255
204 226 255
204 226 255
204 226 255
204 226 255
203 226 255
203 226 255
203 226 255
203 226 255
203 226 255
203 226 255
203 226 255
203 226 255
203 225 255
203 225 255
203 225 255
203 225 255
203 225 255
203 225 255
203 225 255
203 225 255
203 225 255
203 225 255
203 225 255
203 225 255
203 225 255
202 225 255
202 225 255
202 225 255
202 225 255
202 225 255
202 225 255
202 225 255
202 225 255
202 225 255
202 225 255
202 225 255
202 225 255
202 225 255
202 225 255
202 225 255
202 225 255
202 225 255
202 225 255
202 225 255
202 225 255
202 225 255
202 225 255
202 225 255
202 225 255
202 225 255
202 225 255
202 225 255
202 225 255
202 225 255
202 225 255
202 225 255
202 225 255
202 225 255
202 225 255
202 225 255
202 225 255
202 225 255
202 225 255
202 225 255
202 225 255
202 225 255
202 225 255
202 225 255
202 225 255
202 225 255
202 225 255
202 225 255
202 225 255
202 225 255
202 225 255
202 225 255
202 225 255
202 225 255
202 225 255
202 225 255
202 225 255
202 225 255
202 225 255
202 225 255
202 225 255
202 225 255
202 225 255
202 225 255
202 225 255
202 225 255
202 225 255
202 225 255
202 225 255
202 225 255
202 225 255
202 225 255
202 225 255
202 225 255
202 225 255
202 225 255
203 225 255
203 225 255
203 225 255
203 225 255
203 225 255
203 225 255
203 225 255
203 225 255
203 225 255
203 225 255
203 225 255
203 225 255
203 225 255
203 226 255
203 226 255
203 226 255
203 226 255
203 226 255
203 226 255
203 226 255
203 226 255
204 226 255
204 226 255
204 226 255
204 226 255
204 226 255
204 226 255
204 226 255
204 226 255
204 226 255
204 226 255
204 226 255
204 226 255
204 226 255
204 226 255
204 226 255
204 226 255
204 226 255
204 226 255
205 226 255
205 226 255
205 226 255
205 226 255
205 226 255
205 226 255
205 226 255
205 227 255
205 227 255
205 227 255
205 227 255
205 227 255
205 227 255
205 227 255
205 227 255
205 227 255
205 227 255
206 227 255
206 227 255
206 227 255
206 227 255
206 227 255
206 227 255
206 227 255
206 227 255
206 227 255
206 227 255
206 227 255
206 227 255
206 227 255
206 227 255
206 227 255
206 227 255
206 227 255
207 227 255
207 227 255
207 227 255
207 227 255
207 228 255
207 228 255
207 228 255
207 228 255
207 228 255
207 228 255
207 228 255
207 228 255
207 228 255
207 228 255
207 228 255
207 228 255
207 228 255
207 228 255
208 228 255
208 228 255
208 228 255
208 228 255
208 228 255
208 228 255
208 228 255
208 228 255
208 228 255
208 228 255
208 228 255
208 228 255
208 228 255
208 228 255
208 228 255
208 228 255
208 228 255
208 228 255
208 228 255
209 228 255
209 229 255
209 229 255
209 229 255
209 229 255
209 229 255
209 229 255
209 229 255
209 229 255
209 229 255
209 229 255
209 229 255
209 229 255
209 229 255
209 229 255
209 229 255
209 229 255
209 229 255
209 229 255
209 229 255
209 229 255
210 229 255
210 229 255
210 229 255
210 229 255
210 229 255
210 229 255
210 229 255
210 229 255
210 229 255
210 229 255
210 229 255
210 229 255
210 229 255
210 229 255
210 229 255
210 229 255
210 229 255
210 229 255
210 229 255
210 229 255
210 229 255
210 230 255
210 230 255
210 230 255
211 230 255
211 230 255
211 230 255
211 230 255
211 230 255
211 230 255
211 230 255
211 230 255
211 230 255
211 230 255
211 230 255
211 230 255
211 230 255
211 230 255
211 230 255
211 230 255
211 230 255
211 230 255
211 230 255
210 230 255
210 230 255
210 230 255
210 229 255
210 229 255
210 229 255
210 229 255
210 229 255
210 229 255
210 229 255
210 229 255
210 229 255
210 229 255
210 229 255
210 229 255
210 229 255
210 229 255
210 229 255
210 229 255
210 229 255
210 229 255
210 229 255
210 229 255
210 229 255
209 229 255
209 229 254
208 228 253
207 227 250
206 226 245
205 226 245
203 224 238
203 224 238
201 222 231
200 222 230
201 223 233
200 221 228
200 222 230
201 222 233
195 217 214
200 222 233
200 221 230
198 220 226
199 221 227
201 222 233
200 222 233
202 224 240
202 223 237
205 225 245
203 224 238
204 225 240
206 227 250
207 227 252
208 228 255
208 228 255
208 228 255
208 228 255
208 228 255
208 228 255
208 228 255
208 228 255
208 228 255
208 228 255
208 228 255
208 228 255
207 228 255
207 228 255
207 228 255
207 228 255
207 228 255
207 228 255
207 228 255
207 228 255
207 228 255
207 228 255
207 228 255
207 228 255
207 228 255
207 227 255
207 227 255
207 227 255
207 227 255
206 227 255
206 227 255
206 227 255
206 227 255
206 227 255
206 227 255
206 227 255
206 227 255
206 227 255
206 227 255
206 227 255
206 227 255
206 227 255
206 227 255
206 227 255
206 227 255
206 227 255
205 227 255
205 227 255
205 227 255
205 227 255
205 227 255
205 227 255
205 227 255
205 227 255
205 227 255
205 227 255
205 227 255
205 226 255
205 226 255
205 226 255
205 226 255
205 226 255
205 226 255
205 226 255
204 226 255
204 226 255
204 226 255
204 226 255
204 226 255
204 226 255
204 226 255
204 226 255
204 226 255
204 226 255
204 226 255
204 226 255
204 226 255
204 226 255
204 226 255
204 226 255
204 226 255
204 226 255
203 226 255
203 226 255
203 226 255
203 226 255
203 226 255
203 226 255
203 226 255
203 226 255
203 226 255
203 225 255
203 225 255
203 225 255
203 225 255
203 225 255
203 225 255
203 225 255
203 225 255
203 225 255
203 225 255
203 225 255
203 225 255
203 225 255
203 225 255
202 225 255
202 225 255
202 225 255
202 225 255
202 225 255
202 225 255
202 225 255
202 225 255
202 225 255
202 225 255
202 225 255
202 225 255
202 225 255
202 225 255
202 225 255
202 225 255
202 225 255
202 225 255
202 225 255
202 225 255
202 225 255
202 225 255
199 222 254
187 210 245
176 200 238
167 190 232
148 172 220
144 169 218
132 157 211
132 158 211
132 158 211
119 145 204
136 161 214
132 157 210
144 169 218
139 164 215
159 183 227
158 182 226
178 201 239
186 209 244
198 221 253
202 225 255
202 225 255
202 225 255
202 225 255
202 225 255
202 225 255
202 225 255
202 225 255
202 225 255
202 225 255
202 225 255
202 225 255
202 225 255
202 225 255
202 225 255
202 225 255
202 225 255
202 225 255
202 225 255
202 225 255
202 225 255
202 225 255
203 225 255
203 225 255
203 225 255
203 225 255
203 225 255
203 225 255
203 225 255
203 225 255
203 225 255
203 225 255
203 225 255
203 225 255
203 225 255
203 225 255
203 226 255
203 226 255
203 226 255
203 226 255
203 226 255
203 226 255
203 226 255
203 226 255
203 226 255
204 226 255
204 226 255
204 226 255
204 226 255
204 226 255
204 226 255
204 226 255
204 226 255
204 226 255
204 226 255
204 226 255
204 226 255
204 226 255
204 226 255
204 226 255
204 226 255
204 226 255
204 226 255
205 226 255
205 226 255
205 226 255
205 226 255
205 226 255
205 226 255
205 226 255
205 227 255
205 227 255
205 227 255
205 227 255
205 227 255
205 227 255
205 227 255
205 227 255
205 227 255
205 227 255
206 227 255
206 227 255
206 227 255
206 227 255
206 227 255
206 227 255
206 227 255
206 227 255
206 227 255
206 227 255
206 227 255
206 227 255
206 227 255
206 227 255
206 227 255
206 227 255
206 227 255
206 227 255
207 227 255
207 227 255
207 227 255
207 227 255
207 228 255
207 228 255
207 228 255
207 228 255
207 228 255
207 228 255
207 228 255
207 228 255
207 228 255
207 228 255
207 228 255
207 228 255
207 228 255
208 228 255
208 228 255
208 228 255
208 228 255
208 228 255
208 228 255
208 228 255
208 228 255
208 228 255
208 228 255
208 228 255
206 225 247
205 222 241
204 220 237
201 214 224
201 214 224
199 210 214
196 204 199
198 208 209
194 200 188
191 194 174
191 195 175
192 195 177
192 196 178
193 198 183
190 192 168
190 191 165
190 192 168
195 201 191
193 198 183
195 200 190
194 198 184
195 201 190
197 204 199
202 214 221
202 213 220
204 218 231
204 219 233
208 225 247
209 229 255
210 229 255
210 229 255
210 229 255
210 229 255
210 229 255
210 229 255
210 229 255
210 229 255
210 229 255
210 229 255
210 229 255
210 229 255
210 229 255
210 229 255
210 229 255
210 229 255
210 229 255
210 229 255
210 229 255
210 229 255
210 229 255
210 230 255
210 230 255
210 230 255
211 230 255
211 230 255
211 230 255
211 230 255
211 230 255
211 230 255
211 230 255
211 230 255
211 230 255
211 230 255
211 230 255
211 230 255
211 230 255
211 230 255
211 230 255
211 230 255
211 230 255
211 230 255
211 230 255
211 230 255
211 230 255
211 230 255
211 230 255
211 230 255
211 230 255
211 230 255
211 230 255
210 230 255
210 230 255
210 230 255
210 229 255
210 229 255
210 229 255
210 229 255
210 229 255
210 229 255
210 229 255
210 229 255
210 229 255
210 229 255
209 229 254
209 228 253
204 225 242
203 224 234
199 220 226
198 220 226
194 217 207
195 217 214
192 215 209
190 214 196
190 214 198
185 209 171
186 210 181
185 210 179
185 210 179
183 208 175
184 208 169
183 208 171
183 208 173
184 209 173
184 209 179
180 205 161
184 209 175
180 205 155
184 209 177
183 207 165
185 210 181
183 209 175
182 207 157
184 209 175
182 207 161
186 210 182
184 209 177
185 210 181
185 210 182
188 212 193
192 215 206
194 217 215
195 218 217
199 221 230
200 222 231
202 223 236
203 224 241
207 228 254
208 228 255
208 228 255
208 228 255
208 228 255
208 228 255
208 228 255
207 228 255
207 228 255
207 228 255
207 228 255
207 228 255
207 228 255
207 228 255
207 228 255
207 228 255
207 228 255
207 228 255
207 228 255
207 228 255
207 228 255
207 227 255
207 227 255
207 227 255
207 227 255
206 227 255
206 227 255
206 227 255
206 227 255
206 227 255
206 227 255
206 227 255
206 227 255
206 227 255
206 227 255
206 227 255
206 227 255
206 227 255
206 227 255
206 227 255
206 227 255
206 227 255
205 227 255
205 227 255
205 227 255
205 227 255
205 227 255
205 227 255
205 227 255
205 227 255
205 227 255
205 227 255
205 226 255
205 226 255
205 226 255
205 226 255
205 226 255
205 226 255
205 226 255
205 226 255
204 226 255
204 226 255
204 226 255
204 226 255
204 226 255
204 226 255
204 226 255
204 226 255
204 226 255
204 226 255
204 226 255
204 226 255
204 226 255
204 226 255
204 226 255
204 226 255
204 226 255
204 226 255
203 226 255
203 226 255
203 226 255
203 226 255
203 226 255
203 226 255
203 226 255
203 226 255
203 226 255
203 226 255
203 226 255
203 225 255
203 225 255
203 225 255
203 225 255
203 225 255
203 225 255
203 225 255
203 225 255
203 225 255
203 225 255
203 225 255
203 225 255
203 225 255
203 225 255
203 225 255
202 225 255
202 225 255
202 225 255
202 225 255
202 225 255
202 225 255
202 225 255
202 225 255
202 225 255
202 225 255
190 213 247
166 190 231
135 160 212
111 138 200
95 124 191
64 101 181
61 98 180
61 98 178
61 98 180
62 99 180
61 98 179
62 99 181
61 99 181
61 99 180
61 99 179
62 99 180
62 99 179
61 99 178
61 99 181
62 99 181
62 99 181
62 99 180
62 99 180
64 100 181
80 112 186
117 144 203
147 171 219
164 187 230
190 213 247
202 225 255
202 225 255
202 225 255
202 225 255
202 225 255
202 225 255
202 225 255
202 225 255
202 225 255
202 225 255
203 225 255
203 225 255
203 225 255
203 225 255
203 225 255
203 225 255
203 225 255
203 225 255
203 225 255
203 225 255
203 225 255
203 225 255
203 225 255
203 225 255
203 225 255
203 225 255
203 226 255
203 226 255
203 226 255
203 226 255
203 226 255
203 226 255
203 226 255
203 226 255
203 226 255
204 226 255
204 226 255
204 226 255
204 226 255
204 226 255
204 226 255
204 226 255
204 226 255
204 226 255
204 226 255
204 226 255
204 226 255
204 226 255
204 226 255
204 226 255
204 226 255
204 226 255
204 226 255
204 226 255
205 226 255
205 226 255
205 226 255
205 226 255
205 226 255
205 226 255
205 226 255
205 226 255
205 227 255
205 227 255
205 227 255
205 227 255
205 227 255
205 227 255
205 227 255
205 227 255
205 227 255
205 227 255
206 227 255
206 227 255
206 227 255
206 227 255
206 227 255
206 227 255
206 227 255
206 227 255
206 227 255
206 227 255
206 227 255
206 227 255
206 227 255
206 227 255
206 227 255
206 227 255
206 227 255
207 227 255
207 227 255
207 227 255
207 227 255
207 228 255
207 228 255
207 228 255
207 228 255
207 228 255
207 228 255
207 228 255
207 228 255
207 228 255
207 228 255
207 228 255
207 228 255
207 228 255
207 228 255
208 228 255
208 228 255
208 228 255
208 228 255
208 228 255
208 228 255
205 223 244
205 222 242
198 209 212
197 207 207
191 196 180
189 191 166
182 179 131
182 178 127
179 174 114
179 173 114
179 173 114
178 173 114
178 173 114
178 173 114
178 173 114
177 173 114
177 173 114
177 173 114
177 173 114
178 173 114
177 173 114
177 173 114
178 173 114
178 173 114
178 173 114
178 173 114
178 173 114
179 173 114
179 173 114
179 173 114
179 174 114
180 174 114
180 174 114
181 174 114
181 174 114
182 175 114
182 175 116
185 181 133
190 190 160
192 193 169
195 198 183
200 209 209
202 213 218
207 223 241
209 227 251
210 229 255
210 229 255
210 229 255
210 229 255
210 229 255
210 229 255
210 229 255
210 229 255
210 229 255
210 230 255
210 230 255
210 230 255
211 230 255
211 230 255
211 230 255
211 230 255
211 230 255
211 230 255
211 230 255
211 230 255
211 230 255
211 230 255
211 230 255
211 230 255
211 230 255
211 230 255
211 230 255
211 230 255
211 230 255
211 230 255
211 230 255
211 230 255
211 230 255
211 230 255
211 230 255
211 230 255
211 230 255
211 230 255
211 230 255
211 230 255
211 230 255
211 230 255
211 230 255
211 230 255
211 230 255
211 230 255
211 230 255
210 230 255
210 230 255
210 229 255
209 229 253
208 228 250
202 223 234
200 222 227
195 217 207
197 219 221
185 209 181
190 213 193
189 213 194
188 212 189
184 208 169
185 210 181
181 206 155
182 207 171
184 208 169
180 206 155
180 205 149
182 207 157
182 207 169
176 201 120
178 203 144
176 202 135
181 206 155
176 202 133
177 202 128
179 204 144
179 204 147
173 199 122
180 206 161
176 203 135
179 205 153
179 204 147
178 204 149
179 205 159
178 205 157
179 205 151
181 206 157
181 206 159
180 206 159
179 205 155
180 206 161
177 203 133
181 206 163
179 205 151
182 207 171
182 207 167
183 207 163
185 210 182
187 212 193
190 214 201
191 215 206
193 216 211
197 219 223
201 222 233
204 225 246
207 227 253
208 228 255
208 228 255
208 228 255
208 228 255
207 228 255
207 228 255
207 228 255
207 228 255
207 228 255
207 228 255
207 228 255
207 228 255
207 228 255
207 228 255
207 228 255
207 228 255
207 228 255
207 227 255
207 227 255
207 227 255
207 227 255
206 227 255
206 227 255
206 227 255
206 227 255
206 227 255
206 227 255
206 227 255
206 227 255
206 227 255
206 227 255
206 227 255
206 227 255
206 227 255
206 227 255
206 227 255
206 227 255
206 227 255
206 227 255
205 227 255
205 227 255
205 227 255
205 227 255
205 227 255
205 227 255
205 227 255
205 227 255
205 227 255
205 227 255
205 226 255
205 226 255
205 226 255
205 226 255
205 226 255
205 226 255
205 226 255
205 226 255
204 226 255
204 226 255
204 226 255
204 226 255
204 226 255
204 226 255
204 226 255
204 226 255
204 226 255
204 226 255
204 226 255
204 226 255
204 226 255
204 226 255
204 226 255
204 226 255
204 226 255
204 226 255
204 226 255
203 226 255
203 226 255
203 226 255
203 226 255
203 226 255
203 226 255
203 226 255
203 226 255
203 226 255
203 226 255
203 226 255
203 225 255
203 225 255
203 225 255
203 225 255
203 225 255
203 225 255
203 225 255
203 225 255
203 225 255
203 225 255
203 225 255
203 225 255
203 225 255
203 225 255
203 225 255
203 225 255
192 215 248
165 189 231
132 158 211
86 117 187
61 98 180
62 99 180
61 98 179
62 99 180
61 98 177
62 99 180
62 99 178
62 99 180
63 100 181
62 99 179
62 99 178
62 99 178
62 99 179
62 99 179
62 99 179
62 99 178
61 98 176
62 99 181
63 100 180
63 100 181
61 99 180
62 99 178
62 99 178
62 99 179
61 98 177
62 99 181
61 98 179
62 99 181
62 99 178
91 121 191
118 144 201
166 190 231
192 215 248
203 225 255
203 225 255
203 225 255
203 225 255
203 225 255
203 225 255
203 225 255
203 225 255
203 225 255
203 225 255
203 225 255
203 225 255
203 225 255
203 225 255
203 225 255
203 226 255
203 226 255
203 226 255
203 226 255
203 226 255
203 226 255
203 226 255
203 226 255
203 226 255
203 226 255
203 226 255
203 226 255
204 226 255
204 226 255
204 226 255
204 226 255
204 226 255
204 226 255
204 226 255
204 226 255
204 226 255
204 226 255
204 226 255
204 226 255
204 226 255
204 226 255
204 226 255
204 226 255
204 226 255
204 226 255
204 226 255
205 226 255
205 226 255
205 226 255
205 226 255
205 226 255
205 226 255
205 226 255
205 226 255
205 227 255
205 227 255
205 227 255
205 227 255
205 227 255
205 227 255
205 227 255
205 227 255
205 227 255
205 227 255
206 227 255
206 227 255
206 227 255
206 227 255
206 227 255
206 227 255
206 227 255
206 227 255
206 227 255
206 227 255
206 227 255
206 227 255
206 227 255
206 227 255
206 227 255
206 227 255
206 227 255
207 227 255
207 227 255
207 227 255
207 227 255
207 227 255
207 228 255
207 228 255
207 228 255
207 228 255
207 228 255
207 228 255
207 228 255
207 228 255
207 228 255
207 228 255
207 228 255
207 228 255
207 228 255
208 228 255
208 228 255
208 228 255
208 228 255
206 224 247
200 214 223
196 204 200
191 197 183
186 187 156
181 176 123
178 173 114
177 173 114
177 172 114
176 172 114
176 172 114
176 172 114
175 172 114
175 171 114
175 171 114
174 171 114
174 171 114
174 171 114
174 171 114
174 171 114
174 171 114
174 171 114
174 171 114
174 171 114
174 171 114
174 171 114
174 171 114
174 171 114
175 171 114
175 171 114
175 171 114
175 172 114
175 172 114
176 172 114
176 172 114
176 172 114
176 172 114
177 172 114
177 172 114
177 173 114
178 173 114
178 173 114
178 173 114
179 173 114
179 173 114
180 174 114
180 174 114
181 174 114
181 174 114
182 175 114
184 177 121
189 187 151
195 199 184
195 199 183
201 210 212
207 223 242
210 229 253
210 230 255
210 230 255
211 230 255
211 230 255
211 230 255
211 230 255
211 230 255
211 230 255
211 230 255
211 230 255
211 230 255
211 230 255
211 230 255
211 230 255
211 230 255
211 230 255
211 230 255
211 230 255
211 230 255
211 230 255
211 230 255
211 230 255
211 230 255
211 230 255
211 230 255
211 230 255
211 230 255
211 230 255
211 230 255
211 230 255
211 230 255
211 230 255
211 230 255
211 230 255
211 230 255
211 230 255
211 230 255
211 230 255
211 230 255
210 229 254
205 225 244
204 225 238
198 219 217
195 217 209
191 214 194
189 212 184
185 209 175
184 208 175
186 210 175
185 209 175
181 205 153
182 207 167
182 207 163
182 207 161
179 204 140
179 204 149
178 204 140
178 204 135
179 204 144
178 203 147
178 203 142
179 205 147
176 201 120
176 202 133
178 204 142
176 202 122
177 203 137
175 202 133
175 201 125
177 203 142
174 200 108
174 200 114
176 202 133
176 202 140
175 201 125
174 200 111
176 202 122
177 203 137
175 201 120
176 202 130
173 200 111
176 201 120
175 201 130
174 200 122
175 201 125
175 201 114
176 201 133
174 201 120
175 201 120
177 203 142
177 204 153
175 201 122
177 202 140
180 206 157
177 203 137
181 207 167
181 206 161
182 208 171
183 208 175
187 211 179
194 217 214
199 221 233
199 221 226
206 227 252
207 227 252
208 228 255
208 228 255
207 228 255
207 228 255
207 228 255
207 228 255
207 228 255
207 228 255
207 228 255
207 228 255
207 228 255
207 228 255
207 228 255
207 228 255
207 228 255
207 228 255
207 227 255
207 227 255
207 227 255
207 227 255
206 227 255
206 227 255
206 227 255
206 227 255
206 227 255
206 227 255
206 227 255
206 227 255
206 227 255
206 227 255
206 227 255
206 227 255
206 227 255
206 227 255
206 227 255
206 227 255
206 227 255
206 227 255
205 227 255
205 227 255
205 227 255
205 227 255
205 227 255
205 227 255
205 227 255
205 227 255
205 227 255
205 227 255
205 226 255
205 226 255
205 226 255
205 226 255
205 226 255
205 226 255
205 226 255
205 226 255
204 226 255
204 226 255
204 226 255
204 226 255
204 226 255
204 226 255
204 226 255
204 226 255
204 226 255
204 226 255
204 226 255
204 226 255
204 226 255
204 226 255
204 226 255
204 226 255
204 226 255
204 226 255
204 226 255
204 226 255
204 226 255
203 226 255
203 226 255
203 226 255
203 226 255
203 226 255
203 226 255
203 226 255
203 226 255
203 226 255
203 226 255
203 226 255
203 226 255
203 225 255
203 225 255
203 225 255
203 225 255
203 225 255
203 225 255
177 200 238
165 189 231
106 134 196
62 99 180
61 99 180
61 99 180
62 99 180
62 99 179
62 99 178
62 99 180
62 99 176
62 99 180
62 99 181
62 99 175
63 100 180
62 99 178
62 99 180
62 99 178
62 99 179
62 99 179
62 99 176
63 99 179
62 99 181
62 99 177
62 99 179
62 99 181
62 99 179
63 100 180
62 99 179
62 99 178
62 99 179
62 99 178
62 99 177
62 99 176
62 99 180
62 99 180
62 99 178
61 99 181
62 99 181
62 99 181
109 137 198
145 169 217
186 208 244
203 225 255
203 225 255
203 225 255
203 225 255
203 225 255
203 226 255
203 226 255
203 226 255
203 226 255
203 226 255
203 226 255
203 226 255
203 226 255
203 226 255
203 226 255
203 226 255
203 226 255
203 226 255
204 226 255
204 226 255
204 226 255
204 226 255
204 226 255
204 226 255
204 226 255
204 226 255
204 226 255
204 226 255
204 226 255
204 226 255
204 226 255
204 226 255
204 226 255
204 226 255
204 226 255
204 226 255
204 226 255
204 226 255
204 226 255
205 226 255
205 226 255
205 226 255
205 226 255
205 226 255
205 226 255
205 226 255
205 226 255
205 227 255
205 227 255
205 227 255
205 227 255
205 227 255
205 227 255
205 227 255
205 227 255
205 227 255
205 227 255
206 227 255
206 227 255
206 227 255
206 227 255
206 227 255
206 227 255
206 227 255
206 227 255
206 227 255
206 227 255
206 227 255
206 227 255
206 227 255
206 227 255
206 227 255
206 227 255
206 227 255
206 227 255
207 227 255
207 227 255
207 227 255
207 227 255
207 228 255
207 228 255
207 228 255
207 228 255
207 228 255
207 228 255
207 228 255
207 228 255
207 228 255
207 228 255
207 228 255
207 228 255
207 228 255
208 228 255
208 228 255
208 228 255
206 225 249
199 210 216
196 206 206
191 196 180
184 183 146
179 173 114
177 172 114
176 172 114
175 172 114
175 171 114
174 171 114
174 171 114
174 171 114
173 171 114
173 171 114
173 170 114
172 170 114
172 170 114
172 170 114
172 170 114
172 170 114
172 170 114
172 170 114
172 170 114
172 170 114
172 170 114
172 170 114
172 170 114
172 170 114
172 170 114
172 170 114
172 170 114
172 170 114
173 170 114
173 171 114
173 171 114
173 171 114
173 171 114
174 171 114
174 171 114
174 171 114
174 171 114
175 171 114
175 171 114
175 172 114
176 172 114
176 172 114
176 172 114
177 172 114
177 172 114
177 173 114
178 173 114
178 173 114
179 173 114
179 173 114
180 174 114
180 174 114
181 174 114
182 175 114
182 175 114
183 175 114
186 179 127
190 188 155
197 202 191
204 215 223
209 225 246
211 230 255
211 230 255
211 230 255
211 230 255
211 230 255
211 230 255
211 230 255
211 230 255
211 230 255
211 230 255
211 230 255
211 230 255
211 230 255
211 230 255
211 230 255
211 230 255
211 230 255
211 230 255
212 230 255
211 230 255
211 230 255
211 230 255
211 230 255
211 230 255
211 230 255
211 230 255
211 230 255
211 230 255
211 230 255
211 230 255
211 230 255
210 229 253
208 228 248
201 222 230
200 221 226
195 217 209
186 209 177
187 210 181
186 209 179
182 206 161
182 207 161
183 207 167
180 205 149
180 205 142
181 205 144
178 203 142
179 204 144
178 203 130
179 205 149
178 203 135
176 202 133
178 204 144
176 201 117
173 199 102
171 197 95
175 200 120
175 201 117
174 201 125
175 201 120
174 200 111
175 201 125
174 201 122
173 200 114
171 197 80
175 200 102
171 197 80
173 199 105
174 200 117
174 200 105
172 199 108
174 200 120
173 199 117
175 202 130
174 200 117
173 199 117
173 200 122
174 200 114
172 199 99
173 199 111
174 201 125
176 202 133
173 200 117
174 200 105
174 200 105
173 199 102
173 199 105
174 200 111
174 201 125
177 203 137
174 201 128
177 204 149
177 203 140
177 203 142
176 202 133
178 204 147
178 204 151
179 205 151
181 207 165
185 210 186
184 209 177
186 211 189
193 216 212
201 223 238
203 224 241
207 228 255
208 228 255
208 228 255
207 228 255
207 228 255
207 228 255
207 228 255
207 228 255
207 228 255
207 228 255
207 228 255
207 228 255
207 228 255
207 228 255
207 228 255
207 228 255
207 228 255
207 227 255
207 227 255
207 227 255
207 227 255
206 227 255
206 227 255
206 227 255
206 227 255
206 227 255
206 227 255
206 227 255
206 227 255
206 227 255
206 227 255
206 227 255
206 227 255
206 227 255
206 227 255
206 227 255
206 227 255
206 227 255
206 227 255
205 227 255
205 227 255
205 227 255
205 227 255
205 227 255
205 227 255
205 227 255
205 227 255
205 227 255
205 227 255
205 227 255
205 226 255
205 226 255
205 226 255
205 226 255
205 226 255
205 226 255
205 226 255
205 226 255
204 226 255
204 226 255
204 226 255
204 226 255
204 226 255
204 226 255
204 226 255
204 226 255
204 226 255
204 226 255
204 226 255
204 226 255
204 226 255
204 226 255
204 226 255
204 226 255
204 226 255
204 226 255
204 226 255
204 226 255
204 226 255
204 226 255
203 226 255
203 226 255
203 226 255
203 226 255
203 226 255
203 226 255
203 226 255
203 226 255
203 226 255
197 219 251
159 182 226
108 136 199
62 99 179
62 99 178
62 99 180
62 99 179
62 99 180
63 100 179
62 99 180
63 99 175
62 99 178
62 99 178
62 99 180
62 99 175
62 99 179
63 100 181
62 99 176
62 99 180
62 99 177
62 99 178
62 99 179
62 99 180
61 99 179
62 99 180
63 100 179
62 99 179
62 99 179
62 99 179
62 99 178
62 99 178
62 99 177
61 98 176
62 99 176
63 100 180
62 99 176
62 99 179
62 99 177
63 100 181
62 99 178
62 99 178
62 99 179
62 99 180
63 100 181
62 99 179
62 99 176
110 137 199
144 168 216
196 218 250
203 226 255
203 226 255
203 226 255
203 226 255
203 226 255
203 226 255
203 226 255
203 226 255
203 226 255
204 226 255
204 226 255
204 226 255
204 226 255
204 226 255
204 226 255
204 226 255
204 226 255
204 226 255
204 226 255
204 226 255
204 226 255
204 226 255
204 226 255
204 226 255
204 226 255
204 226 255
204 226 255
204 226 255
204 226 255
204 226 255
204 226 255
205 226 255
205 226 255
205 226 255
205 226 255
205 226 255
205 226 255
205 226 255
205 226 255
205 226 255
205 227 255
205 227 255
205 227 255
205 227 255
205 227 255
205 227 255
205 227 255
205 227 255
205 227 255
205 227 255
206 227 255
206 227 255
206 227 255
206 227 255
206 227 255
206 227 255
206 227 255
206 227 255
206 227 255
206 227 255
206 227 255
206 227 255
206 227 255
206 227 255
206 227 255
206 227 255
206 227 255
206 227 255
207 227 255
207 227 255
207 227 255
207 227 255
207 228 255
207 228 255
207 228 255
207 228 255
207 228 255
207 228 255
207 228 255
207 228 255
207 228 255
207 228 255
207 228 255
207 228 255
207 228 255
207 228 255
208 228 255
208 228 255
206 224 247
200 213 223
191 195 178
185 186 153
178 174 116
177 172 114
176 172 114
175 171 114
174 171 114
173 171 114
173 171 114
172 170 114
172 170 114
172 170 114
171 170 114
171 170 114
171 170 114
171 169 114
170 169 114
170 169 114
170 169 114
170 169 114
170 169 114
170 169 114
170 169 114
170 169 114
170 169 114
170 169 114
170 169 114
170 169 114
170 169 114
170 169 114
170 169 114
170 169 114
171 169 114
171 170 114
171 170 114
171 170 114
171 170 114
171 170 114
172 170 114
172 170 114
172 170 114
172 170 114
173 170 114
173 171 114
173 171 114
173 171 114
174 171 114
174 171 114
174 171 114
175 171 114
175 171 114
175 172 114
176 172 114
176 172 114
176 172 114
177 172 114
177 172 114
178 173 114
178 173 114
178 173 114
179 173 114
179 174 114
180 174 114
181 174 114
181 174 114
182 175 114
183 175 114
184 176 114
187 182 135
193 194 169
200 208 206
207 221 235
211 230 255
211 230 255
211 230 255
211 230 255
211 230 255
211 230 255
211 230 255
211 230 255
211 230 255
211 230 255
211 230 255
211 230 255
212 230 255
212 230 255
212 230 255
212 230 255
212 230 255
212 230 255
212 230 255
211 230 255
211 230 255
211 230 255
211 230 255
211 230 255
210 229 252
202 222 226
196 217 214
191 213 196
185 208 165
188 211 188
185 209 171
182 207 157
181 205 155
182 206 155
180 204 147
180 205 147
182 207 161
180 205 157
177 202 122
175 201 125
176 201 117
177 202 135
176 201 128
178 203 142
172 198 111
176 202 128
177 202 137
176 202 122
172 198 102
176 201 122
174 200 102
174 199 102
173 200 117
172 199 108
173 199 102
174 200 108
174 200 114
172 198 95
173 200 114
175 201 120
172 199 111
173 200 114
172 198 92
172 199 111
172 198 95
173 200 114
170 197 80
172 199 105
172 198 99
172 198 88
173 199 102
173 199 105
173 199 105
171 198 95
172 198 99
173 199 92
172 198 95
172 199 105
171 197 99
171 198 92
173 199 108
173 200 122
174 201 130
172 199 99
173 200 117
172 199 108
173 200 111
173 200 114
174 200 108
173 200 120
175 201 111
173 200 114
175 202 135
176 202 130
178 204 142
178 204 151
178 204 142
181 207 167
180 206 161
184 209 182
187 211 186
195 218 220
199 221 233
206 227 252
207 228 254
208 228 255
208 228 255
207 228 255
207 228 255
207 228 255
207 228 255
207 228 255
207 228 255
207 228 255
207 228 255
207 228 255
207 228 255
207 228 255
207 228 255
207 228 255
207 227 255
207 227 255
207 227 255
207 227 255
207 227 255
206 227 255
206 227 255
206 227 255
206 227 255
206 227 255
206 227 255
206 227 255
206 227 255
206 227 255
206 227 255
206 227 255
206 227 255
206 227 255
206 227 255
206 227 255
206 227 255
206 227 255
206 227 255
205 227 255
205 227 255
205 227 255
205 227 255
205 227 255
205 227 255
205 227 255
205 227 255
205 227 255
205 227 255
205 227 255
205 226 255
205 226 255
205 226 255
205 226 255
205 226 255
205 226 255
205 226 255
205 226 255
204 226 255
204 226 255
204 226 255
204 226 255
204 226 255
204 226 255
204 226 255
204 226 255
204 226 255
204 226 255
204 226 255
204 226 255
204 226 255
204 226 255
204 226 255
204 226 255
204 226 255
204 226 255
204 226 255
204 226 255
204 226 255
204 226 255
204 226 255
204 226 255
204 226 255
180 203 239
126 152 207
64 101 181
62 99 181
62 99 178
62 99 177
62 99 177
62 99 178
62 99 176
63 99 180
62 99 178
62 99 176
63 99 179
63 100 178
63 100 180
63 100 180
63 100 180
62 99 176
62 99 177
61 99 178
63 99 178
62 99 175
62 99 175
62 99 176
63 100 178
62 99 175
62 99 175
62 99 177
63 100 178
63 100 179
62 99 177
62 99 176
63 100 179
63 100 179
62 98 172
63 100 178
63 99 177
62 99 180
62 99 179
63 100 179
62 99 177
63 99 176
62 99 176
62 99 180
62 99 180
62 99 179
62 99 180
62 99 179
62 99 179
62 99 180
62 99 180
139 163 214
171 194 234
204 226 255
204 226 255
204 226 255
204 226 255
204 226 255
204 226 255
204 226 255
204 226 255
204 226 255
204 226 255
204 226 255
204 226 255
204 226 255
204 226 255
204 226 255
204 226 255
204 226 255
204 226 255
204 226 255
204 226 255
204 226 255
204 226 255
204 226 255
204 226 255
204 226 255
205 226 255
205 226 255
205 226 255
205 226 255
205 226 255
205 226 255
205 226 255
205 226 255
205 227 255
205 227 255
205 227 255
205 227 255
205 227 255
205 227 255
205 227 255
205 227 255
205 227 255
205 227 255
205 227 255
206 227 255
206 227 255
206 227 255
206 227 255
206 227 255
206 227 255
206 227 255
206 227 255
206 227 255
206 227 255
206 227 255
206 227 255
206 227 255
206 227 255
206 227 255
206 227 255
206 227 255
206 227 255
207 227 255
207 227 255
207 227 255
207 227 255
207 228 255
207 228 255
207 228 255
207 228 255
207 228 255
207 228 255
207 228 255
207 228 255
207 228 255
207 228 255
207 228 255
207 228 255
207 228 255
207 228 255
208 228 255
208 228 255
207 226 251
200 214 224
194 202 195
186 188 158
178 173 114
176 172 114
175 172 114
174 171 114
173 171 114
173 170 114
172 170 114
171 170 114
171 170 114
171 169 114
170 169 114
170 169 114
170 169 114
169 169 114
169 169 114
169 169 114
169 169 114
169 169 114
169 169 114
168 169 114
168 169 114
168 169 114
168 169 114
168 169 114
168 169 114
168 169 114
168 169 114
169 169 114
169 169 114
169 169 114
169 169 114
169 169 114
169 169 114
169 169 114
169 169 114
170 169 114
170 169 114
170 169 114
170 169 114
170 169 114
170 169 114
171 170 114
171 170 114
171 170 114
171 170 114
172 170 114
172 170 114
172 170 114
172 170 114
173 170 114
173 171 114
173 171 114
174 171 114
174 171 114
174 171 114
175 171 114
175 171 114
175 172 114
176 172 114
176 172 114
176 172 114
177 172 114
177 173 114
178 173 114
178 173 114
179 173 114
179 173 114
180 174 114
180 174 114
181 174 114
182 175 114
182 175 114
183 175 114
184 176 114
189 184 139
196 200 184
204 215 221
210 228 250
211 230 255
211 230 255
211 230 255
211 230 255
212 230 255
212 230 255
212 230 255
212 230 255
212 230 255
212 230 255
212 230 255
212 230 255
212 230 255
212 230 255
212 230 255
212 230 255
211 230 255
209 228 249
203 223 234
193 215 203
191 213 193
186 209 182
184 207 173
185 210 173
183 207 155
182 206 169
180 205 147
181 205 153
180 205 144
180 204 144
179 204 142
176 202 130
176 201 130
180 205 147
177 203 140
177 203 133
175 201 122
176 201 114
176 202 125
173 199 105
174 200 117
174 200 105
174 201 117
170 196 88
174 200 122
174 199 108
171 198 92
172 198 102
174 200 105
172 197 88
173 199 108
171 198 99
173 199 95
172 198 88
170 196 84
173 199 95
171 197 92
173 199 102
174 200 114
171 197 76
173 198 67
170 197 72
173 199 95
171 198 88
173 199 95
170 197 80
172 198 92
174 200 122
172 199 95
171 197 76
173 199 92
170 196 51
171 197 76
171 197 84
172 198 88
171 198 95
170 197 92
172 198 99
173 199 92
173 200 120
174 201 125
170 197 80
173 199 111
171 198 88
170 197 99
172 198 92
172 199 108
174 201 122
172 199 102
172 198 95
175 201 137
175 201 122
173 200 120
175 201 133
177 204 153
178 204 153
177 203 147
180 206 159
181 206 159
184 209 179
190 214 204
193 216 209
203 224 241
207 228 254
208 228 255
208 228 255
208 228 255
207 228 255
207 228 255
207 228 255
207 228 255
207 228 255
207 228 255
207 228 255
207 228 255
207 228 255
207 228 255
207 228 255
207 228 255
207 228 255
207 227 255
207 227 255
207 227 255
207 227 255
207 227 255
206 227 255
206 227 255
206 227 255
206 227 255
206 227 255
206 227 255
206 227 255
206 227 255
206 227 255
206 227 255
206 227 255
206 227 255
206 227 255
206 227 255
206 227 255
206 227 255
206 227 255
206 227 255
205 227 255
205 227 255
205 227 255
205 227 255
205 227 255
205 227 255
205 227 255
205 227 255
205 227 255
205 227 255
205 227 255
205 227 255
205 226 255
205 226 255
205 226 255
205 226 255
205 226 255
205 226 255
205 226 255
205 226 255
204 226 255
204 226 255
204 226 255
204 226 255
204 226 255
204 226 255
204 226 255
204 226 255
204 226 255
204 226 255
204 226 255
204 226 255
204 226 255
204 226 255
204 226 255
204 226 255
204 226 255
204 226 255
176 199 236
118 145 201
62 99 181
62 99 178
62 99 180
62 99 180
62 99 176
61 98 177
63 100 178
62 99 176
63 100 177
62 99 178
62 99 177
62 99 175
62 99 180
62 99 180
63 99 175
62 99 177
63 100 180
62 99 174
63 100 175
63 99 175
63 100 176
62 99 176
62 99 178
63 100 181
62 99 174
62 98 174
62 99 175
62 99 174
63 100 179
63 99 177
63 100 176
63 99 178
63 99 178
62 99 179
62 99 178
62 99 178
62 99 178
62 99 178
62 99 177
62 99 177
63 99 178
62 99 176
63 99 176
62 99 176
62 99 177
62 99 177
62 99 178
62 99 176
62 99 177
62 99 178
63 100 181
62 99 181
62 99 179
103 131 193
168 191 232
203 225 255
204 226 255
204 226 255
204 226 255
204 226 255
204 226 255
204 226 255
204 226 255
204 226 255
204 226 255
204 226 255
204 226 255
204 226 255
204 226 255
204 226 255
204 226 255
204 226 255
204 226 255
205 226 255
205 226 255
205 226 255
205 226 255
205 226 255
205 226 255
205 226 255
205 226 255
205 227 255
205 227 255
205 227 255
205 227 255
205 227 255
205 227 255
205 227 255
205 227 255
205 227 255
205 227 255
205 227 255
205 227 255
206 227 255
206 227 255
206 227 255
206 227 255
206 227 255
206 227 255
206 227 255
206 227 255
206 227 255
206 227 255
206 227 255
206 227 255
206 227 255
206 227 255
206 227 255
206 227 255
206 227 255
206 227 255
207 227 255
207 227 255
207 227 255
207 227 255
207 227 255
207 228 255
207 228 255
207 228 255
207 228 255
207 228 255
207 228 255
207 228 255
207 228 255
207 228 255
207 228 255
207 228 255
207 228 255
207 228 255
208 228 255
208 228 255
208 228 255
205 223 244
198 210 214
190 194 175
183 182 142
176 172 114
175 172 114
174 171 114
173 171 114
172 170 114
171 170 114
171 170 114
170 169 114
170 169 114
169 169 114
169 169 114
169 169 114
168 169 114
168 168 114
168 168 114
168 168 114
168 168 114
167 168 114
167 168 114
167 168 114
167 168 114
167 168 114
167 168 114
167 168 114
167 168 114
167 168 114
167 168 114
167 168 114
167 168 114
167 168 114
168 168 114
168 168 114
168 168 114
168 168 114
168 168 114
168 168 114
168 168 114
168 169 114
169 169 114
169 169 114
169 169 114
169 169 114
169 169 114
170 169 114
170 169 114
170 169 114
170 169 114
170 169 114
171 170 114
171 170 114
171 170 114
172 170 114
172 170 114
172 170 114
172 170 114
173 170 114
173 171 114
173 171 114
174 171 114
174 171 114
174 171 114
175 171 114
175 171 114
175 172 114
176 172 114
176 172 114
176 172 114
177 172 114
177 173 114
178 173 114
178 173 114
179 173 114
179 173 114
180 174 114
180 174 114
181 174 114
181 174 114
182 175 114
183 175 114
184 176 114
186 178 121
192 190 158
202 210 208
209 224 242
212 230 255
212 230 255
212 230 255
212 230 255
212 230 255
212 230 255
212 230 255
212 230 255
212 230 255
212 230 255
211 230 254
205 225 240
199 220 221
196 218 211
190 213 188
187 210 182
184 208 163
184 208 169
180 205 151
181 205 153
180 206 151
179 204 144
179 204 153
176 202 128
179 204 140
176 202 125
177 202 122
175 201 114
175 200 102
176 201 125
175 201 133
177 202 128
176 201 122
173 199 108
174 200 111
173 199 108
175 201 117
175 200 108
172 198 108
173 199 99
173 199 102
173 199 99
174 200 105
172 198 88
175 200 102
174 199 95
172 198 95
171 197 80
171 198 92
170 197 80
172 198 92
172 198 95
173 199 95
171 197 76
171 198 105
172 199 102
172 198 84
171 198 99
173 199 102
172 198 80
171 198 84
171 198 88
171 198 84
171 197 88
173 199 92
172 198 88
171 197 76
172 199 117
171 198 95
171 198 80
172 198 92
172 198 92
171 198 105
173 199 105
172 199 108
171 197 76
171 197 76
172 199 99
171 197 80
172 198 95
170 197 76
173 199 108
172 199 95
171 198 102
171 198 99
172 198 95
172 199 105
171 198 95
172 199 114
174 201 122
174 200 117
173 199 111
174 201 125
170 197 88
174 201 130
174 200 111
177 203 137
178 204 151
179 205 153
182 207 165
189 213 194
194 217 217
202 223 238
207 228 255
208 228 255
208 228 255
208 228 255
208 228 255
207 228 255
207 228 255
207 228 255
207 228 255
207 228 255
207 228 255
207 228 255
207 228 255
207 228 255
207 228 255
207 228 255
207 228 255
207 228 255
207 227 255
207 227 255
207 227 255
207 227 255
207 227 255
206 227 255
206 227 255
206 227 255
206 227 255
206 227 255
206 227 255
206 227 255
206 227 255
206 227 255
206 227 255
206 227 255
206 227 255
206 227 255
206 227 255
206 227 255
206 227 255
206 227 255
206 227 255
206 227 255
205 227 255
205 227 255
205 227 255
205 227 255
205 227 255
205 227 255
205 227 255
205 227 255
205 227 255
205 227 255
205 227 255
205 227 255
205 226 255
205 226 255
205 226 255
205 226 255
205 226 255
205 226 255
205 226 255
205 226 255
205 226 255
204 226 255
204 226 255
204 226 255
204 226 255
204 226 255
204 226 255
204 226 255
204 226 255
204 226 255
204 226 255
165 188 230
109 136 199
62 99 180
62 99 176
62 99 177
61 98 172
63 100 180
62 99 177
62 99 178
63 100 178
62 99 175
62 99 178
62 99 175
62 99 180
63 100 176
63 100 179
62 99 178
63 100 179
62 99 178
62 99 175
62 99 174
63 99 176
63 99 174
62 99 176
62 99 177
63 100 177
63 99 176
62 99 176
62 99 172
63 100 177
62 99 180
63 100 178
63 100 181
63 99 177
62 99 179
63 100 178
63 100 177
63 100 175
63 99 174
62 99 179
62 99 174
63 99 177
62 99 174
63 100 178
63 99 177
63 99 177
62 99 176
62 99 178
62 99 173
62 99 179
62 99 178
62 99 174
62 98 172
63 100 180
62 99 180
63 100 179
62 99 175
62 99 177
62 99 176
99 128 194
174 197 234
204 226 255
204 226 255
204 226 255
204 226 255
204 226 255
204 226 255
204 226 255
204 226 255
204 226 255
204 226 255
205 226 255
205 226 255
205 226 255
205 226 255
205 226 255
205 226 255
205 226 255
205 226 255
205 226 255
205 227 255
205 227 255
205 227 255
205 227 255
205 227 255
205 227 255
205 227 255
205 227 255
205 227 255
205 227 255
205 227 255
205 227 255
205 227 255
206 227 255
206 227 255
206 227 255
206 227 255
206 227 255
206 227 255
206 227 255
206 227 255
206 227 255
206 227 255
206 227 255
206 227 255
206 227 255
206 227 255
206 227 255
206 227 255
206 227 255
206 227 255
207 227 255
207 227 255
207 227 255
207 227 255
207 227 255
207 228 255
207 228 255
207 228 255
207 228 255
207 228 255
207 228 255
207 228 255
207 228 255
207 228 255
207 228 255
207 228 255
207 228 255
207 228 255
208 228 255
208 228 255
208 228 255
208 228 255
207 227 252
198 209 212
189 194 175
178 173 114
176 172 114
175 171 114
173 171 114
172 170 114
171 170 114
171 170 114
170 169 114
170 169 114
169 169 114
169 169 114
168 168 114
168 168 114
167 168 114
167 168 114
167 168 114
167 168 114
167 168 114
166 168 114
166 168 114
166 168 114
166 168 114
166 167 114
166 167 114
166 167 114
166 167 114
166 167 114
166 167 114
166 167 114
166 168 114
166 168 114
166 168 114
166 168 114
166 168 114
167 168 114
167 168 114
167 168 114
167 168 114
167 168 114
167 168 114
167 168 114
168 168 114
168 168 114
168 168 114
168 168 114
168 169 114
169 169 114
169 169 114
169 169 114
169 169 114
169 169 114
170 169 114
170 169 114
170 169 114
170 169 114
171 170 114
171 170 114
171 170 114
172 170 114
172 170 114
172 170 114
172 170 114
173 170 114
173 171 114
173 171 114
174 171 114
174 171 114
174 171 114
175 171 114
175 172 114
175 172 114
176 172 114
176 172 114
177 172 114
177 172 114
177 173 114
178 173 114
178 173 114
179 173 114
179 174 114
180 174 114
180 174 114
181 174 114
182 175 114
183 175 114
183 175 114
184 176 114
185 176 114
192 190 156
202 209 207
208 222 237
212 230 255
212 230 255
212 230 255
212 230 255
212 230 254
207 226 238
200 220 224
196 217 211
187 210 181
186 208 177
187 210 177
184 208 171
181 205 149
182 206 151
182 206 155
180 205 137
178 203 128
178 203 140
175 200 114
178 203 142
176 201 120
175 200 111
178 203 135
176 200 108
174 200 111
173 199 99
174 200 102
174 200 105
172 198 105
174 199 99
172 198 99
173 199 92
171 197 72
173 199 105
174 201 125
173 199 108
174 200 102
172 198 95
173 200 114
171 197 84
170 196 80
171 197 72
170 196 76
169 196 80
172 199 102
171 197 80
171 198 92
169 196 72
171 198 84
172 199 92
169 195 72
172 198 102
172 199 102
171 197 76
170 197 67
172 198 76
170 197 80
170 196 72
170 197 76
170 197 92
171 197 84
171 197 84
171 198 99
171 197 95
170 197 72
171 197 92
171 197 80
171 197 95
171 197 88
169 196 62
170 197 80
170 197 84
171 198 95
171 198 88
170 197 80
171 198 84
172 199 102
170 197 88
170 197 88
170 196 62
171 198 92
169 196 80
173 199 99
172 198 105
171 198 102
170 198 102
173 200 111
172 200 120
173 199 105
174 200 114
172 198 108
172 199 105
173 200 117
174 201 128
173 199 105
177 204 149
177 203 137
178 204 151
181 206 159
180 206 163
186 211 184
195 218 218
203 225 244
207 228 254
208 228 255
208 228 255
208 228 255
208 228 255
208 228 255
207 228 255
207 228 255
207 228 255
207 228 255
207 228 255
207 228 255
207 228 255
207 228 255
207 228 255
207 228 255
207 228 255
207 228 255
207 228 255
207 227 255
207 227 255
207 227 255
207 227 255
207 227 255
206 227 255
206 227 255
206 227 255
206 227 255
206 227 255
206 227 255
206 227 255
206 227 255
206 227 255
206 227 255
206 227 255
206 227 255
206 227 255
206 227 255
206 227 255
206 227 255
206 227 255
206 227 255
206 227 255
205 227 255
205 227 255
205 227 255
205 227 255
205 227 255
205 227 255
205 227 255
205 227 255
205 227 255
205 227 255
205 227 255
205 227 255
205 227 255
205 226 255
205 226 255
205 226 255
205 226 255
205 226 255
205 226 255
205 226 255
205 226 255
205 226 255
205 226 255
205 226 255
204 226 255
176 199 237
117 144 202
62 99 179
62 99 179
62 99 174
62 99 176
62 99 174
63 100 178
62 99 177
63 99 177
62 99 176
62 99 176
62 99 176
63 100 178
63 99 175
62 99 178
62 99 177
62 99 177
62 99 176
62 99 175
62 99 175
62 99 175
62 99 176
62 99 174
62 99 174
63 99 175
63 100 178
62 99 176
63 100 176
62 99 177
63 99 179
63 99 175
63 100 175
64 100 177
62 99 177
62 99 175
63 100 177
64 100 177
63 99 177
63 100 174
62 99 179
63 100 179
63 100 180
63 99 176
63 100 179
63 99 176
63 99 177
63 100 177
62 99 180
62 99 178
63 100 180
62 99 175
63 100 180
63 99 176
62 99 171
63 99 178
62 99 176
63 100 177
62 99 178
62 99 179
62 99 176
62 99 179
62 99 178
120 146 202
185 207 242
204 226 255
205 226 255
205 226 255
205 226 255
205 226 255
205 226 255
205 226 255
205 226 255
205 226 255
205 226 255
205 226 255
205 227 255
205 227 255
205 227 255
205 227 255
205 227 255
205 227 255
205 227 255
205 227 255
205 227 255
205 227 255
205 227 255
205 227 255
205 227 255
205 227 255
206 227 255
206 227 255
206 227 255
206 227 255
206 227 255
206 227 255
206 227 255
206 227 255
206 227 255
206 227 255
206 227 255
206 227 255
206 227 255
206 227 255
206 227 255
206 227 255
206 227 255
206 227 255
206 227 255
207 227 255
207 227 255
207 227 255
207 227 255
207 228 255
207 228 255
207 228 255
207 228 255
207 228 255
207 228 255
207 228 255
207 228 255
207 228 255
207 228 255
207 228 255
207 228 255
207 228 255
207 228 255
208 228 255
208 228 255
208 228 255
208 228 255
208 228 255
207 227 252
198 208 211
188 190 165
179 175 121
176 172 114
174 171 114
173 171 114
172 170 114
171 170 114
170 169 114
170 169 114
169 169 114
168 169 114
168 168 114
167 168 114
167 168 114
167 168 114
166 168 114
166 167 114
166 167 114
166 167 114
166 167 114
166 167 114
165 167 114
165 167 114
165 167 114
165 167 114
165 167 114
165 167 114
165 167 114
165 167 114
165 167 114
165 167 114
165 167 114
165 167 114
165 167 114
165 167 114
166 167 114
166 167 114
166 167 114
166 167 114
166 167 114
166 168 114
166 168 114
166 168 114
167 168 114
167 168 114
167 168 114
167 168 114
167 168 114
168 168 114
168 168 114
168 168 114
168 168 114
168 169 114
169 169 114
169 169 114
169 169 114
169 169 114
170 169 114
170 169 114
170 169 114
170 169 114
171 170 114
171 170 114
171 170 114
172 170 114
172 170 114
172 170 114
172 170 114
173 170 114
173 171 114
173 171 114
174 171 114
174 171 114
174 171 114
175 171 114
175 172 114
175 172 114
176 172 114
176 172 114
177 172 114
177 172 114
177 173 114
178 173 114
178 173 114
179 173 114
179 173 114
180 174 114
180 174 114
181 174 114
181 174 114
182 175 114
183 175 114
184 176 114
184 176 114
186 176 114
193 192 163
202 210 209
210 226 246
212 230 255
195 216 207
189 212 182
188 211 177
189 212 184
185 209 171
177 201 133
178 203 147
181 205 147
180 204 140
177 202 142
179 205 149
180 205 149
180 204 140
177 202 120
174 199 111
175 200 105
175 200 120
175 200 105
174 199 117
176 202 128
174 200 128
174 199 95
174 200 102
173 199 99
174 200 117
172 198 80
171 198 92
172 198 95
172 198 95
171 197 76
173 198 76
171 197 84
173 199 111
174 200 102
172 198 84
170 196 62
172 198 88
169 195 67
170 197 76
170 197 80
173 199 108
171 198 102
171 197 76
172 197 72
170 197 67
169 195 72
170 196 57
169 196 72
171 197 67
171 197 76
172 199 95
171 197 84
172 199 105
171 198 102
171 197 76
171 197 80
170 197 67
171 197 84
170 196 51
170 196 72
171 198 95
170 196 57
170 197 88
170 196 67
170 197 84
171 197 67
169 196 72
171 198 102
173 199 102
171 197 76
169 196 72
170 197 88
170 196 67
170 196 57
170 197 72
170 197 80
170 197 76
171 197 80
171 197 80
170 197 72
170 197 67
173 200 117
170 197 88
170 197 76
170 197 95
173 199 108
173 200 111
172 199 105
170 197 84
172 199 102
173 199 108
174 201 125
175 202 133
175 201 117
172 198 108
178 204 151
180 205 153
179 205 153
185 210 182
189 213 199
199 221 231
206 227 250
208 228 255
208 228 255
208 228 255
208 228 255
208 228 255
208 228 255
208 228 255
207 228 255
207 228 255
207 228 255
207 228 255
207 228 255
207 228 255
207 228 255
207 228 255
207 228 255
207 228 255
207 228 255
207 228 255
207 228 255
207 228 255
207 227 255
207 227 255
207 227 255
207 227 255
207 227 255
206 227 255
206 227 255
206 227 255
206 227 255
206 227 255
206 227 255
206 227 255
206 227 255
206 227 255
206 227 255
206 227 255
206 227 255
206 227 255
206 227 255
206 227 255
206 227 255
206 227 255
206 227 255
206 227 255
205 227 255
205 227 255
205 227 255
205 227 255
205 227 255
205 227 255
205 227 255
205 227 255
205 227 255
205 227 255
205 227 255
205 227 255
205 227 255
205 227 255
205 226 255
205 226 255
205 226 255
205 226 255
191 213 246
139 163 213
65 101 179
62 99 179
62 99 176
62 99 178
63 99 176
63 99 175
62 99 177
63 100 178
62 99 175
62 99 178
62 99 177
63 100 176
63 100 177
63 100 175
63 100 180
63 100 178
63 99 173
64 101 180
63 100 179
63 99 175
63 99 176
62 99 169
62 99 171
63 99 172
62 99 171
63 99 175
64 100 175
62 99 170
63 99 174
63 100 178
63 99 173
62 99 175
63 99 173
62 99 175
62 99 179
62 99 176
63 99 176
63 100 174
63 99 176
62 99 176
63 99 177
63 100 172
63 99 175
63 99 174
62 99 176
62 99 177
63 99 174
62 99 173
62 99 178
63 100 178
63 99 174
63 99 177
63 99 176
62 99 179
63 99 177
63 100 178
62 99 177
63 100 178
62 98 175
63 100 180
62 99 180
61 98 173
61 98 177
62 99 177
62 99 178
138 163 214
195 217 248
205 226 255
205 226 255
205 226 255
205 226 255
205 227 255
205 227 255
205 227 255
205 227 255
205 227 255
205 227 255
205 227 255
205 227 255
205 227 255
205 227 255
205 227 255
205 227 255
205 227 255
205 227 255
206 227 255
206 227 255
206 227 255
206 227 255
206 227 255
206 227 255
206 227 255
206 227 255
206 227 255
206 227 255
206 227 255
206 227 255
206 227 255
206 227 255
206 227 255
206 227 255
206 227 255
206 227 255
206 227 255
206 227 255
207 227 255
207 227 255
207 227 255
207 227 255
207 228 255
207 228 255
207 228 255
207 228 255
207 228 255
207 228 255
207 228 255
207 228 255
207 228 255
207 228 255
207 228 255
207 228 255
207 228 255
207 228 255
208 228 255
208 228 255
208 228 255
208 228 255
208 228 255
208 228 255
208 228 255
205 221 241
194 201 194
181 178 131
176 172 114
175 171 114
173 171 114
172 170 114
171 170 114
170 169 114
169 169 114
169 169 114
168 168 114
167 168 114
167 168 114
167 168 114
166 168 114
166 167 114
166 167 114
165 167 114
165 167 114
165 167 114
165 167 114
165 167 114
165 167 114
164 167 114
164 167 114
164 167 114
164 167 114
164 167 114
164 167 114
164 167 114
164 167 114
164 167 114
164 167 114
164 167 114
165 167 114
165 167 114
165 167 114
165 167 114
165 167 114
165 167 114
165 167 114
165 167 114
165 167 114
166 167 114
166 167 114
166 167 114
166 168 114
166 168 114
167 168 114
167 168 114
167 168 114
167 168 114
167 168 114
168 168 114
168 168 114
168 168 114
168 168 114
168 169 114
169 169 114
169 169 114
169 169 114
169 169 114
170 169 114
170 169 114
170 169 114
170 169 114
171 170 114
171 170 114
171 170 114
172 170 114
172 170 114
172 170 114
173 170 114
173 171 114
173 171 114
173 171 114
174 171 114
174 171 114
174 171 114
175 171 114
175 172 114
176 172 114
176 172 114
176 172 114
177 172 114
177 172 114
177 173 114
178 173 114
178 173 114
179 173 114
179 173 114
180 174 114
180 174 114
181 174 114
181 174 114
182 175 114
183 175 114
183 175 114
184 176 114
185 176 114
187 179 121
198 200 184
185 207 171
187 210 179
180 204 149
185 209 173
180 205 151
181 205 155
176 200 142
182 207 157
177 202 125
177 202 122
179 203 135
176 201 122
176 201 125
175 201 125
173 198 105
174 199 99
174 200 108
174 200 133
174 200 114
175 201 120
174 199 108
172 197 76
172 198 88
172 198 88
171 198 99
172 198 88
172 198 99
172 199 105
172 198 72
173 198 92
170 196 84
172 197 99
171 197 67
171 198 84
170 196 76
172 198 92
172 198 95
170 196 76
172 198 80
170 197 76
172 198 92
171 197 76
171 197 57
171 197 62
171 197 62
169 196 57
171 198 84
169 197 80
172 198 80
171 197 80
171 197 80
169 195 57
171 197 76
171 197 67
172 198 80
169 196 57
170 196 62
168 195 51
169 196 72
170 196 76
172 198 84
171 197 72
171 197 80
171 197 76
171 197 62
169 196 62
170 197 76
170 196 67
170 197 80
170 196 57
169 196 44
169 195 67
171 197 76
171 197 76
171 197 62
171 197 80
171 198 84
170 196 84
171 198 105
171 197 80
170 197 80
170 197 76
169 196 72
171 197 88
170 196 67
168 195 51
171 198 99
172 198 99
172 198 102
170 197 84
171 197 95
172 198 102
171 197 80
175 202 137
172 199 102
173 200 122
174 201 128
175 201 117
177 203 142
179 205 153
181 207 165
184 209 173
195 218 215
204 225 241
208 228 255
208 228 255
208 228 255
208 228 255
208 228 255
208 228 255
208 228 255
208 228 255
208 228 255
207 228 255
207 228 255
207 228 255
207 228 255
207 228 255
207 228 255
207 228 255
207 228 255
207 228 255
207 228 255
207 228 255
207 228 255
207 228 255
207 228 255
207 227 255
207 227 255
207 227 255
207 227 255
207 227 255
206 227 255
206 227 255
206 227 255
206 227 255
206 227 255
206 227 255
206 227 255
206 227 255
206 227 255
206 227 255
206 227 255
206 227 255
206 227 255
206 227 255
206 227 255
206 227 255
206 227 255
206 227 255
206 227 255
206 227 255
206 227 255
205 227 255
205 227 255
205 227 255
205 227 255
205 227 255
205 227 255
205 227 255
205 227 255
205 227 255
205 227 255
205 227 255
159 182 225
83 115 185
62 99 178
62 99 176
62 99 177
63 100 176
62 99 177
62 99 175
63 99 176
63 100 177
63 100 175
63 100 177
63 99 177
63 100 174
63 99 177
63 100 180
62 99 174
62 99 175
63 100 177
63 99 175
63 100 175
62 99 175
62 99 175
63 100 178
63 100 176
63 100 174
63 100 175
63 99 171
63 100 173
63 99 174
63 99 174
63 99 175
63 100 177
62 99 173
62 99 176
63 100 174
63 100 177
62 99 171
62 99 171
63 100 175
63 99 170
62 99 169
62 99 169
63 99 174
63 100 178
62 99 176
63 100 176
63 100 171
63 100 176
62 99 174
63 99 172
63 100 180
62 99 174
63 100 178
62 99 174
63 99 176
62 99 175
62 99 175
62 99 173
63 99 177
62 99 176
61 98 171
63 100 175
63 99 179
62 99 176
62 99 176
62 99 177
62 99 178
62 99 178
80 112 182
160 183 225
205 227 255
205 227 255
205 227 255
205 227 255
205 227 255
205 227 255
205 227 255
205 227 255
205 227 255
205 227 255
205 227 255
206 227 255
206 227 255
206 227 255
206 227 255
206 227 255
206 227 255
206 227 255
206 227 255
206 227 255
206 227 255
206 227 255
206 227 255
206 227 255
206 227 255
206 227 255
206 227 255
206 227 255
206 227 255
206 227 255
206 227 255
206 227 255
207 227 255
207 227 255
207 227 255
207 227 255
207 227 255
207 228 255
207 228 255
207 228 255
207 228 255
207 228 255
207 228 255
207 228 255
207 228 255
207 228 255
207 228 255
207 228 255
207 228 255
207 228 255
207 228 255
208 228 255
208 228 255
208 228 255
208 228 255
208 228 255
208 228 255
208 228 255
208 228 255
207 226 251
200 213 221
187 189 161
177 173 114
175 172 114
173 171 114
172 170 114
171 170 114
170 169 114
169 169 114
169 169 114
168 168 114
167 168 114
167 168 114
166 168 114
166 167 114
165 167 114
165 167 114
165 167 114
165 167 114
164 167 114
164 167 114
164 167 114
164 167 114
164 167 114
164 166 114
164 166 114
164 166 114
164 166 114
164 166 114
164 166 114
164 166 114
164 166 114
164 166 114
164 166 114
164 166 114
164 166 114
164 167 114
164 167 114
164 167 114
164 167 114
164 167 114
165 167 114
165 167 114
165 167 114
165 167 114
165 167 114
165 167 114
165 167 114
166 167 114
166 167 114
166 167 114
166 167 114
166 168 114
167 168 114
167 168 114
167 168 114
167 168 114
167 168 114
168 168 114
168 168 114
168 168 114
168 168 114
169 169 114
169 169 114
169 169 114
169 169 114
170 169 114
170 169 114
170 169 114
170 169 114
171 170 114
171 170 114
171 170 114
172 170 114
172 170 114
172 170 114
172 170 114
173 170 114
173 171 114
173 171 114
174 171 114
174 171 114
174 171 114
175 171 114
175 172 114
175 172 114
176 172 114
176 172 114
176 172 114
177 172 114
177 173 114
178 173 114
178 173 114
178 173 114
179 173 114
179 174 114
180 174 114
180 174 114
181 174 114
181 174 114
182 175 114
183 175 114
183 175 114
184 176 114
185 176 114
183 207 165
182 206 151
180 204 144
181 205 157
174 199 114
176 201 120
175 200 128
177 203 140
176 202 133
175 201 122
172 198 105
175 200 102
175 201 114
177 202 122
172 198 108
176 201 125
172 198 92
173 199 99
175 200 99
172 198 102
171 197 57
171 197 88
171 197 84
173 199 102
171 196 92
169 196 67
172 198 76
172 198 92
171 197 62
171 197 76
171 196 72
171 197 57
172 198 99
171 196 72
172 198 92
170 196 76
170 196 51
170 197 76
170 197 67
170 196 80
169 195 51
170 197 67
170 196 67
171 197 76
172 198 80
171 197 80
171 197 84
170 196 62
170 196 51
171 197 80
170 196 62
170 197 76
170 196 57
170 196 62
169 195 36
170 197 72
171 197 76
170 196 57
169 196 57
170 196 51
170 197 80
170 196 72
169 195 36
169 196 57
172 197 72
168 195 67
171 197 84
170 197 72
170 197 72
169 195 67
170 197 76
169 196 62
170 196 57
169 195 51
170 197 72
170 197 72
171 197 72
170 197 67
170 196 67
169 196 57
170 197 84
169 196 72
170 196 67
171 197 76
171 197 80
170 196 51
170 197 92
171 197 88
171 197 80
172 199 105
172 199 108
172 198 80
172 198 88
170 197 88
171 197 88
172 199 108
174 200 108
173 199 105
174 200 108
175 201 117
176 202 133
180 206 161
180 206 155
182 207 165
193 216 211
202 223 237
208 228 254
208 228 255
208 228 255
208 228 255
208 228 255
208 228 255
208 228 255
208 228 255
208 228 255
208 228 255
208 228 255
207 228 255
207 228 255
207 228 255
207 228 255
207 228 255
207 228 255
207 228 255
207 228 255
207 228 255
207 228 255
207 228 255
207 228 255
207 228 255
207 228 255
207 228 255
207 227 255
207 227 255
207 227 255
207 227 255
206 227 255
206 227 255
206 227 255
206 227 255
206 227 255
206 227 255
206 227 255
206 227 255
206 227 255
206 227 255
206 227 255
206 227 255
206 227 255
206 227 255
206 227 255
206 227 255
206 227 255
206 227 255
206 227 255
206 227 255
206 227 255
206 227 255
206 227 255
205 227 255
205 227 255
205 227 255
198 219 250
112 139 197
62 99 176
62 99 179
62 99 172
63 99 176
63 99 175
62 99 178
63 100 178
62 99 175
63 99 175
62 99 172
63 99 175
63 100 180
63 100 177
62 99 176
63 100 179
63 100 178
62 99 173
63 99 175
62 99 175
63 99 172
63 99 173
63 100 175
63 99 173
63 100 178
63 100 175
62 99 173
63 99 174
62 99 172
63 99 172
62 99 169
63 99 173
63 100 176
62 98 166
63 99 176
63 99 173
62 99 169
63 100 173
63 100 174
62 99 171
62 99 173
63 99 172
63 99 173
62 99 172
63 100 176
63 99 173
63 100 174
63 99 171
63 100 176
63 100 175
62 99 173
63 99 174
63 100 177
63 99 176
63 100 177
62 98 167
62 99 177
63 100 177
62 99 170
63 99 173
63 100 179
62 99 174
63 100 178
62 99 178
63 100 177
62 99 176
63 99 175
62 99 177
63 99 176
63 99 175
63 100 177
61 98 174
112 139 196
195 216 248
205 227 255
205 227 255
205 227 255
206 227 255
206 227 255
206 227 255
206 227 255
206 227 255
206 227 255
206 227 255
206 227 255
206 227 255
206 227 255
206 227 255
206 227 255
206 227 255
206 227 255
206 227 255
206 227 255
206 227 255
206 227 255
206 227 255
206 227 255
206 227 255
206 227 255
207 227 255
207 227 255
207 227 255
207 227 255
207 227 255
207 228 255
207 228 255
207 228 255
207 228 255
207 228 255
207 228 255
207 228 255
207 228 255
207 228 255
207 228 255
207 228 255
207 228 255
207 228 255
207 228 255
207 228 255
208 228 255
208 228 255
208 228 255
208 228 255
208 228 255
208 228 255
208 228 255
208 228 255
208 228 255
208 228 255
206 223 245
195 203 196
181 177 125
176 172 114
174 171 114
173 171 114
171 170 114
170 169 114
170 169 114
169 169 114
168 168 114
167 168 114
167 168 114
166 167 114
166 167 114
165 167 114
165 167 114
165 167 114
164 167 114
164 167 114
164 167 114
164 166 114
164 166 114
163 166 114
163 166 114
163 166 114
163 166 114
163 166 114
163 166 114
163 166 114
163 166 114
163 166 114
163 166 114
163 166 114
163 166 114
163 166 114
163 166 114
163 166 114
163 166 114
164 166 114
164 166 114
164 166 114
164 166 114
164 167 114
164 167 114
164 167 114
164 167 114
165 167 114
165 167 114
165 167 114
165 167 114
165 167 114
165 167 114
166 167 114
166 167 114
166 167 114
166 168 114
166 168 114
167 168 114
167 168 114
167 168 114
167 168 114
168 168 114
168 168 114
168 168 114
168 168 114
169 169 114
169 169 114
169 169 114
169 169 114
170 169 114
170 169 114
170 169 114
170 169 114
171 170 114
171 170 114
171 170 114
172 170 114
172 170 114
172 170 114
172 170 114
173 170 114
173 171 114
173 171 114
174 171 114
174 171 114
174 171 114
175 171 114
175 171 114
175 172 114
176 172 114
176 172 114
176 172 114
177 172 114
177 172 114
177 173 114
178 173 114
178 173 114
179 173 114
179 173 114
180 174 114
180 174 114
180 174 114
181 174 114
182 175 114
182 175 114
183 175 114
183 175 114
178 203 133
180 204 135
175 199 120
174 199 111
177 202 133
177 202 128
175 200 114
174 199 99
172 198 117
173 198 111
172 198 95
176 201 133
175 201 125
173 198 99
171 197 99
173 199 88
174 200 108
173 199 99
172 198 88
174 200 108
170 196 67
173 199 88
172 198 92
173 198 88
173 199 92
169 195 67
171 197 44
170 197 80
170 196 76
169 195 72
171 197 57
173 200 105
171 197 72
171 197 80
170 196 80
171 197 80
170 196 51
169 196 62
173 198 67
172 198 72
169 195 67
170 196 51
169 195 62
170 196 51
171 197 62
171 197 76
172 199 95
170 196 44
171 197 67
170 196 62
170 196 57
170 196 76
170 196 62
170 196 57
168 194 51
170 196 67
170 196 57
170 197 84
171 197 76
169 195 57
170 196 44
170 197 76
172 198 84
169 196 67
170 197 72
169 195 57
170 196 57
170 196 51
170 196 72
170 196 44
171 197 72
170 196 44
171 196 51
171 197 72
169 196 57
170 196 67
170 195 44
171 197 67
171 197 76
170 197 84
171 197 72
169 195 67
170 196 51
170 196 57
170 196 62
171 197 76
170 196 67
170 197 76
169 196 72
170 197 80
170 197 88
169 196 62
172 198 99
170 197 80
172 198 102
174 200 111
171 198 84
173 199 108
174 200 114
174 200 108
173 199 102
174 200 117
178 204 144
177 203 144
179 204 151
180 206 161
189 213 194
199 221 228
208 228 255
208 228 255
208 228 255
208 228 255
208 228 255
208 228 255
208 228 255
208 228 255
208 228 255
208 228 255
208 228 255
208 228 255
208 228 255
208 228 255
207 228 255
207 228 255
207 228 255
207 228 255
207 228 255
207 228 255
207 228 255
207 228 255
207 228 255
207 228 255
207 228 255
207 228 255
207 228 255
207 228 255
207 227 255
207 227 255
207 227 255
207 227 255
207 227 255
207 227 255
206 227 255
206 227 255
206 227 255
206 227 255
206 227 255
206 227 255
206 227 255
206 227 255
206 227 255
206 227 255
206 227 255
206 227 255
206 227 255
206 227 255
206 227 255
206 227 255
206 227 255
206 227 255
206 227 255
166 189 228
79 111 182
63 100 178
63 100 180
62 99 176
63 100 179
62 99 170
63 100 173
62 99 172
64 100 177
62 99 169
63 99 177
63 99 172
63 99 175
63 99 175
63 100 174
63 100 175
63 99 175
62 99 174
62 99 175
63 99 171
63 99 175
62 99 174
63 99 175
62 98 170
63 99 175
63 100 174
63 99 175
63 100 181
62 99 173
62 98 168
62 99 170
63 99 172
63 99 172
63 99 176
63 99 178
63 99 170
62 99 170
63 100 175
62 99 171
63 99 171
63 100 175
62 99 172
62 99 174
63 99 174
63 100 175
62 99 175
63 100 177
62 99 171
63 99 174
63 99 175
63 100 180
62 99 174
63 99 172
62 99 174
63 100 177
63 100 175
63 100 174
63 99 174
62 99 174
62 99 171
62 99 173
63 99 171
63 99 172
63 100 175
62 99 171
63 99 176
63 99 175
63 100 177
63 100 177
62 98 174
62 99 179
62 99 180
62 99 174
62 99 178
77 110 182
161 183 226
206 227 255
206 227 255
206 227 255
206 227 255
206 227 255
206 227 255
206 227 255
206 227 255
206 227 255
206 227 255
206 227 255
206 227 255
206 227 255
206 227 255
206 227 255
206 227 255
206 227 255
206 227 255
206 227 255
207 227 255
207 227 255
207 227 255
207 227 255
207 227 255
207 228 255
207 228 255
207 228 255
207 228 255
207 228 255
207 228 255
207 228 255
207 228 255
207 228 255
207 228 255
207 228 255
207 228 255
207 228 255
207 228 255
207 228 255
208 228 255
208 228 255
208 228 255
208 228 255
208 228 255
208 228 255
208 228 255
208 228 255
208 228 255
208 228 255
208 228 255
208 228 255
208 228 255
205 222 242
193 200 190
180 177 127
176 172 114
174 171 114
172 170 114
171 170 114
170 169 114
169 169 114
168 168 114
167 168 114
167 168 114
166 168 114
166 167 114
165 167 114
165 167 114
165 167 114
164 167 114
164 167 114
164 166 114
163 166 114
163 166 114
163 166 114
163 166 114
163 166 114
163 166 114
163 166 114
163 166 114
163 166 114
163 166 114
163 166 114
163 166 114
163 166 114
163 166 114
163 166 114
163 166 114
163 166 114
163 166 114
163 166 114
163 166 114
163 166 114
163 166 114
163 166 114
163 166 114
164 166 114
164 166 114
164 167 114
164 167 114
164 167 114
164 167 114
165 167 114
165 167 114
165 167 114
165 167 114
165 167 114
165 167 114
166 167 114
166 167 114
166 167 114
166 168 114
167 168 114
167 168 114
167 168 114
167 168 114
167 168 114
168 168 114
168 168 114
168 168 114
168 169 114
169 169 114
169 169 114
169 169 114
169 169 114
170 169 114
170 169 114
170 169 114
170 169 114
171 170 114
171 170 114
171 170 114
172 170 114
172 170 114
172 170 114
172 170 114
173 170 114
173 171 114
173 171 114
174 171 114
174 171 114
174 171 114
175 171 114
175 171 114
175 172 114
176 172 114
176 172 114
176 172 114
177 172 114
177 172 114
177 173 114
178 173 114
178 173 114
179 173 114
179 173 114
179 174 114
180 174 114
180 174 114
181 174 114
181 174 114
182 175 114
182 175 114
178 203 140
177 202 133
176 200 130
177 202 130
175 201 120
175 200 114
175 200 120
175 201 120
173 199 102
175 201 105
174 200 105
174 200 102
172 198 105
173 198 84
174 199 84
172 197 76
171 197 67
173 198 95
171 197 102
172 198 88
171 197 72
172 198 95
169 195 57
173 199 92
171 198 80
171 197 67
173 199 114
170 196 57
170 196 80
171 197 76
171 197 84
171 197 92
171 197 72
170 197 72
170 197 62
171 197 57
169 195 51
171 197 72
169 195 62
170 196 62
171 197 72
169 196 44
171 197 67
172 198 80
168 194 62
170 196 76
169 196 62
170 196 57
171 197 72
170 196 57
170 197 67
170 197 72
169 196 62
170 196 51
169 196 57
169 195 51
170 196 67
170 196 44
170 196 57
169 195 51
169 196 67
169 196 62
170 196 67
172 197 76
169 196 72
171 196 51
169 196 62
169 196 67
169 196 72
169 196 57
170 196 67
170 196 57
169 195 51
170 196 67
169 195 25
168 195 36
170 196 72
169 196 72
170 197 67
170 196 72
171 197 80
170 196 44
169 196 67
170 197 72
170 196 72
169 196 67
170 196 67
171 197 99
170 196 62
170 196 67
170 197 80
170 197 76
171 198 99
171 197 72
170 197 84
171 198 105
169 196 72
171 198 92
172 199 99
172 198 84
172 198 88
173 200 114
174 200 114
175 202 133
174 200 125
176 202 133
177 203 144
184 209 171
189 214 203
200 222 236
206 227 250
208 228 255
208 228 255
208 228 255
208 228 255
208 228 255
208 228 255
208 228 255
208 228 255
208 228 255
208 228 255
208 228 255
208 228 255
208 228 255
208 228 255
208 228 255
207 228 255
207 228 255
207 228 255
207 228 255
207 228 255
207 228 255
207 228 255
207 228 255
207 228 255
207 228 255
207 228 255
207 228 255
207 228 255
207 228 255
207 228 255
207 228 255
207 227 255
207 227 255
207 227 255
207 227 255
207 227 255
206 227 255
206 227 255
206 227 255
206 227 255
206 227 255
206 227 255
206 227 255
206 227 255
206 227 255
206 227 255
206 227 255
206 227 255
204 225 254
140 164 211
63 99 177
62 99 174
62 99 172
62 99 173
62 99 177
63 99 176
63 99 173
63 100 174
62 99 172
63 100 177
63 99 179
64 101 177
63 99 172
63 99 170
64 100 178
62 98 167
62 99 173
63 99 175
62 99 169
62 99 174
63 100 175
62 99 173
62 99 171
63 99 171
64 100 171
63 99 173
63 100 178
63 99 175
64 100 177
63 99 174
63 99 172
63 100 172
63 99 172
63 100 174
64 100 177
63 100 172
63 99 172
63 100 172
63 99 173
63 99 175
63 99 171
64 100 177
62 99 169
63 100 176
64 100 173
64 100 175
63 100 176
63 100 177
64 100 175
64 100 177
63 99 177
63 100 174
62 99 172
62 99 167
63 100 176
63 100 178
63 99 173
63 100 174
63 99 173
63 100 179
64 100 177
63 100 176
63 100 179
63 99 170
63 99 173
63 100 175
63 99 175
63 99 173
63 100 176
63 100 175
62 98 168
62 99 174
63 99 176
63 99 173
63 100 178
62 99 174
62 98 174
143 166 213
202 223 253
206 227 255
206 227 255
206 227 255
206 227 255
206 227 255
206 227 255
206 227 255
206 227 255
206 227 255
206 227 255
206 227 255
206 227 255
207 227 255
207 227 255
207 227 255
207 227 255
207 227 255
207 228 255
207 228 255
207 228 255
207 228 255
207 228 255
207 228 255
207 228 255
207 228 255
207 228 255
207 228 255
207 228 255
207 228 255
207 228 255
207 228 255
207 228 255
208 228 255
208 228 255
208 228 255
208 228 255
208 228 255
208 228 255
208 228 255
208 228 255
208 228 255
208 228 255
208 228 255
208 228 255
208 228 255
208 228 255
208 228 255
208 228 255
205 221 240
189 192 168
178 173 114
175 172 114
174 171 114
172 170 114
171 170 114
170 169 114
169 169 114
168 168 114
167 168 114
167 168 114
166 167 114
165 167 114
165 167 114
165 167 114
164 167 114
164 167 114
164 166 114
163 166 114
163 166 114
163 166 114
163 166 114
163 166 114
163 166 114
162 166 114
162 166 114
162 166 114
162 166 114
162 166 114
162 166 114
162 166 114
162 166 114
162 166 114
162 166 114
162 166 114
162 166 114
162 166 114
163 166 114
163 166 114
163 166 114
163 166 114
163 166 114
163 166 114
163 166 114
163 166 114
163 166 114
164 166 114
164 166 114
164 167 114
164 167 114
164 167 114
164 167 114
165 167 114
165 167 114
165 167 114
165 167 114
165 167 114
166 167 114
166 167 114
166 167 114
166 168 114
166 168 114
167 168 114
167 168 114
167 168 114
167 168 114
168 168 114
168 168 114
168 168 114
168 168 114
169 169 114
169 169 114
169 169 114
169 169 114
170 169 114
170 169 114
170 169 114
170 169 114
171 170 114
171 170 114
171 170 114
171 170 114
172 170 114
172 170 114
172 170 114
173 170 114
173 171 114
173 171 114
173 171 114
174 171 114
174 171 114
174 171 114
175 171 114
175 172 114
175 172 114
176 172 114
176 172 114
176 172 114
177 172 114
177 172 114
177 173 114
178 173 114
178 173 114
179 173 114
179 173 114
179 174 114
180 174 114
180 174 114
181 174 114
181 174 114
181 175 114
175 200 128
177 203 128
177 202 133
172 197 108
172 197 95
176 201 120
173 199 99
175 200 105
174 200 114
172 196 105
171 197 95
172 197 72
171 197 92
174 200 102
174 199 102
170 196 80
173 199 95
171 196 72
172 198 84
172 197 88
171 196 62
172 198 84
173 199 92
168 194 44
171 197 76
170 196 80
170 196 51
170 196 57
171 197 51
172 198 76
170 195 62
171 196 67
169 195 62
170 196 72
171 196 62
169 195 72
170 195 72
171 196 51
171 197 84
170 196 62
172 197 67
172 198 76
170 197 72
168 195 36
169 195 72
170 196 51
172 198 76
169 196 67
169 195 51
170 197 76
170 196 51
172 198 88
171 197 67
170 196 51
170 197 67
170 196 44
169 195 44
171 197 72
171 197 72
170 196 57
170 196 44
169 196 51
170 196 62
170 197 76
171 197 76
170 196 36
170 196 62
171 197 62
170 197 80
170 196 51
169 195 44
171 197 76
170 196 62
171 197 62
168 195 44
170 197 62
170 196 57
170 196 72
170 196 67
169 196 76
169 196 62
170 197 67
170 197 84
168 195 62
171 197 67
170 196 62
170 196 67
169 196 76
170 197 72
170 196 67
170 197 72
171 198 92
170 197 72
170 197 76
170 196 67
171 198 84
172 199 95
170 196 62
170 197 72
170 197 95
171 197 67
171 197 76
172 198 84
172 198 95
173 200 120
174 200 108
174 200 114
177 204 147
177 203 137
180 206 155
185 209 169
198 221 228
208 228 253
208 228 255
208 228 255
208 228 255
208 228 255
208 228 255
208 228 255
208 228 255
208 228 255
208 228 255
208 228 255
208 228 255
208 228 255
208 228 255
208 228 255
208 228 255
208 228 255
208 228 255
208 228 255
207 228 255
207 228 255
207 228 255
207 228 255
207 228 255
207 228 255
207 228 255
207 228 255
207 228 255
207 228 255
207 228 255
207 228 255
207 228 255
207 228 255
207 228 255
207 228 255
207 227 255
207 227 255
207 227 255
207 227 255
207 227 255
207 227 255
206 227 255
206 227 255
206 227 255
206 227 255
206 227 255
192 213 246
110 137 198
63 100 179
62 99 180
63 99 175
62 99 174
63 99 174
62 98 171
63 100 174
63 99 171
63 99 175
62 99 170
64 100 175
62 98 165
63 99 175
63 99 169
63 100 176
63 100 171
62 99 174
63 99 172
62 98 165
63 100 171
64 100 169
63 99 172
63 100 172
63 100 173
63 99 173
63 99 170
62 98 166
63 100 171
62 98 160
63 100 176
63 99 171
63 99 172
63 99 176
63 99 170
63 99 171
63 100 172
63 99 172
62 99 172
63 99 172
62 98 168
63 100 174
63 100 174
63 100 172
62 98 169
63 99 173
63 99 172
63 100 176
63 99 173
63 99 170
63 99 169
63 100 177
62 99 170
64 100 177
63 100 175
63 99 169
63 100 177
62 99 166
63 99 170
63 99 168
63 99 174
63 99 175
63 100 176
63 100 172
62 99 172
63 100 175
63 99 174
63 100 174
64 100 176
63 99 170
62 99 173
62 99 172
63 99 175
63 100 175
63 100 174
62 99 175
63 100 176
63 99 173
63 99 177
62 99 178
102 129 188
190 211 244
206 227 255
206 227 255
206 227 255
206 227 255
206 227 255
207 227 255
207 227 255
207 227 255
207 227 255
207 227 255
207 227 255
207 228 255
207 228 255
207 228 255
207 228 255
207 228 255
207 228 255
207 228 255
207 228 255
207 228 255
207 228 255
207 228 255
207 228 255
207 228 255
207 228 255
207 228 255
207 228 255
208 228 255
208 228 255
208 228 255
208 228 255
208 228 255
208 228 255
208 228 255
208 228 255
208 228 255
208 228 255
208 228 255
208 228 255
208 228 255
208 228 255
208 228 255
208 228 255
208 228 255
208 228 255
206 224 246
191 195 177
180 175 121
176 172 114
174 171 114
172 170 114
171 170 114
170 169 114
169 169 114
168 168 114
167 168 114
166 168 114
166 167 114
165 167 114
165 167 114
164 167 114
164 167 114
164 166 114
163 166 114
163 166 114
163 166 114
163 166 114
163 166 114
162 166 114
162 166 114
162 166 114
162 166 114
162 166 114
162 166 114
162 166 114
162 166 114
162 166 114
162 166 114
162 166 114
162 166 114
162 166 114
162 166 114
162 166 114
162 166 114
162 166 114
162 166 114
162 166 114
163 166 114
163 166 114
163 166 114
163 166 114
163 166 114
163 166 114
163 166 114
164 166 114
164 166 114
164 166 114
164 167 114
164 167 114
164 167 114
165 167 114
165 167 114
165 167 114
165 167 114
165 167 114
166 167 114
166 167 114
166 167 114
166 168 114
166 168 114
167 168 114
167 168 114
167 168 114
167 168 114
168 168 114
168 168 114
168 168 114
168 168 114
169 169 114
169 169 114
169 169 114
169 169 114
170 169 114
170 169 114
170 169 114
170 169 114
171 169 114
171 170 114
171 170 114
171 170 114
172 170 114
172 170 114
172 170 114
172 170 114
173 170 114
173 171 114
173 171 114
174 171 114
174 171 114
174 171 114
175 171 114
175 171 114
175 172 114
175 172 114
176 172 114
176 172 114
176 172 114
177 172 114
177 172 114
177 173 114
178 173 114
178 173 114
179 173 114
179 173 114
179 173 114
180 174 114
180 174 114
181 174 114
181 174 114
175 200 108
174 199 102
174 200 105
174 199 99
170 196 88
176 202 120
171 196 92
171 197 88
173 199 95
170 195 84
172 198 92
169 195 95
172 198 95
170 196 84
171 197 72
173 198 80
171 197 67
169 195 62
170 196 51
173 198 95
170 196 51
170 195 62
174 199 92
171 197 80
170 196 72
169 195 62
171 196 72
169 194 44
168 195 67
171 197 72
171 197 67
168 194 57
171 197 57
171 197 84
170 197 67
171 196 51
169 195 76
171 197 72
170 196 62
172 197 72
170 196 57
170 196 62
169 196 51
171 196 51
170 196 36
170 196 62
170 196 67
171 196 57
170 195 57
170 196 57
170 197 62
170 196 62
170 196 67
169 195 44
170 196 51
170 197 67
169 195 62
170 196 72
170 196 72
170 196 51
169 196 57
171 197 67
168 195 25
170 196 57
170 196 57
171 197 57
170 196 57
171 197 76
169 196 51
168 195 57
169 196 67
170 196 51
169 195 44
170 195 36
171 196 62
169 195 44
170 196 51
169 196 62
169 195 57
170 197 76
169 196 44
170 196 62
170 196 57
169 196 62
169 195 62
169 196 72
169 196 51
170 196 67
170 196 62
168 195 51
170 196 62
171 197 76
170 197 80
169 196 62
170 197 80
171 198 84
170 196 57
170 196 67
170 196 57
172 198 95
171 197 92
171 198 99
171 198 92
170 197 80
171 197 88
171 198 105
173 200 117
173 199 108
176 202 128
177 203 137
177 203 135
180 205 155
191 214 201
201 223 237
208 228 254
209 228 255
208 228 255
208 228 255
208 228 255
208 228 255
208 228 255
208 228 255
208 228 255
208 228 255
208 228 255
208 228 255
208 228 255
208 228 255
208 228 255
208 228 255
208 228 255
208 228 255
208 228 255
208 228 255
208 228 255
208 228 255
207 228 255
207 228 255
207 228 255
207 228 255
207 228 255
207 228 255
207 228 255
207 228 255
207 228 255
207 228 255
207 228 255
207 228 255
207 228 255
207 228 255
207 228 255
207 228 255
207 228 255
207 227 255
207 227 255
207 227 255
207 227 255
179 201 236
81 113 183
62 99 176
62 99 172
63 100 180
63 100 176
62 99 172
63 99 170
63 99 176
63 100 176
63 99 174
62 99 174
63 100 176
63 100 174
63 99 173
63 99 170
62 99 170
63 100 174
62 99 172
62 99 172
63 100 174
63 99 170
62 99 171
63 100 173
63 99 170
63 100 172
63 99 170
63 99 171
63 100 173
63 100 176
63 99 172
62 99 170
62 99 168
63 99 169
64 100 172
63 99 171
63 99 172
63 99 176
63 99 172
63 99 169
63 100 169
63 100 172
63 99 170
63 100 174
63 100 174
63 100 175
63 100 175
63 99 170
63 99 173
63 100 175
62 99 171
63 100 172
63 99 170
63 99 170
63 99 172
63 100 173
63 99 169
64 100 174
63 100 175
63 100 171
62 99 175
63 100 175
63 100 172
63 100 175
63 100 175
62 99 172
63 99 172
62 99 169
63 100 174
64 100 175
63 99 168
63 99 176
63 100 174
63 99 176
63 99 174
63 99 173
63 99 173
63 99 175
63 100 177
62 99 176
63 99 172
63 99 169
63 99 174
86 116 182
187 208 241
207 227 255
207 227 255
207 227 255
207 227 255
207 228 255
207 228 255
207 228 255
207 228 255
207 228 255
207 228 255
207 228 255
207 228 255
207 228 255
207 228 255
207 228 255
207 228 255
207 228 255
207 228 255
207 228 255
207 228 255
207 228 255
208 228 255
208 228 255
208 228 255
208 228 255
208 228 255
208 228 255
208 228 255
208 228 255
208 228 255
208 228 255
208 228 255
208 228 255
208 228 255
208 228 255
208 228 255
208 228 255
208 228 255
208 228 255
208 228 255
208 228 255
209 228 255
207 225 248
195 203 198
181 178 129
176 172 114
174 171 114
172 170 114
171 170 114
170 169 114
169 169 114
168 168 114
167 168 114
166 168 114
166 167 114
165 167 114
165 167 114
164 167 114
164 167 114
164 166 114
163 166 114
163 166 114
163 166 114
163 166 114
162 166 114
162 166 114
162 166 114
162 166 114
162 166 114
162 166 114
162 166 114
162 166 114
162 166 114
162 166 114
162 166 114
162 166 114
162 166 114
162 166 114
162 166 114
162 166 114
162 166 114
162 166 114
162 166 114
162 166 114
162 166 114
162 166 114
163 166 114
163 166 114
163 166 114
163 166 114
163 166 114
163 166 114
163 166 114
164 166 114
164 166 114
164 167 114
164 167 114
164 167 114
164 167 114
165 167 114
165 167 114
165 167 114
165 167 114
165 167 114
166 167 114
166 167 114
166 167 114
166 168 114
166 168 114
167 168 114
167 168 114
167 168 114
167 168 114
168 168 114
168 168 114
168 168 114
168 168 114
169 169 114
169 169 114
169 169 114
169 169 114
170 169 114
170 169 114
170 169 114
170 169 114
171 169 114
171 170 114
171 170 114
171 170 114
172 170 114
172 170 114
172 170 114
172 170 114
173 170 114
173 171 114
173 171 114
174 171 114
174 171 114
174 171 114
174 171 114
175 171 114
175 172 114
175 172 114
176 172 114
176 172 114
176 172 114
177 172 114
177 172 114
177 173 114
178 173 114
178 173 114
178 173 114
179 173 114
179 173 114
179 174 114
180 174 114
180 174 114
181 174 114
173 198 111
171 196 95
174 199 102
174 200 120
174 199 99
172 197 76
171 197 92
172 198 84
171 197 88
170 196 84
170 196 76
171 196 72
172 197 102
172 198 80
168 194 51
171 197 62
171 197 76
168 194 36
172 198 80
169 195 51
172 198 88
171 197 72
173 198 92
170 196 80
169 195 44
166 192 36
171 196 76
170 196 67
170 195 51
171 196 57
170 196 67
171 196 67
170 196 76
169 195 67
168 195 72
170 197 80
171 197 67
169 195 44
168 194 72
170 196 67
170 196 57
171 197 88
169 195 36
171 197 88
170 196 57
168 195 44
170 196 62
170 196 57
171 197 44
170 196 80
170 197 67
170 196 51
170 196 57
170 196 62
170 196 67
170 196 44
170 195 44
169 196 67
171 196 51
168 193 36
170 196 57
170 196 62
170 197 72
169 195 44
170 196 67
171 197 62
171 197 62
169 195 57
169 195 36
170 196 57
171 196 36
169 195 36
168 195 62
168 195 44
170 196 57
168 195 25
170 196 62
170 196 36
170 196 44
170 196 67
169 196 62
170 196 44
171 197 72
171 197 72
170 196 62
169 196 57
171 197 62
169 195 62
169 196 62
169 196 57
170 197 72
170 197 67
169 195 72
168 195 36
171 197 72
170 197 72
170 197 72
169 196 76
170 196 67
170 197 67
171 197 84
171 197 80
171 197 76
172 198 95
171 197 72
171 197 80
171 198 84
172 199 95
173 199 111
175 202 133
174 200 120
177 203 133
178 204 151
183 208 175
188 212 194
202 224 238
209 229 255
209 229 255
209 229 255
209 228 255
208 228 255
208 228 255
208 228 255
208 228 255
208 228 255
208 228 255
208 228 255
208 228 255
208 228 255
208 228 255
208 228 255
208 228 255
208 228 255
208 228 255
208 228 255
208 228 255
208 228 255
208 228 255
208 228 255
208 228 255
208 228 255
208 228 255
207 228 255
207 228 255
207 228 255
207 228 255
207 228 255
207 228 255
207 228 255
207 228 255
207 228 255
207 228 255
207 228 255
207 228 255
207 228 255
207 228 255
164 186 226
74 108 182
62 99 174
63 100 176
63 100 175
62 99 173
63 99 172
63 100 174
63 99 174
62 99 170
62 99 169
63 99 175
63 99 170
63 99 174
63 100 176
63 99 170
63 99 171
63 100 174
63 100 174
63 100 176
64 100 177
63 100 176
63 99 169
63 100 175
63 100 174
62 99 172
64 100 173
64 100 174
63 99 171
63 99 169
63 100 169
63 100 173
63 99 169
63 99 168
62 98 163
62 98 162
64 100 172
63 99 170
64 100 171
62 99 167
63 99 170
62 99 168
62 98 161
62 99 170
63 100 171
62 99 169
63 100 175
63 100 172
63 100 171
63 99 168
63 99 166
63 100 172
63 99 172
63 99 171
64 100 175
63 99 170
63 99 171
63 99 171
62 99 171
63 99 172
63 100 172
64 100 175
63 99 166
63 100 174
63 99 170
63 100 174
63 99 172
63 99 171
63 100 175
64 100 175
63 99 168
63 100 175
62 99 171
63 100 176
62 99 173
62 99 170
62 99 171
62 99 173
63 99 173
63 99 170
62 98 166
62 99 175
62 98 172
62 98 169
63 100 177
65 101 176
165 187 226
207 228 255
207 228 255
207 228 255
207 228 255
207 228 255
207 228 255
207 228 255
207 228 255
207 228 255
207 228 255
207 228 255
207 228 255
207 228 255
207 228 255
208 228 255
208 228 255
208 228 255
208 228 255
208 228 255
208 228 255
208 228 255
208 228 255
208 228 255
208 228 255
208 228 255
208 228 255
208 228 255
208 228 255
208 228 255
208 228 255
208 228 255
208 228 255
208 228 255
208 228 255
208 228 255
209 228 255
209 228 255
209 229 255
209 229 255
209 229 255
197 207 206
183 181 139
177 172 114
174 171 114
173 170 114
171 170 114
170 169 114
169 169 114
168 168 114
167 168 114
167 168 114
166 167 114
165 167 114
165 167 114
164 167 114
164 167 114
164 166 114
163 166 114
163 166 114
163 166 114
162 166 114
162 166 114
162 166 114
162 166 114
162 166 114
162 166 114
162 166 114
162 165 114
162 165 114
162 165 114
162 165 114
162 165 114
162 165 114
162 165 114
162 165 114
162 166 114
162 166 114
162 166 114
162 166 114
162 166 114
162 166 114
162 166 114
162 166 114
162 166 114
162 166 114
163 166 114
163 166 114
163 166 114
163 166 114
163 166 114
163 166 114
163 166 114
164 166 114
164 166 114
164 167 114
164 167 114
164 167 114
165 167 114
165 167 114
165 167 114
165 167 114
165 167 114
166 167 114
166 167 114
166 167 114
166 168 114
166 168 114
167 168 114
167 168 114
167 168 114
167 168 114
167 168 114
168 168 114
168 168 114
168 168 114
168 169 114
169 169 114
169 169 114
169 169 114
169 169 114
170 169 114
170 169 114
170 169 114
170 169 114
171 170 114
171 170 114
171 170 114
171 170 114
172 170 114
172 170 114
172 170 114
172 170 114
173 170 114
173 171 114
173 171 114
174 171 114
174 171 114
174 171 114
174 171 114
175 171 114
175 171 114
175 172 114
176 172 114
176 172 114
176 172 114
176 172 114
177 172 114
177 172 114
177 173 114
178 173 114
178 173 114
178 173 114
179 173 114
179 173 114
179 174 114
180 174 114
180 174 114
174 199 117
172 198 105
173 198 99
173 198 95
175 200 114
172 197 92
170 195 76
172 197 88
174 199 84
172 198 88
171 197 76
170 197 62
172 198 102
172 198 84
173 198 76
171 197 80
174 199 80
172 198 80
173 198 84
171 196 57
171 197 88
171 197 76
171 197 76
171 197 62
169 196 76
171 197 76
171 197 80
172 198 88
171 197 72
170 196 84
170 197 67
171 197 57
171 196 44
170 196 76
168 194 25
171 197 80
171 197 51
170 196 51
170 196 67
169 195 36
169 196 62
171 197 80
170 196 67
170 195 44
171 197 62
170 196 51
169 195 57
167 193 0
169 196 44
168 194 51
170 196 72
170 196 57
169 196 51
170 197 72
168 194 51
169 195 57
169 195 51
170 196 62
169 195 36
171 197 67
171 197 62
171 197 72
170 197 62
170 196 67
170 196 36
170 196 44
170 196 62
169 196 62
168 195 25
171 197 72
170 196 67
168 195 62
169 195 67
170 196 57
168 195 44
170 196 62
169 196 44
169 196 51
171 197 76
170 197 72
170 196 67
169 196 62
169 196 62
170 196 57
170 196 62
170 196 51
168 195 44
170 197 80
170 196 57
170 197 102
169 196 62
169 195 44
169 195 44
168 195 51
169 196 67
169 196 67
170 197 80
170 196 51
169 196 44
169 196 57
169 196 62
171 198 102
170 196 76
170 196 67
171 198 92
170 196 80
170 197 88
171 198 84
170 197 76
172 198 99
174 200 108
175 201 122
175 201 120
176 202 125
177 203 142
183 208 167
195 218 212
206 226 246
209 229 255
209 229 255
209 229 255
209 229 255
209 229 255
209 229 255
209 228 255
208 228 255
208 228 255
208 228 255
208 228 255
208 228 255
208 228 255
208 228 255
208 228 255
208 228 255
208 228 255
208 228 255
208 228 255
208 228 255
208 228 255
208 228 255
208 228 255
208 228 255
208 228 255
208 228 255
208 228 255
208 228 255
208 228 255
208 228 255
207 228 255
207 228 255
207 228 255
207 228 255
207 228 255
207 228 255
207 228 255
162 184 223
66 102 177
63 99 175
63 100 177
63 99 173
62 99 174
62 99 171
63 100 174
63 99 170
64 100 175
63 99 173
63 100 174
63 99 169
63 100 175
63 100 171
62 99 168
64 100 175
62 98 169
63 99 169
63 100 174
64 100 174
63 99 170
63 99 169
62 99 168
63 99 169
63 99 169
63 99 172
63 99 169
63 100 170
64 100 170
62 99 169
63 99 173
63 100 172
63 99 169
63 100 175
62 99 169
62 98 164
63 100 172
64 100 172
64 100 172
63 99 171
62 99 167
63 100 175
62 99 167
63 99 166
62 99 172
64 100 175
62 98 163
63 99 167
63 99 173
63 99 170
63 99 166
63 99 170
63 100 171
63 99 166
63 99 170
63 99 170
63 100 173
63 99 167
63 100 175
63 100 172
63 99 165
62 99 167
63 100 172
63 100 174
63 99 167
63 99 170
63 100 174
63 99 170
63 99 168
63 99 173
62 99 172
62 99 170
62 99 170
64 100 173
62 99 171
63 99 169
63 100 171
62 98 170
63 99 175
63 99 170
63 99 169
62 99 170
63 99 171
62 99 171
63 99 172
63 100 174
65 100 175
160 182 221
207 228 255
207 228 255
207 228 255
207 228 255
207 228 255
207 228 255
207 228 255
207 228 255
208 228 255
208 228 255
208 228 255
208 228 255
208 228 255
208 228 255
208 228 255
208 228 255
208 228 255
208 228 255
208 228 255
208 228 255
208 228 255
208 228 255
208 228 255
208 228 255
208 228 255
208 228 255
208 228 255
208 228 255
208 228 255
209 228 255
209 228 255
209 229 255
209 229 255
209 229 255
209 229 255
209 229 255
209 229 255
204 219 234
186 185 148
177 173 114
175 171 114
173 171 114
172 170 114
170 169 114
169 169 114
168 168 114
167 168 114
167 168 114
166 167 114
165 167 114
165 167 114
164 167 114
164 167 114
164 166 114
163 166 114
163 166 114
163 166 114
163 166 114
162 166 114
162 166 114
162 166 114
162 166 114
162 166 114
162 166 114
162 165 114
162 165 114
161 165 114
161 165 114
161 165 114
161 165 114
161 165 114
161 165 114
162 165 114
162 165 114
162 166 114
162 166 114
162 166 114
162 166 114
162 166 114
162 166 114
162 166 114
162 166 114
162 166 114
163 166 114
163 166 114
163 166 114
163 166 114
163 166 114
163 166 114
163 166 114
164 166 114
164 166 114
164 167 114
164 167 114
164 167 114
164 167 114
165 167 114
165 167 114
165 167 114
165 167 114
165 167 114
166 167 114
166 167 114
166 167 114
166 168 114
167 168 114
167 168 114
167 168 114
167 168 114
167 168 114
168 168 114
168 168 114
168 168 114
168 168 114
169 169 114
169 169 114
169 169 114
169 169 114
169 169 114
170 169 114
170 169 114
170 169 114
170 169 114
171 170 114
171 170 114
171 170 114
171 170 114
172 170 114
172 170 114
172 170 114
173 170 114
173 171 114
173 171 114
173 171 114
174 171 114
174 171 114
174 171 114
174 171 114
175 171 114
175 171 114
175 172 114
176 172 114
176 172 114
176 172 114
176 172 114
177 172 114
177 172 114
177 173 114
178 173 114
178 173 114
178 173 114
179 173 114
179 173 114
179 173 114
180 174 114
180 174 114
169 195 76
174 199 102
171 196 88
173 198 84
173 198 102
173 198 102
172 197 80
173 199 102
171 197 62
169 195 62
170 196 80
170 196 72
168 193 44
171 196 76
172 197 80
172 198 88
170 196 72
168 194 72
172 197 84
171 197 67
170 196 57
172 197 72
171 197 72
171 197 67
170 196 51
168 194 72
167 193 44
171 197 72
169 195 72
170 196 51
171 197 57
170 196 57
170 195 51
170 196 57
171 197 67
172 197 51
171 197 57
169 196 62
170 196 67
170 196 51
171 197 67
169 195 51
171 197 62
169 195 25
169 196 62
170 196 51
171 197 80
170 196 51
168 194 36
168 194 25
171 196 51
171 197 72
169 195 51
171 197 62
170 196 57
169 195 51
168 194 44
168 195 25
170 196 57
170 195 25
171 197 80
168 195 51
169 196 67
171 197 67
168 194 44
170 195 51
169 196 72
170 196 36
171 196 44
171 197 62
169 195 44
171 198 92
169 195 62
169 196 62
170 196 62
170 196 62
171 197 57
170 196 44
170 197 76
169 195 51
171 198 95
171 197 62
169 195 51
169 196 57
170 196 67
169 196 57
170 196 51
170 196 67
170 197 62
169 195 51
170 196 57
169 196 51
170 196 57
170 196 57
170 196 57
169 196 67
171 197 84
171 197 51
171 197 62
170 197 80
170 196 67
170 197 67
170 197 76
172 198 76
170 197 80
171 197 76
172 198 92
170 196 72
170 197 80
171 198 95
173 199 95
173 199 95
173 199 102
173 199 114
175 201 130
176 202 125
181 207 163
187 211 182
201 222 228
208 228 252
209 229 255
209 229 255
209 229 255
209 229 255
209 229 255
209 229 255
209 229 255
209 229 255
209 229 255
209 228 255
209 228 255
208 228 255
208 228 255
208 228 255
208 228 255
208 228 255
208 228 255
208 228 255
208 228 255
208 228 255
208 228 255
208 228 255
208 228 255
208 228 255
208 228 255
208 228 255
208 228 255
208 228 255
208 228 255
208 228 255
208 228 255
208 228 255
208 228 255
208 228 255
151 173 217
62 99 175
63 100 177
63 100 174
63 100 174
63 99 175
63 99 172
63 99 173
63 99 174
63 100 174
63 99 173
63 100 173
64 100 174
62 99 167
63 100 175
64 100 173
62 99 168
62 99 168
63 100 176
62 99 168
63 99 169
63 100 172
63 99 171
64 100 175
63 99 172
64 101 178
63 100 174
62 98 163
64 100 175
63 99 171
63 100 169
63 100 173
63 99 171
64 100 170
63 99 169
63 99 165
62 98 163
63 100 172
62 99 167
63 100 174
63 100 176
63 99 168
62 99 168
63 99 173
62 99 167
63 99 172
62 99 168
63 99 168
62 99 169
63 99 169
62 99 168
63 100 172
63 99 171
63 100 172
63 100 174
62 99 170
62 98 168
64 100 172
63 99 163
63 100 174
63 99 172
62 99 170
62 99 170
63 100 172
62 99 170
62 98 163
63 99 170
63 100 171
63 99 168
64 100 176
63 99 168
62 99 169
63 99 171
63 99 170
63 99 171
62 98 163
62 99 169
63 99 172
63 99 172
63 99 172
63 99 172
63 99 168
62 99 169
62 98 170
62 99 170
64 100 175
62 99 170
62 99 176
62 99 174
62 99 171
159 182 223
208 228 255
208 228 255
208 228 255
208 228 255
208 228 255
208 228 255
208 228 255
208 228 255
208 228 255
208 228 255
208 228 255
208 228 255
208 228 255
208 228 255
208 228 255
208 228 255
208 228 255
208 228 255
208 228 255
208 228 255
208 228 255
208 228 255
208 228 255
209 228 255
209 228 255
209 229 255
209 229 255
209 229 255
209 229 255
209 229 255
209 229 255
209 229 255
209 229 255
209 229 255
207 225 248
192 196 180
179 173 114
176 172 114
174 171 114
172 170 114
171 170 114
170 169 114
169 169 114
168 168 114
167 168 114
166 168 114
166 167 114
165 167 114
165 167 114
164 167 114
164 166 114
163 166 114
163 166 114
163 166 114
163 166 114
162 166 114
162 166 114
162 166 114
162 166 114
162 166 114
162 166 114
162 165 114
162 165 114
161 165 114
161 165 114
161 165 114
161 165 114
161 165 114
161 165 114
161 165 114
162 165 114
162 165 114
162 166 114
162 166 114
162 166 114
162 166 114
162 166 114
162 166 114
162 166 114
162 166 114
162 166 114
163 166 114
163 166 114
163 166 114
163 166 114
163 166 114
163 166 114
163 166 114
164 166 114
164 166 114
164 167 114
164 167 114
164 167 114
165 167 114
165 167 114
165 167 114
165 167 114
165 167 114
165 167 114
166 167 114
166 167 114
166 167 114
166 168 114
167 168 114
167 168 114
167 168 114
167 168 114
167 168 114
168 168 114
168 168 114
168 168 114
168 168 114
169 169 114
169 169 114
169 169 114
169 169 114
169 169 114
170 169 114
170 169 114
170 169 114
170 169 114
171 170 114
171 170 114
171 170 114
171 170 114
172 170 114
172 170 114
172 170 114
172 170 114
173 170 114
173 171 114
173 171 114
173 171 114
174 171 114
174 171 114
174 171 114
174 171 114
175 171 114
175 172 114
175 172 114
176 172 114
176 172 114
176 172 114
176 172 114
177 172 114
177 172 114
177 173 114
178 173 114
178 173 114
178 173 114
179 173 114
179 173 114
179 173 114
179 174 114
180 174 114
166 191 67
173 198 92
172 198 88
169 196 76
169 194 62
171 196 95
172 198 95
172 197 95
171 198 92
170 196 67
174 199 95
171 197 62
170 196 84
169 194 57
172 197 88
171 197 72
171 197 67
170 196 67
170 195 80
169 195 72
170 196 57
169 195 57
171 197 62
169 196 44
171 197 72
170 195 51
169 195 57
168 193 57
170 196 44
168 194 36
169 194 57
168 194 62
169 195 72
171 196 57
170 197 76
171 197 67
171 197 76
170 196 51
169 195 67
170 197 62
169 195 36
170 196 51
170 196 57
170 195 25
171 197 72
171 197 62
170 196 44
168 193 25
171 197 57
171 197 62
170 196 62
169 195 44
168 194 44
170 196 44
169 195 57
168 195 36
168 195 36
172 197 72
169 195 36
169 196 72
170 196 44
170 196 62
170 196 57
170 196 62
170 196 62
169 196 44
170 196 62
169 196 51
169 196 62
170 196 67
169 195 36
169 196 57
169 196 62
170 196 67
170 196 36
169 195 57
170 196 57
169 196 57
171 197 80
170 196 57
169 196 72
169 196 57
168 194 25
169 196 51
170 196 62
170 195 44
170 196 44
170 196 44
170 196 62
170 196 57
170 196 57
170 196 67
170 196 51
170 196 67
170 197 72
169 196 67
170 196 57
170 196 67
170 196 62
168 195 36
170 196 62
169 195 44
170 197 88
171 198 92
169 195 51
171 197 57
170 197 80
170 197 80
170 196 88
171 198 92
172 198 99
170 196 76
171 197 88
173 200 114
172 198 95
175 201 125
176 202 125
177 203 133
181 206 163
189 213 191
206 226 246
209 229 255
209 229 255
209 229 255
209 229 255
209 229 255
209 229 255
209 229 255
209 229 255
209 229 255
209 229 255
209 229 255
209 229 255
209 229 255
209 229 255
209 228 255
208 228 255
208 228 255
208 228 255
208 228 255
208 228 255
208 228 255
208 228 255
208 228 255
208 228 255
208 228 255
208 228 255
208 228 255
208 228 255
208 228 255
208 228 255
208 228 255
208 228 255
156 178 221
63 99 175
62 98 167
63 100 174
63 99 171
63 99 173
63 100 176
63 100 173
63 99 171
63 99 171
62 99 172
62 99 164
63 99 171
63 99 172
63 99 168
62 99 169
63 99 169
62 98 166
64 100 178
63 99 173
63 99 171
63 99 169
63 99 168
63 99 169
64 100 170
63 99 170
63 99 169
62 99 168
63 99 166
64 100 174
62 99 169
63 99 169
63 99 168
62 98 160
63 99 171
63 100 176
62 98 163
63 100 169
63 99 168
62 99 168
63 99 170
63 99 171
63 99 165
63 99 169
62 99 166
63 99 168
63 99 168
63 99 168
63 100 175
62 99 170
63 100 172
63 99 169
64 100 176
63 99 168
62 99 165
63 99 170
63 100 170
63 100 171
63 100 175
63 99 171
63 99 169
64 100 172
62 98 162
63 100 171
63 100 170
63 99 172
63 99 172
63 99 167
63 99 167
64 100 171
63 99 171
63 99 170
64 100 176
63 99 171
62 99 167
63 100 171
63 99 172
63 100 177
63 100 173
62 99 170
62 98 163
62 99 169
63 100 174
63 100 174
64 100 178
63 99 171
62 99 172
63 99 173
63 99 170
63 99 173
63 99 172
63 99 173
151 173 216
208 228 255
208 228 255
208 228 255
208 228 255
208 228 255
208 228 255
208 228 255
208 228 255
208 228 255
208 228 255
208 228 255
208 228 255
208 228 255
208 228 255
208 228 255
208 228 255
209 228 255
209 228 255
209 229 255
209 229 255
209 229 255
209 229 255
209 229 255
209 229 255
209 229 255
209 229 255
209 229 255
209 229 255
209 229 255
209 229 255
209 229 255
209 229 255
200 211 214
183 180 135
177 173 114
175 171 114
173 171 114
172 170 114
170 169 114
169 169 114
168 168 114
167 168 114
167 168 114
166 167 114
165 167 114
165 167 114
164 167 114
164 167 114
164 166 114
163 166 114
163 166 114
163 166 114
163 166 114
162 166 114
162 166 114
162 166 114
162 166 114
162 166 114
162 166 114
162 165 114
162 165 114
162 165 114
161 165 114
161 165 114
161 165 114
161 165 114
162 165 114
162 165 114
162 165 114
162 166 114
162 166 114
162 166 114
162 166 114
162 166 114
162 166 114
162 166 114
162 166 114
162 166 114
163 166 114
163 166 114
163 166 114
163 166 114
163 166 114
163 166 114
163 166 114
164 166 114
164 166 114
164 166 114
164 167 114
164 167 114
164 167 114
165 167 114
165 167 114
165 167 114
165 167 114
165 167 114
166 167 114
166 167 114
166 167 114
166 167 114
166 168 114
167 168 114
167 168 114
167 168 114
167 168 114
167 168 114
168 168 114
168 168 114
168 168 114
168 168 114
169 169 114
169 169 114
169 169 114
169 169 114
169 169 114
170 169 114
170 169 114
170 169 114
170 169 114
171 170 114
171 170 114
171 170 114
171 170 114
172 170 114
172 170 114
172 170 114
172 170 114
173 170 114
173 170 114
173 171 114
173 171 114
174 171 114
174 171 114
174 171 114
174 171 114
175 171 114
175 171 114
175 172 114
175 172 114
176 172 114
176 172 114
176 172 114
176 172 114
177 172 114
177 172 114
177 173 114
178 173 114
178 173 114
178 173 114
178 173 114
179 173 114
179 173 114
179 174 114
180 174 114
169 195 72
170 196 88
172 197 80
173 199 92
174 199 114
174 199 99
173 199 95
169 195 67
171 197 67
168 194 76
173 199 80
170 196 62
170 196 72
171 196 51
169 195 67
170 196 72
171 196 67
169 195 84
169 194 57
169 195 57
170 196 67
169 195 44
172 197 76
169 195 57
170 196 72
171 197 84
169 195 62
168 194 67
169 195 67
169 196 72
170 196 57
169 195 57
171 197 67
170 195 72
167 194 51
169 195 51
168 194 44
170 196 36
169 196 51
168 194 51
170 196 44
170 196 67
170 196 51
169 196 57
170 196 62
169 195 62
172 198 72
170 196 62
169 195 57
170 196 51
171 196 44
170 196 57
170 196 36
169 195 51
170 196 62
170 197 62
170 196 44
170 196 36
169 195 36
170 196 67
171 197 67
170 196 67
170 196 67
169 195 51
169 195 57
170 196 67
170 196 62
170 196 51
170 196 44
170 196 57
169 195 51
169 195 25
170 196 44
170 196 57
166 193 57
169 195 51
170 196 51
170 197 62
169 195 44
169 195 44
169 195 36
169 195 36
169 195 36
171 196 57
170 196 36
169 196 44
171 197 72
170 196 44
170 196 57
170 195 36
169 195 57
170 196 44
168 194 44
170 196 57
169 195 44
169 196 57
170 196 67
169 195 51
171 197 76
169 195 62
169 196 57
170 196 51
170 197 67
170 196 51
171 198 95
170 197 76
172 198 88
170 196 67
171 197 80
170 196 67
171 198 92
171 197 80
171 197 72
171 197 80
173 199 102
173 200 117
173 199 105
172 199 108
177 202 128
180 205 149
181 205 157
198 220 221
209 229 255
209 229 255
209 229 255
209 229 255
209 229 255
209 229 255
209 229 255
209 229 255
209 229 255
209 229 255
209 229 255
209 229 255
209 229 255
209 229 255
209 229 255
209 229 255
209 229 255
209 229 255
209 229 255
209 228 255
208 228 255
208 228 255
208 228 255
208 228 255
208 228 255
208 228 255
208 228 255
208 228 255
208 228 255
208 228 255
152 175 217
63 100 177
62 99 167
63 100 175
63 99 170
63 100 176
63 99 172
63 99 172
62 99 165
63 99 169
63 99 171
63 99 171
63 100 172
63 100 174
62 99 166
63 99 170
63 100 171
62 99 170
63 99 167
63 99 168
63 99 171
63 99 166
63 99 171
63 99 165
64 100 168
63 99 172
63 99 167
63 99 169
63 99 173
63 99 169
63 99 170
62 99 167
62 98 164
63 99 169
63 99 168
64 100 170
62 98 163
63 99 165
63 99 166
63 99 167
63 99 171
63 100 172
63 99 167
63 99 170
63 100 172
62 98 163
63 100 173
62 98 162
62 99 165
63 99 171
62 99 166
62 98 164
63 99 165
63 99 166
63 99 169
63 99 166
62 99 165
63 99 167
64 100 173
63 99 171
63 99 166
63 99 166
63 100 174
62 98 163
63 99 171
63 99 166
62 99 167
63 99 167
63 99 169
63 99 170
63 99 170
63 99 172
63 100 171
62 98 166
64 101 174
64 100 174
63 99 167
63 100 173
63 100 173
63 99 167
63 99 167
62 99 166
63 99 171
62 99 171
62 99 169
63 99 174
62 98 169
63 99 173
64 100 177
63 99 169
63 99 173
63 99 173
62 99 169
62 98 172
148 171 211
208 228 255
208 228 255
208 228 255
208 228 255
208 228 255
208 228 255
208 228 255
208 228 255
208 228 255
208 228 255
209 228 255
209 229 255
209 229 255
209 229 255
209 229 255
209 229 255
209 229 255
209 229 255
209 229 255
209 229 255
209 229 255
209 229 255
209 229 255
209 229 255
209 229 255
209 229 255
209 229 255
209 229 255
209 229 255
208 226 249
192 196 178
179 173 114
176 172 114
174 171 114
173 170 114
171 170 114
170 169 114
169 169 114
168 168 114
167 168 114
166 168 114
166 167 114
165 167 114
165 167 114
164 167 114
164 167 114
164 166 114
163 166 114
163 166 114
163 166 114
163 166 114
162 166 114
162 166 114
162 166 114
162 166 114
162 166 114
162 166 114
162 166 114
162 166 114
162 165 114
162 165 114
162 165 114
162 165 114
162 165 114
162 165 114
162 166 114
162 166 114
162 166 114
162 166 114
162 166 114
162 166 114
162 166 114
162 166 114
162 166 114
162 166 114
163 166 114
163 166 114
163 166 114
163 166 114
163 166 114
163 166 114
163 166 114
163 166 114
164 166 114
164 166 114
164 167 114
164 167 114
164 167 114
165 167 114
165 167 114
165 167 114
165 167 114
165 167 114
165 167 114
166 167 114
166 167 114
166 167 114
166 168 114
166 168 114
167 168 114
167 168 114
167 168 114
167 168 114
167 168 114
168 168 114
168 168 114
168 168 114
168 168 114
169 169 114
169 169 114
169 169 114
169 169 114
169 169 114
170 169 114
170 169 114
170 169 114
170 169 114
171 170 114
171 170 114
171 170 114
171 170 114
172 170 114
172 170 114
172 170 114
172 170 114
172 170 114
173 170 114
173 171 114
173 171 114
173 171 114
174 171 114
174 171 114
174 171 114
174 171 114
175 171 114
175 172 114
175 172 114
175 172 114
176 172 114
176 172 114
176 172 114
177 172 114
177 172 114
177 172 114
177 173 114
178 173 114
178 173 114
178 173 114
178 173 114
179 173 114
179 173 114
179 174 114
180 174 114
172 197 92
171 196 95
173 199 95
170 195 84
171 197 76
171 196 72
170 195 51
172 198 88
170 195 57
173 199 102
171 197 72
171 196 76
173 198 80
170 196 67
170 196 62
172 197 76
169 195 57
166 192 57
169 194 44
171 197 62
169 195 76
170 195 57
171 197 67
169 195 72
170 195 62
170 195 25
169 195 76
169 195 51
172 198 67
170 196 57
170 196 62
168 194 51
170 195 51
171 197 76
169 194 51
168 194 51
169 196 67
170 196 44
168 194 51
168 194 51
171 198 84
170 195 44
169 195 44
171 197 62
169 195 44
171 197 72
169 196 44
170 196 51
170 196 44
169 195 62
170 196 62
170 196 57
170 196 62
170 196 51
170 196 84
170 196 57
169 195 51
170 196 57
171 196 67
170 196 51
170 196 44
170 196 51
169 196 44
169 194 44
169 196 62
171 197 72
169 195 44
169 196 62
170 196 57
169 196 57
170 197 72
170 196 62
171 197 62
170 196 72
169 195 25
170 196 57
169 195 36
169 195 44
169 195 51
169 195 25
170 196 44
170 196 57
169 195 51
170 196 51
171 197 72
168 195 25
169 195 36
170 196 44
170 197 76
170 196 67
170 196 44
169 196 57
170 196 57
170 196 57
169 195 36
169 195 44
170 196 76
170 196 62
170 196 36
169 195 44
169 196 62
169 196 67
169 195 44
170 196 67
170 196 44
169 196 57
170 197 67
171 198 95
170 197 67
169 196 67
172 199 122
170 196 51
170 197 84
170 196 72
170 197 72
170 196 72
172 198 84
172 198 88
173 199 105
177 203 135
178 204 142
182 207 159
193 215 201
205 226 244
210 229 255
209 229 255
209 229 255
209 229 255
209 229 255
209 229 255
209 229 255
209 229 255
209 229 255
209 229 255
209 229 255
209 229 255
209 229 255
209 229 255
209 229 255
209 229 255
209 229 255
209 229 255
209 229 255
209 229 255
209 229 255
209 229 255
209 229 255
209 228 255
209 228 255
208 228 255
208 228 255
164 186 225
63 99 173
63 99 172
62 99 170
62 99 171
63 100 173
64 100 171
63 99 172
63 100 172
62 99 165
63 99 167
63 99 170
63 100 173
63 99 166
64 100 174
63 100 174
63 99 171
63 99 171
63 99 168
63 99 165
63 100 173
63 99 167
63 99 168
62 98 163
63 99 168
63 100 173
63 99 168
63 100 171
64 100 172
63 99 169
64 100 171
63 100 174
63 99 169
63 99 171
64 100 172
63 99 169
63 99 167
63 99 171
63 99 171
63 99 164
63 99 171
63 99 167
63 99 168
63 99 169
64 100 172
63 99 165
63 99 171
63 99 170
63 100 172
63 100 168
63 99 169
63 99 168
63 99 165
63 99 166
63 99 170
64 100 168
63 99 169
62 99 167
62 98 164
63 99 166
62 98 164
63 99 168
62 98 161
63 99 168
64 100 172
63 99 164
63 100 171
63 99 167
64 100 173
64 100 177
63 99 167
64 100 172
62 98 167
62 99 171
63 99 173
63 99 171
63 99 169
64 100 171
64 100 173
62 99 167
63 99 170
62 98 165
62 98 168
64 100 176
63 100 177
63 99 168
63 99 168
63 99 172
63 100 170
63 99 172
63 99 172
62 99 169
63 99 167
62 98 165
64 99 173
62 98 169
175 196 231
208 228 255
208 228 255
209 228 255
209 228 255
209 229 255
209 229 255
209 229 255
209 229 255
209 229 255
209 229 255
209 229 255
209 229 255
209 229 255
209 229 255
209 229 255
209 229 255
209 229 255
209 229 255
209 229 255
209 229 255
209 229 255
209 229 255
209 229 255
209 229 255
209 229 255
209 229 255
210 229 255
205 220 235
185 183 142
178 173 114
175 172 114
173 171 114
172 170 114
171 170 114
170 169 114
169 169 114
168 168 114
167 168 114
166 168 114
166 167 114
165 167 114
165 167 114
164 167 114
164 167 114
164 166 114
163 166 114
163 166 114
163 166 114
163 166 114
162 166 114
162 166 114
162 166 114
162 166 114
162 166 114
162 166 114
162 166 114
162 166 114
162 166 114
162 166 114
162 166 114
162 166 114
162 166 114
162 166 114
162 166 114
162 166 114
162 166 114
162 166 114
162 166 114
162 166 114
162 166 114
162 166 114
162 166 114
163 166 114
163 166 114
163 166 114
163 166 114
163 166 114
163 166 114
163 166 114
164 166 114
164 166 114
164 166 114
164 167 114
164 167 114
164 167 114
165 167 114
165 167 114
165 167 114
165 167 114
165 167 114
165 167 114
166 167 114
166 167 114
166 167 114
166 168 114
166 168 114
167 168 114
167 168 114
167 168 114
167 168 114
167 168 114
168 168 114
168 168 114
168 168 114
168 168 114
168 169 114
169 169 114
169 169 114
169 169 114
169 169 114
170 169 114
170 169 114
170 169 114
170 169 114
170 169 114
171 170 114
171 170 114
171 170 114
171 170 114
172 170 114
172 170 114
172 170 114
172 170 114
173 170 114
173 170 114
173 171 114
173 171 114
173 171 114
174 171 114
174 171 114
174 171 114
174 171 114
175 171 114
175 171 114
175 172 114
175 172 114
176 172 114
176 172 114
176 172 114
176 172 114
177 172 114
177 172 114
177 173 114
177 173 114
178 173 114
178 173 114
178 173 114
179 173 114
179 173 114
179 173 114
179 174 114
180 174 114
169 194 67
171 197 62
168 193 67
170 196 67
173 198 80
169 195 51
173 198 80
172 198 72
170 195 67
171 197 67
169 195 57
171 197 72
169 194 44
171 197 62
171 197 72
169 195 51
173 198 76
170 196 72
171 197 67
171 197 76
171 196 67
172 198 76
168 194 51
170 196 57
170 195 76
171 197 72
170 196 62
169 195 62
169 195 44
170 196 51
172 198 80
169 195 62
169 195 51
171 196 57
170 196 62
170 196 36
171 196 36
167 193 51
167 193 36
172 197 67
169 195 36
170 196 62
171 197 72
170 196 57
171 196 51
170 196 44
170 197 76
168 195 36
170 196 51
170 195 44
170 195 51
170 196 51
169 196 51
169 195 25
170 196 44
169 195 67
169 196 57
171 197 62
170 195 36
171 196 36
170 196 51
170 196 51
170 195 36
170 196 44
167 193 25
169 195 36
169 194 0
168 194 25
171 197 62
170 196 57
170 196 51
170 197 72
169 196 51
170 196 57
169 195 36
169 196 51
170 196 44
170 196 57
169 195 67
170 196 67
170 196 51
169 195 62
170 196 51
169 196 62
168 194 44
171 196 44
170 197 72
169 196 57
170 196 62
169 196 51
169 195 51
170 196 44
170 196 62
169 196 57
170 196 44
169 196 67
169 195 51
170 196 57
170 196 44
169 196 51
169 196 51
169 196 57
170 196 51
169 196 62
170 196 51
169 196 67
171 196 25
170 196 72
169 195 62
171 198 95
171 197 76
170 197 84
171 198 99
170 196 51
172 198 99
170 196 62
171 197 57
172 198 92
172 198 102
173 199 92
174 201 117
177 202 128
179 205 155
187 210 177
203 224 237
209 229 254
210 229 255
210 229 255
210 229 255
210 229 255
210 229 255
209 229 255
209 229 255
209 229 255
209 229 255
209 229 255
209 229 255
209 229 255
209 229 255
209 229 255
209 229 255
209 229 255
209 229 255
209 229 255
209 229 255
209 229 255
209 229 255
209 229 255
209 229 255
209 229 255
166 188 226
63 99 170
62 99 170
63 99 167
63 100 175
61 98 167
63 100 172
64 100 174
62 99 165
62 99 171
62 99 168
63 99 169
62 99 167
63 99 169
63 100 173
63 99 167
64 100 173
63 100 171
62 99 169
63 100 171
63 99 171
63 99 168
62 99 168
63 100 170
62 98 167
64 101 177
63 99 172
63 99 165
63 100 171
64 100 171
64 100 169
63 99 165
63 100 171
63 100 172
63 99 164
63 99 166
64 100 169
63 100 171
64 100 168
62 98 164
63 99 168
63 99 165
62 98 163
63 99 168
64 100 171
62 98 160
64 100 172
63 99 171
63 100 170
63 99 167
63 99 167
63 99 165
63 99 168
64 100 167
64 101 174
63 99 170
63 99 166
63 99 169
63 99 166
63 99 168
63 100 171
64 100 171
63 99 169
63 99 168
62 99 169
64 100 175
64 100 170
63 99 169
63 100 172
64 100 171
62 98 162
62 99 164
63 100 170
62 98 166
63 99 169
63 99 165
62 98 164
63 100 169
63 100 173
63 100 175
63 99 166
63 99 172
62 98 166
64 100 170
63 99 170
63 100 174
62 98 167
63 99 170
63 99 166
63 99 170
63 99 169
64 100 174
63 100 171
63 99 172
63 99 173
64 100 176
63 99 168
63 99 173
168 189 226
209 229 255
209 229 255
209 229 255
209 229 255
209 229 255
209 229 255
209 229 255
209 229 255
209 229 255
209 229 255
209 229 255
209 229 255
209 229 255
209 229 255
209 229 255
209 229 255
209 229 255
209 229 255
209 229 255
210 229 255
210 229 255
210 229 255
210 229 255
210 229 255
210 229 255
196 202 192
181 176 121
177 173 114
175 171 114
173 171 114
172 170 114
171 169 114
169 169 114
169 169 114
168 168 114
167 168 114
166 168 114
166 167 114
165 167 114
165 167 114
164 167 114
164 167 114
164 166 114
164 166 114
163 166 114
163 166 114
163 166 114
163 166 114
162 166 114
162 166 114
162 166 114
162 166 114
162 166 114
162 166 114
162 166 114
162 166 114
162 166 114
162 166 114
162 166 114
162 166 114
162 166 114
162 166 114
162 166 114
162 166 114
162 166 114
162 166 114
162 166 114
163 166 114
163 166 114
163 166 114
163 166 114
163 166 114
163 166 114
163 166 114
163 166 114
163 166 114
164 166 114
164 166 114
164 167 114
164 167 114
164 167 114
164 167 114
165 167 114
165 167 114
165 167 114
165 167 114
165 167 114
165 167 114
166 167 114
166 167 114
166 167 114
166 168 114
166 168 114
167 168 114
167 168 114
167 168 114
167 168 114
167 168 114
168 168 114
168 168 114
168 168 114
168 168 114
168 169 114
169 169 114
169 169 114
169 169 114
169 169 114
169 169 114
170 169 114
170 169 114
170 169 114
170 169 114
171 169 114
171 170 114
171 170 114
171 170 114
171 170 114
172 170 114
172 170 114
172 170 114
172 170 114
173 170 114
173 170 114
173 171 114
173 171 114
173 171 114
174 171 114
174 171 114
174 171 114
174 171 114
175 171 114
175 171 114
175 172 114
175 172 114
176 172 114
176 172 114
176 172 114
176 172 114
177 172 114
177 172 114
177 172 114
177 173 114
178 173 114
178 173 114
178 173 114
178 173 114
179 173 114
179 173 114
179 173 114
179 174 114
180 174 114
169 194 67
168 193 62
170 196 72
170 195 92
169 194 84
171 197 67
169 195 72
169 194 72
171 196 72
170 195 67
169 195 76
173 198 80
171 197 92
168 194 44
170 195 76
170 196 57
169 194 57
170 196 76
168 194 36
171 196 67
171 197 72
170 195 62
172 198 80
169 195 44
170 195 51
169 194 44
169 195 57
169 195 51
167 193 44
170 196 51
167 193 51
172 197 62
169 195 51
168 194 57
169 196 51
170 196 67
172 197 76
169 195 51
170 196 67
170 196 57
171 197 57
169 195 62
169 195 57
171 197 72
169 195 36
168 194 44
170 196 51
171 196 36
170 195 67
171 196 51
170 195 36
170 195 44
170 196 36
170 196 51
170 195 25
167 193 25
168 194 62
171 196 36
169 196 44
171 197 62
170 196 51
169 195 36
170 196 51
170 195 36
169 195 57
169 195 0
169 195 36
171 197 67
168 195 44
170 197 80
170 196 62
171 196 36
170 197 84
169 196 57
170 196 67
170 196 62
170 196 57
171 196 51
170 196 51
169 195 51
169 196 57
169 196 57
169 195 44
170 196 51
171 196 51
170 196 51
170 196 51
171 196 25
168 195 36
170 196 62
169 195 36
170 196 36
169 195 36
169 195 57
170 197 76
170 196 57
170 197 80
169 195 36
170 197 76
170 196 51
169 195 62
169 196 72
169 196 72
168 195 36
169 196 57
171 197 76
170 196 51
170 196 44
170 197 72
170 197 80
170 196 62
169 196 51
170 196 51
171 196 57
170 197 72
170 196 67
171 197 76
171 197 80
173 199 95
172 198 95
174 200 111
173 199 114
175 201 117
176 202 128
185 210 182
198 220 226
209 229 253
210 229 255
210 229 255
210 229 255
210 229 255
210 229 255
210 229 255
210 229 255
210 229 255
210 229 255
210 229 255
209 229 255
209 229 255
209 229 255
209 229 255
209 229 255
209 229 255
209 229 255
209 229 255
209 229 255
209 229 255
209 229 255
209 229 255
194 214 245
75 108 177
62 98 167
63 99 173
63 99 172
63 100 172
62 99 167
63 99 171
63 99 172
63 99 170
62 98 164
62 99 166
63 100 170
63 99 166
63 99 170
63 100 169
63 99 168
63 100 172
63 100 173
62 99 165
62 99 167
63 99 167
63 99 167
63 99 169
62 98 165
62 98 163
64 100 174
62 98 165
63 99 167
63 100 167
62 98 164
63 99 169
62 98 160
63 99 166
63 99 167
63 99 169
64 100 172
62 98 158
63 99 164
63 99 166
63 99 167
63 99 167
62 99 164
63 99 168
63 99 165
63 99 166
62 98 160
63 99 166
63 99 168
62 98 163
63 99 166
63 100 172
63 100 170
63 100 172
63 99 167
63 99 165
63 99 168
63 99 170
63 99 171
63 99 167
63 99 166
63 99 166
63 99 162
62 98 166
63 99 166
63 99 164
63 100 171
63 99 165
62 98 160
63 99 166
63 100 169
63 99 167
63 100 169
63 99 168
64 100 170
63 99 163
63 99 167
63 100 173
63 99 169
62 99 163
63 99 165
64 100 168
62 99 164
63 99 169
63 100 174
62 98 162
63 99 174
63 100 172
63 99 166
63 99 169
62 98 163
62 99 168
63 99 168
63 99 170
63 99 170
63 100 175
63 99 170
63 99 174
64 99 171
68 103 172
190 210 242
209 229 255
209 229 255
209 229 255
209 229 255
209 229 255
209 229 255
209 229 255
209 229 255
209 229 255
209 229 255
209 229 255
209 229 255
210 229 255
210 229 255
210 229 255
210 229 255
210 229 255
210 229 255
210 229 255
210 229 255
210 229 255
210 229 255
209 227 250
190 190 161
179 173 114
176 172 114
174 171 114
173 171 114
172 170 114
170 169 114
169 169 114
169 169 114
168 168 114
167 168 114
166 168 114
166 167 114
165 167 114
165 167 114
165 167 114
164 167 114
164 167 114
164 166 114
163 166 114
163 166 114
163 166 114
163 166 114
163 166 114
163 166 114
162 166 114
162 166 114
162 166 114
162 166 114
162 166 114
162 166 114
162 166 114
162 166 114
162 166 114
162 166 114
162 166 114
162 166 114
162 166 114
162 166 114
163 166 114
163 166 114
163 166 114
163 166 114
163 166 114
163 166 114
163 166 114
163 166 114
163 166 114
163 166 114
164 166 114
164 166 114
164 166 114
164 167 114
164 167 114
164 167 114
164 167 114
165 167 114
165 167 114
165 167 114
165 167 114
165 167 114
165 167 114
166 167 114
166 167 114
166 167 114
166 168 114
166 168 114
167 168 114
167 168 114
167 168 114
167 168 114
167 168 114
168 168 114
168 168 114
168 168 114
168 168 114
168 168 114
169 169 114
169 169 114
169 169 114
169 169 114
169 169 114
170 169 114
170 169 114
170 169 114
170 169 114
170 169 114
171 170 114
171 170 114
171 170 114
171 170 114
172 170 114
172 170 114
172 170 114
172 170 114
172 170 114
173 170 114
173 171 114
173 171 114
173 171 114
174 171 114
174 171 114
174 171 114
174 171 114
174 171 114
175 171 114
175 171 114
175 172 114
175 172 114
176 172 114
176 172 114
176 172 114
176 172 114
177 172 114
177 172 114
177 172 114
177 173 114
178 173 114
178 173 114
178 173 114
178 173 114
179 173 114
179 173 114
179 173 114
179 174 114
180 174 114
180 174 114
169 194 51
169 195 44
168 193 67
170 195 80
168 193 76
167 192 76
171 197 80
169 194 51
167 193 80
169 194 62
171 196 72
170 195 72
171 197 67
170 196 67
169 194 44
166 192 51
168 194 67
167 193 36
170 195 44
170 195 57
171 197 57
168 193 67
173 198 76
168 194 44
168 193 62
171 197 57
169 194 44
170 196 76
170 196 67
171 197 84
167 193 76
170 196 67
169 195 25
170 196 51
169 195 62
168 193 67
171 197 57
171 197 72
169 195 62
171 196 67
167 193 57
168 194 25
170 196 44
171 196 36
170 196 57
168 194 51
169 195 44
168 194 57
168 194 36
169 195 62
167 193 36
170 196 44
170 196 72
168 194 44
168 194 51
170 196 51
168 194 51
167 194 36
170 196 36
170 195 44
168 195 67
169 195 36
169 195 25
170 196 57
170 196 62
170 196 57
170 196 51
170 196 57
170 196 62
170 196 36
170 197 67
169 196 44
170 196 44
170 195 51
169 196 57
169 196 57
169 196 44
168 195 51
170 197 72
169 196 67
170 196 62
171 197 62
170 196 57
169 195 36
170 196 57
170 196 51
170 196 51
170 196 44
170 197 72
170 196 62
169 195 0
170 195 25
170 196 51
170 196 57
170 196 44
170 196 76
170 196 51
169 195 44
171 197 62
170 196 67
170 196 67
169 195 36
170 196 57
170 196 57
171 197 67
169 196 67
171 197 72
169 196 76
170 196 57
170 196 62
169 196 57
170 196 57
170 196 72
169 195 36
170 196 67
170 196 72
172 198 92
170 197 72
170 196 62
174 200 108
174 200 99
173 199 92
173 199 99
174 200 114
178 204 144
181 206 159
193 215 199
209 228 253
210 229 255
210 229 255
210 229 255
210 229 255
210 229 255
210 229 255
210 229 255
210 229 255
210 229 255
210 229 255
210 229 255
210 229 255
210 229 255
210 229 255
210 229 255
210 229 255
209 229 255
209 229 255
209 229 255
209 229 255
199 219 247
82 113 177
63 99 168
62 99 166
63 100 175
63 100 173
63 99 170
63 99 171
63 99 168
63 99 166
63 99 173
63 99 166
63 99 170
63 99 168
63 100 175
63 99 163
63 99 167
63 99 172
63 99 169
63 99 169
63 99 166
62 99 169
62 98 160
63 99 166
63 99 169
62 98 162
63 99 169
62 99 167
64 100 169
63 99 171
62 99 167
62 98 162
63 100 171
62 99 166
63 99 167
62 98 159
64 100 172
62 98 160
63 99 164
63 100 172
63 99 171
63 99 167
62 98 165
63 99 165
63 99 167
62 98 160
63 99 167
63 99 167
63 100 170
62 98 162
62 98 162
64 100 166
64 100 173
63 99 164
63 99 164
64 100 169
63 99 167
63 99 165
62 99 167
62 98 162
64 100 169
63 100 172
63 99 169
62 98 161
63 99 166
62 98 161
63 99 162
63 100 169
63 99 166
63 99 164
64 100 171
63 99 166
63 100 169
63 99 169
63 99 169
63 99 167
62 99 169
63 100 173
63 99 169
62 98 163
63 99 169
63 99 170
63 99 165
63 100 171
63 99 170
63 99 166
62 99 163
64 100 168
63 99 173
64 100 176
62 99 168
63 99 169
63 99 171
63 99 166
63 99 169
63 99 170
63 99 168
63 100 174
62 99 168
63 100 173
63 99 168
93 122 183
200 220 249
209 229 255
209 229 255
209 229 255
209 229 255
210 229 255
210 229 255
210 229 255
210 229 255
210 229 255
210 229 255
210 229 255
210 229 255
210 229 255
210 229 255
210 229 255
210 229 255
210 229 255
210 229 255
210 229 255
210 229 255
204 218 230
186 183 141
178 173 114
176 172 114
174 171 114
173 170 114
171 170 114
170 169 114
169 169 114
169 169 114
168 168 114
167 168 114
167 168 114
166 168 114
166 167 114
165 167 114
165 167 114
165 167 114
164 167 114
164 167 114
164 166 114
163 166 114
163 166 114
163 166 114
163 166 114
163 166 114
163 166 114
163 166 114
163 166 114
163 166 114
163 166 114
163 166 114
163 166 114
163 166 114
163 166 114
163 166 114
163 166 114
163 166 114
163 166 114
163 166 114
163 166 114
163 166 114
163 166 114
163 166 114
163 166 114
163 166 114
163 166 114
164 166 114
164 166 114
164 166 114
164 167 114
164 167 114
164 167 114
164 167 114
164 167 114
165 167 114
165 167 114
165 167 114
165 167 114
165 167 114
165 167 114
166 167 114
166 167 114
166 167 114
166 167 114
166 168 114
166 168 114
167 168 114
167 168 114
167 168 114
167 168 114
167 168 114
168 168 114
168 168 114
168 168 114
168 168 114
168 169 114
169 169 114
169 169 114
169 169 114
169 169 114
169 169 114
170 169 114
170 169 114
170 169 114
170 169 114
170 169 114
171 170 114
171 170 114
171 170 114
171 170 114
171 170 114
172 170 114
172 170 114
172 170 114
172 170 114
173 170 114
173 170 114
173 171 114
173 171 114
173 171 114
174 171 114
174 171 114
174 171 114
174 171 114
175 171 114
175 171 114
175 171 114
175 172 114
175 172 114
176 172 114
176 172 114
176 172 114
176 172 114
177 172 114
177 172 114
177 172 114
177 173 114
178 173 114
178 173 114
178 173 114
178 173 114
178 173 114
179 173 114
179 173 114
179 173 114
179 174 114
180 174 114
180 174 114
166 192 76
172 197 80
170 196 57
168 193 80
170 196 72
170 196 76
168 194 57
171 197 62
169 195 76
171 196 67
170 196 57
168 194 67
168 194 57
169 195 67
169 195 62
170 196 72
168 194 0
168 193 36
168 193 51
171 197 62
168 194 57
172 198 72
169 195 62
169 195 51
168 194 67
169 195 72
170 196 57
169 194 36
171 196 44
169 194 51
169 195 57
170 196 80
169 195 44
171 197 76
169 195 57
169 195 51
168 194 51
169 195 62
169 195 57
168 194 51
170 195 62
171 197 72
172 198 80
170 195 62
169 195 51
170 195 67
170 195 25
170 196 57
169 195 25
171 197 62
169 195 62
168 195 57
168 194 57
170 196 51
170 196 67
169 195 51
169 195 51
169 195 51
170 196 72
170 196 44
167 193 51
169 195 51
170 196 44
170 196 44
170 196 51
169 196 51
170 196 44
169 196 62
168 194 25
170 196 57
170 196 72
170 196 57
171 197 67
170 196 62
169 195 25
170 196 51
170 196 44
171 196 57
170 196 72
170 196 57
169 196 51
170 196 57
170 196 57
169 195 44
170 196 51
170 196 44
171 196 51
169 195 36
170 196 51
170 196 62
169 195 36
170 196 51
170 196 67
169 195 44
170 196 51
170 196 51
170 196 44
169 196 67
171 197 57
170 196 72
169 195 57
171 197 62
170 197 62
170 195 0
169 196 57
170 196 44
170 195 0
170 196 57
170 196 62
170 196 51
171 197 57
170 196 36
171 196 51
170 196 57
170 196 67
170 196 67
170 197 84
171 197 72
172 199 95
172 198 88
172 197 62
173 199 95
172 198 84
173 199 105
174 199 99
177 202 137
182 207 167
190 213 189
205 225 238
210 229 255
210 229 255
210 229 255
210 229 255
210 229 255
210 229 255
210 229 255
210 229 255
210 229 255
210 229 255
210 229 255
210 229 255
210 229 255
210 229 255
210 229 255
210 229 255
210 229 255
210 229 255
209 228 255
107 134 189
62 99 170
62 98 166
64 100 171
63 99 167
61 98 162
63 99 169
64 100 169
63 99 168
63 99 166
63 99 166
62 98 161
63 100 168
63 99 167
64 100 174
63 99 164
63 99 165
63 100 170
62 98 162
63 99 171
64 100 173
63 99 167
63 99 165
62 98 162
63 100 168
63 99 164
63 99 165
63 99 164
63 99 165
63 99 165
63 99 171
64 100 168
62 98 162
64 100 171
63 99 165
63 99 165
62 99 165
63 99 165
63 99 167
62 99 167
63 99 166
63 99 170
62 98 162
63 99 167
63 99 165
62 98 159
63 99 166
63 99 166
63 99 168
62 99 165
63 99 166
64 100 172
62 98 161
63 99 170
64 100 170
63 99 166
63 99 165
63 99 163
63 99 161
63 99 164
63 99 166
63 99 168
62 98 157
63 99 169
62 98 160
63 99 171
63 100 169
63 99 170
63 99 166
63 100 169
63 99 163
63 99 167
63 99 161
64 100 171
62 98 157
63 99 165
63 99 164
62 98 162
64 100 173
63 99 168
64 100 169
63 99 165
63 99 171
63 99 167
63 98 160
62 98 161
63 99 169
63 99 170
64 100 170
63 99 166
63 99 170
62 98 163
63 99 166
63 99 167
63 100 172
63 100 174
62 98 166
63 99 170
63 99 168
63 99 167
62 98 170
62 98 169
113 138 192
209 228 255
210 229 255
210 229 255
210 229 255
210 229 255
210 229 255
210 229 255
210 229 255
210 229 255
210 229 255
210 229 255
210 229 255
210 229 255
210 229 255
210 229 255
210 229 255
210 229 255
210 229 255
210 229 255
202 213 219
183 177 123
178 173 114
176 172 114
174 171 114
173 170 114
172 170 114
171 169 114
170 169 114
169 169 114
168 168 114
167 168 114
167 168 114
166 168 114
166 167 114
165 167 114
165 167 114
165 167 114
165 167 114
164 167 114
164 167 114
164 166 114
164 166 114
163 166 114
163 166 114
163 166 114
163 166 114
163 166 114
163 166 114
163 166 114
163 166 114
163 166 114
163 166 114
163 166 114
163 166 114
163 166 114
163 166 114
163 166 114
163 166 114
163 166 114
163 166 114
163 166 114
163 166 114
163 166 114
164 166 114
164 166 114
164 166 114
164 167 114
164 167 114
164 167 114
164 167 114
164 167 114
165 167 114
165 167 114
165 167 114
165 167 114
165 167 114
165 167 114
165 167 114
166 167 114
166 167 114
166 167 114
166 167 114
166 168 114
166 168 114
167 168 114
167 168 114
167 168 114
167 168 114
167 168 114
168 168 114
168 168 114
168 168 114
168 168 114
168 168 114
168 169 114
169 169 114
169 169 114
169 169 114
169 169 114
169 169 114
170 169 114
170 169 114
170 169 114
170 169 114
170 169 114
171 170 114
171 170 114
171 170 114
171 170 114
171 170 114
172 170 114
172 170 114
172 170 114
172 170 114
173 170 114
173 170 114
173 171 114
173 171 114
173 171 114
174 171 114
174 171 114
174 171 114
174 171 114
174 171 114
175 171 114
175 171 114
175 172 114
175 172 114
176 172 114
176 172 114
176 172 114
176 172 114
176 172 114
177 172 114
177 172 114
177 172 114
177 173 114
178 173 114
178 173 114
178 173 114
178 173 114
178 173 114
179 173 114
179 173 114
179 173 114
179 174 114
180 174 114
180 174 114
180 174 114
173 198 72
168 193 72
169 195 67
169 195 67
170 196 76
172 198 72
169 195 44
173 199 95
172 198 88
167 193 51
170 195 72
173 199 92
169 195 67
171 196 57
169 196 51
170 194 57
170 196 44
169 194 67
169 195 67
169 195 57
170 195 44
169 194 44
167 192 44
171 196 62
169 195 62
171 197 57
169 195 57
169 195 44
168 194 44
167 193 0
169 194 51
170 195 51
169 195 44
169 194 51
170 195 62
170 195 57
170 196 67
168 194 62
169 195 51
171 197 72
169 195 44
170 196 62
170 196 72
171 196 44
171 197 57
169 195 51
170 195 36
170 197 62
172 197 44
170 196 57
169 196 76
170 196 51
170 196 44
171 196 67
169 195 25
169 195 51
171 196 57
170 196 67
171 196 51
169 195 36
170 195 57
170 196 57
168 194 57
169 195 36
168 194 44
169 195 44
170 196 72
169 195 36
169 195 51
170 196 62
170 196 36
169 195 36
169 196 51
170 196 57
168 194 25
170 196 62
170 197 67
171 197 72
171 197 76
169 195 51
169 195 44
169 195 44
170 196 44
168 194 25
169 195 44
169 195 44
169 195 51
169 196 57
169 195 57
170 196 44
170 196 62
170 196 44
170 197 72
169 196 44
169 195 36
170 196 36
169 195 44
170 196 57
171 197 67
169 196 57
171 197 67
170 196 51
169 195 0
170 196 62
170 196 51
169 195 36
171 197 76
170 196 44
170 196 62
171 196 57
169 195 51
170 197 72
169 195 51
168 195 36
171 197 62
169 196 76
171 197 72
172 198 80
171 197 76
169 196 72
170 196 57
171 198 84
170 196 67
175 201 117
172 198 92
173 199 102
176 201 125
178 203 142
187 210 173
204 224 237
211 230 255
211 230 255
210 230 255
210 230 255
210 230 255
210 229 255
210 229 255
210 229 255
210 229 255
210 229 255
210 229 255
210 229 255
210 229 255
210 229 255
210 229 255
210 229 255
210 229 255
145 167 205
63 99 167
62 99 167
63 100 170
62 98 165
63 99 164
64 100 171
63 99 168
63 99 169
63 99 172
63 100 171
63 99 170
64 100 169
63 99 163
62 98 163
63 99 167
63 99 165
62 98 160
63 100 173
63 100 171
63 99 167
63 99 165
64 100 168
63 99 165
63 99 164
63 99 170
64 100 170
63 99 164
63 99 162
64 100 168
63 99 168
62 98 159
63 99 166
63 99 163
63 99 164
62 98 161
63 99 164
64 100 171
63 99 165
63 99 162
62 99 166
64 100 166
64 100 171
63 99 164
63 99 164
63 99 164
63 99 168
63 100 168
63 99 164
61 97 155
64 100 169
63 99 166
62 98 159
63 99 166
63 99 166
63 99 162
63 99 165
62 98 160
63 99 170
64 100 169
62 99 165
62 98 161
63 99 161
63 99 168
63 99 167
63 99 165
62 98 157
62 99 164
63 99 161
63 99 162
64 100 172
61 98 158
63 99 170
63 100 168
62 99 168
63 100 171
63 99 162
63 99 166
63 99 167
63 99 170
63 99 168
63 99 163
63 99 163
62 98 162
62 98 162
64 100 174
62 99 167
63 99 163
63 99 162
64 100 169
63 99 166
62 98 164
63 99 163
64 100 171
62 99 169
63 99 167
64 100 171
63 99 163
63 99 167
63 99 167
62 98 168
63 99 171
63 99 170
63 99 174
142 164 204
210 229 255
210 229 255
210 229 255
210 229 255
210 229 255
210 229 255
210 229 255
210 229 255
210 229 255
210 229 255
210 229 255
210 229 255
210 230 255
210 230 255
210 230 255
211 230 255
211 230 255
201 211 213
182 176 118
178 173 114
176 172 114
174 171 114
173 171 114
172 170 114
171 170 114
170 169 114
169 169 114
168 168 114
168 168 114
167 168 114
167 168 114
166 168 114
166 167 114
165 167 114
165 167 114
165 167 114
165 167 114
164 167 114
164 167 114
164 167 114
164 166 114
164 166 114
164 166 114
164 166 114
163 166 114
163 166 114
163 166 114
163 166 114
163 166 114
163 166 114
163 166 114
163 166 114
163 166 114
163 166 114
163 166 114
163 166 114
164 166 114
164 166 114
164 166 114
164 166 114
164 166 114
164 167 114
164 167 114
164 167 114
164 167 114
164 167 114
164 167 114
165 167 114
165 167 114
165 167 114
165 167 114
165 167 114
165 167 114
165 167 114
166 167 114
166 167 114
166 167 114
166 167 114
166 168 114
166 168 114
167 168 114
167 168 114
167 168 114
167 168 114
167 168 114
167 168 114
168 168 114
168 168 114
168 168 114
168 168 114
168 169 114
169 169 114
169 169 114
169 169 114
169 169 114
169 169 114
170 169 114
170 169 114
170 169 114
170 169 114
170 169 114
171 169 114
171 170 114
171 170 114
171 170 114
171 170 114
172 170 114
172 170 114
172 170 114
172 170 114
172 170 114
173 170 114
173 170 114
173 171 114
173 171 114
173 171 114
174 171 114
174 171 114
174 171 114
174 171 114
174 171 114
175 171 114
175 171 114
175 172 114
175 172 114
175 172 114
176 172 114
176 172 114
176 172 114
176 172 114
177 172 114
177 172 114
177 172 114
177 173 114
177 173 114
178 173 114
178 173 114
178 173 114
178 173 114
179 173 114
179 173 114
179 173 114
179 173 114
179 174 114
180 174 114
180 174 114
180 174 114
180 174 114
168 193 44
172 197 80
170 196 57
171 196 62
170 195 51
170 196 44
170 195 76
171 197 67
173 199 84
169 194 72
167 192 51
171 197 72
172 198 84
169 194 76
172 197 92
169 195 57
167 193 57
169 194 57
168 193 62
169 194 62
168 193 62
166 192 0
167 193 62
170 196 51
171 196 62
169 195 51
168 193 57
168 194 57
169 195 62
165 191 62
172 197 72
167 193 57
168 194 44
171 197 67
170 196 62
169 194 51
168 194 51
171 197 57
169 195 62
172 197 72
170 195 36
168 194 51
169 195 57
171 197 62
170 195 44
171 196 57
169 195 44
169 195 51
170 196 51
169 194 51
170 196 62
171 197 62
170 195 51
170 196 57
171 197 51
170 196 62
170 196 44
169 195 57
171 197 76
171 196 44
169 195 44
169 195 44
171 197 57
170 196 57
169 195 51
169 195 51
169 195 25
171 197 44
169 195 44
170 196 51
169 195 51
170 196 57
170 196 62
171 197 57
170 196 51
168 195 51
170 196 67
169 195 36
170 196 57
170 196 62
170 196 62
170 196 67
170 196 36
168 194 44
170 196 36
169 195 44
169 196 51
170 196 67
171 196 51
170 196 44
171 197 67
170 196 36
170 196 62
170 196 25
170 196 57
169 195 36
170 196 44
170 196 51
170 196 44
169 195 36
170 196 51
169 196 67
169 196 62
170 196 62
169 196 44
169 195 44
171 197 62
168 194 44
170 196 57
169 195 51
170 196 57
170 196 62
170 196 62
171 196 51
171 197 62
170 196 62
170 196 36
171 196 51
172 198 84
170 196 51
171 197 76
170 197 72
171 197 84
170 196 67
172 198 99
173 199 105
176 202 125
178 204 142
177 203 130
185 209 169
203 224 237
211 230 255
211 230 255
211 230 255
211 230 255
211 230 255
211 230 255
211 230 255
211 230 255
210 230 255
210 230 255
210 230 255
210 229 255
210 229 255
210 229 255
210 229 255
187 207 240
62 98 166
62 99 166
62 98 164
62 98 163
63 99 165
63 99 167
62 99 168
63 99 166
63 99 169
63 99 163
64 100 171
63 99 165
63 100 171
63 99 166
63 99 164
63 99 169
63 99 163
63 99 168
62 98 159
63 99 165
63 99 166
62 98 163
62 98 159
62 99 168
63 99 166
62 98 164
63 99 168
63 99 172
62 98 160
63 99 167
63 99 164
63 99 165
62 99 165
62 98 159
63 99 166
62 98 164
63 99 164
63 99 164
62 99 165
63 99 171
62 98 162
63 99 166
63 99 166
63 99 165
63 99 166
64 99 162
62 98 158
62 98 163
62 98 155
62 98 161
62 98 159
64 100 170
63 99 167
62 99 163
63 99 162
63 99 172
63 99 164
63 99 165
62 98 156
62 98 156
63 99 167
64 100 165
63 99 169
62 98 160
63 99 164
63 99 165
63 99 161
63 98 161
63 98 160
62 99 162
63 99 166
62 99 166
62 98 158
64 100 169
62 98 161
64 100 168
63 99 167
63 100 174
63 99 166
63 99 167
63 99 166
63 99 167
62 99 165
63 99 167
63 100 168
62 98 166
62 98 160
62 99 166
63 99 166
62 98 165
62 99 168
63 99 162
63 99 167
63 100 171
63 99 164
64 100 171
63 98 164
64 100 168
63 99 168
63 99 168
62 98 166
62 98 165
63 99 167
63 99 172
63 99 169
181 201 233
210 229 255
210 229 255
210 229 255
210 229 255
210 230 255
210 230 255
210 230 255
211 230 255
211 230 255
211 230 255
211 230 255
211 230 255
211 230 255
211 230 255
211 230 255
199 207 204
181 174 114
178 173 114
176 172 114
174 171 114
173 171 114
172 170 114
171 170 114
170 169 114
169 169 114
169 169 114
168 168 114
167 168 114
167 168 114
167 168 114
166 168 114
166 167 114
166 167 114
165 167 114
165 167 114
165 167 114
165 167 114
164 167 114
164 167 114
164 167 114
164 167 114
164 167 114
164 167 114
164 166 114
164 166 114
164 166 114
164 166 114
164 166 114
164 166 114
164 166 114
164 166 114
164 166 114
164 167 114
164 167 114
164 167 114
164 167 114
164 167 114
164 167 114
164 167 114
164 167 114
165 167 114
165 167 114
165 167 114
165 167 114
165 167 114
165 167 114
165 167 114
165 167 114
165 167 114
166 167 114
166 167 114
166 167 114
166 167 114
166 168 114
166 168 114
167 168 114
167 168 114
167 168 114
167 168 114
167 168 114
167 168 114
168 168 114
168 168 114
168 168 114
168 168 114
168 168 114
168 169 114
169 169 114
169 169 114
169 169 114
169 169 114
169 169 114
169 169 114
170 169 114
170 169 114
170 169 114
170 169 114
170 169 114
171 170 114
171 170 114
171 170 114
171 170 114
171 170 114
172 170 114
172 170 114
172 170 114
172 170 114
172 170 114
173 170 114
173 170 114
173 171 114
173 171 114
173 171 114
174 171 114
174 171 114
174 171 114
174 171 114
174 171 114
175 171 114
175 171 114
175 172 114
175 172 114
175 172 114
176 172 114
176 172 114
176 172 114
176 172 114
176 172 114
177 172 114
177 172 114
177 172 114
177 173 114
177 173 114
178 173 114
178 173 114
178 173 114
178 173 114
179 173 114
179 173 114
179 173 114
179 173 114
179 174 114
180 174 114
180 174 114
180 174 114
180 174 114
181 174 114
172 198 80
169 194 62
170 195 88
170 195 80
168 194 67
170 195 57
168 193 62
168 193 88
169 195 62
170 196 76
168 193 57
169 195 62
168 194 51
169 194 44
167 193 67
169 195 36
170 195 62
169 194 72
171 197 67
170 195 57
172 197 84
166 191 62
167 193 51
167 192 44
169 194 51
168 194 57
169 195 62
169 195 57
169 195 67
168 195 62
169 195 36
168 195 44
169 195 57
169 194 57
171 197 57
170 195 57
169 194 57
169 195 44
169 194 44
170 195 44
169 195 25
167 194 62
170 196 57
172 197 62
169 194 44
170 196 51
171 197 76
166 191 44
170 196 44
169 194 25
170 196 62
170 196 36
170 196 57
169 195 51
169 194 51
169 195 62
170 196 80
171 197 62
171 197 57
166 192 36
169 195 57
171 197 57
170 197 67
169 196 62
170 196 44
170 196 44
170 196 51
170 195 44
171 197 57
170 196 51
170 195 36
172 197 44
170 196 72
169 195 25
169 195 57
169 195 51
168 195 57
171 197 57
169 195 36
169 195 44
169 196 51
169 195 44
169 195 44
170 196 44
168 195 36
168 194 44
169 195 51
170 196 57
169 195 44
170 196 51
171 197 62
170 196 67
170 196 57
169 195 44
170 195 44
169 196 57
168 195 62
169 196 51
170 196 57
170 196 36
170 196 51
169 195 36
170 196 57
171 197 62
171 197 67
171 197 72
168 194 0
170 197 72
171 196 57
170 196 57
170 196 62
171 197 76
169 195 44
171 196 36
169 195 44
169 196 51
172 198 80
171 197 62
171 197 72
171 197 67
171 197 67
171 197 72
172 198 84
173 199 92
172 197 62
172 199 95
172 197 76
174 200 102
178 203 140
177 202 140
186 209 169
203 224 234
211 230 255
211 230 255
211 230 255
211 230 255
211 230 255
211 230 255
211 230 255
211 230 255
211 230 255
211 230 255
211 230 255
211 230 255
211 230 255
207 226 253
82 113 171
62 99 169
62 99 166
63 99 164
63 99 166
62 98 164
63 99 167
62 98 158
62 98 162
62 98 162
64 100 169
64 101 174
62 98 162
63 100 170
63 99 165
63 99 167
63 99 171
63 99 166
62 98 159
62 98 155
63 99 167
62 98 161
63 99 166
62 99 164
63 99 166
62 98 164
62 98 159
63 99 170
63 99 166
63 99 167
62 98 162
64 100 170
62 99 164
63 99 166
62 98 159
63 99 163
63 99 161
63 99 167
63 99 168
63 99 162
63 100 170
62 99 163
63 99 171
63 99 163
63 99 167
63 99 163
63 99 164
62 98 160
62 98 162
64 100 168
63 99 160
62 98 159
62 98 157
63 99 162
63 99 169
62 98 161
63 99 164
63 99 163
63 99 161
63 99 162
63 100 168
62 98 154
63 99 164
63 99 164
63 99 167
62 99 166
62 98 164
62 98 158
63 99 164
63 99 162
63 99 163
63 99 163
64 100 172
62 98 157
63 99 162
62 99 162
62 98 156
63 99 168
63 99 166
63 99 168
62 98 162
62 98 157
63 100 167
63 99 160
63 99 164
62 98 161
64 99 163
63 98 165
63 99 165
62 98 160
63 99 168
62 98 159
64 100 170
62 98 166
63 99 166
62 98 160
63 100 171
62 98 165
63 99 163
61 97 155
63 99 169
63 99 168
62 98 163
62 98 166
62 97 161
62 98 164
104 131 194
205 224 252
211 230 255
211 230 255
211 230 255
211 230 255
211 230 255
211 230 255
211 230 255
211 230 255
211 230 255
211 230 255
211 230 255
211 230 255
211 230 255
197 202 192
181 174 114
178 173 114
176 172 114
175 171 114
173 171 114
172 170 114
171 170 114
170 169 114
170 169 114
169 169 114
168 169 114
168 168 114
167 168 114
167 168 114
167 168 114
166 168 114
166 167 114
166 167 114
166 167 114
165 167 114
165 167 114
165 167 114
165 167 114
165 167 114
165 167 114
164 167 114
164 167 114
164 167 114
164 167 114
164 167 114
164 167 114
164 167 114
164 167 114
164 167 114
164 167 114
164 167 114
164 167 114
164 167 114
164 167 114
165 167 114
165 167 114
165 167 114
165 167 114
165 167 114
165 167 114
165 167 114
165 167 114
165 167 114
165 167 114
166 167 114
166 167 114
166 167 114
166 167 114
166 167 114
166 168 114
166 168 114
166 168 114
167 168 114
167 168 114
167 168 114
167 168 114
167 168 114
167 168 114
168 168 114
168 168 114
168 168 114
168 168 114
168 168 114
168 169 114
169 169 114
169 169 114
169 169 114
169 169 114
169 169 114
170 169 114
170 169 114
170 169 114
170 169 114
170 169 114
170 169 114
171 170 114
171 170 114
171 170 114
171 170 114
171 170 114
172 170 114
172 170 114
172 170 114
172 170 114
172 170 114
172 170 114
173 170 114
173 171 114
173 171 114
173 171 114
173 171 114
174 171 114
174 171 114
174 171 114
174 171 114
174 171 114
175 171 114
175 171 114
175 172 114
175 172 114
175 172 114
176 172 114
176 172 114
176 172 114
176 172 114
176 172 114
177 172 114
177 172 114
177 172 114
177 173 114
177 173 114
178 173 114
178 173 114
178 173 114
178 173 114
178 173 114
179 173 114
179 173 114
179 173 114
179 174 114
180 174 114
180 174 114
180 174 114
180 174 114
180 174 114
181 174 114
181 174 114
168 193 72
168 194 25
171 197 57
168 193 57
169 195 67
167 193 44
170 195 67
167 192 51
167 193 80
166 192 57
170 195 62
167 192 51
168 194 51
170 196 72
168 193 67
168 194 51
166 191 51
169 194 44
167 193 44
168 193 44
169 194 67
168 194 84
171 197 57
168 193 57
170 196 57
170 196 72
168 193 36
169 195 51
170 196 51
171 197 57
168 193 51
171 196 62
171 196 44
169 194 67
170 195 51
171 197 72
169 194 36
169 195 57
169 194 44
168 194 25
171 196 25
167 192 0
171 197 57
168 194 62
170 195 25
172 197 67
169 194 36
170 196 62
170 195 57
171 197 62
171 197 76
170 195 67
170 195 25
169 194 57
169 195 51
169 195 67
170 196 67
168 194 51
169 195 57
169 195 57
170 196 36
172 197 44
169 195 57
168 194 25
168 194 57
171 196 44
170 196 36
170 195 62
170 196 36
170 195 44
171 197 76
170 197 67
169 196 76
169 195 44
169 195 44
168 194 51
169 195 44
170 196 62
169 196 51
170 197 67
169 195 44
170 196 51
169 196 62
170 196 67
168 195 51
170 196 51
170 196 57
170 196 57
170 196 51
171 196 44
169 196 57
170 196 57
170 196 62
169 195 36
171 196 51
169 196 57
170 196 51
169 196 62
170 196 44
169 195 44
171 197 80
170 196 44
169 196 44
170 196 62
171 196 51
170 196 51
171 197 51
170 196 44
168 195 51
169 195 57
170 196 67
171 196 51
170 197 72
170 196 57
170 196 67
170 196 62
170 196 44
171 197 57
171 197 72
171 197 72
171 196 51
173 198 88
171 197 67
171 197 62
171 198 88
169 195 62
174 199 92
173 199 92
172 198 84
174 199 111
179 204 142
181 206 149
200 221 224
211 230 254
211 230 255
211 230 255
211 230 255
211 230 255
211 230 255
211 230 255
211 230 255
211 230 255
211 230 255
211 230 255
211 230 255
142 164 207
63 99 170
63 99 167
63 99 168
62 98 162
63 99 169
62 98 159
62 99 166
62 99 164
62 98 163
63 99 164
63 99 168
63 99 163
62 98 163
64 100 167
63 99 162
63 99 165
63 99 167
62 98 161
62 98 160
62 98 157
63 99 167
63 99 165
63 99 166
63 99 162
62 98 159
63 99 160
63 99 165
62 98 156
63 99 164
63 99 162
62 98 159
62 99 162
63 99 163
63 99 158
62 98 162
63 99 164
62 98 158
63 99 164
62 98 156
63 99 165
63 98 160
62 98 162
62 98 157
62 98 155
62 98 161
63 99 170
63 99 161
64 100 170
63 99 167
63 98 158
63 99 166
62 98 158
63 99 163
64 100 172
63 98 158
62 98 160
62 98 161
62 98 162
64 100 166
63 99 161
62 97 151
62 98 158
63 99 163
64 100 170
63 99 166
63 99 167
64 100 169
62 98 157
63 99 163
63 99 160
64 100 165
63 99 166
63 99 164
63 99 161
63 99 168
64 100 170
63 99 162
63 99 164
64 99 162
63 99 160
63 99 163
63 99 163
62 98 156
62 98 158
62 98 161
63 98 163
63 99 161
63 99 164
62 98 158
62 98 159
63 99 164
63 99 166
63 99 163
64 100 174
63 100 168
62 98 163
62 98 163
62 98 163
63 99 170
62 98 164
62 98 163
63 99 164
63 98 165
62 98 161
62 98 162
63 98 163
62 97 160
139 161 204
211 230 255
211 230 255
211 230 255
211 230 255
211 230 255
211 230 255
211 230 255
211 230 255
211 230 255
211 230 255
211 230 255
211 230 254
193 195 172
181 174 114
178 173 114
177 172 114
175 172 114
174 171 114
173 170 114
172 170 114
171 170 114
170 169 114
169 169 114
169 169 114
168 169 114
168 168 114
168 168 114
167 168 114
167 168 114
167 168 114
166 168 114
166 167 114
166 167 114
166 167 114
165 167 114
165 167 114
165 167 114
165 167 114
165 167 114
165 167 114
165 167 114
165 167 114
165 167 114
165 167 114
165 167 114
165 167 114
165 167 114
165 167 114
165 167 114
165 167 114
165 167 114
165 167 114
165 167 114
165 167 114
165 167 114
165 167 114
165 167 114
165 167 114
166 167 114
166 167 114
166 167 114
166 167 114
166 167 114
166 168 114
166 168 114
166 168 114
167 168 114
167 168 114
167 168 114
167 168 114
167 168 114
167 168 114
167 168 114
168 168 114
168 168 114
168 168 114
168 168 114
168 168 114
168 168 114
169 169 114
169 169 114
169 169 114
169 169 114
169 169 114
169 169 114
170 169 114
170 169 114
170 169 114
170 169 114
170 169 114
170 169 114
171 170 114
171 170 114
171 170 114
171 170 114
171 170 114
172 170 114
172 170 114
172 170 114
172 170 114
172 170 114
172 170 114
173 170 114
173 171 114
173 171 114
173 171 114
173 171 114
174 171 114
174 171 114
174 171 114
174 171 114
174 171 114
175 171 114
175 171 114
175 171 114
175 172 114
175 172 114
175 172 114
176 172 114
176 172 114
176 172 114
176 172 114
176 172 114
177 172 114
177 172 114
177 172 114
177 173 114
177 173 114
178 173 114
178 173 114
178 173 114
178 173 114
178 173 114
179 173 114
179 173 114
179 173 114
179 173 114
179 174 114
180 174 114
180 174 114
180 174 114
180 174 114
180 174 114
181 174 114
181 174 114
181 174 114
170 196 72
167 192 51
170 195 80
168 193 76
166 192 57
172 197 62
170 196 57
170 195 51
170 195 72
169 194 72
169 194 67
168 193 51
169 195 36
171 196 84
170 195 51
170 195 62
171 196 57
167 191 76
168 193 62
165 191 36
170 196 62
166 191 51
168 194 25
168 193 57
169 194 67
170 195 67
167 193 51
169 194 44
168 194 36
168 193 51
170 195 84
168 195 62
168 194 57
169 195 67
169 194 62
169 195 62
167 193 36
172 197 72
170 195 67
168 194 25
168 194 44
169 195 57
171 196 44
170 195 44
169 194 25
168 193 57
168 195 36
169 196 44
169 195 51
169 195 57
168 194 51
169 195 51
166 191 36
170 196 72
171 197 72
170 196 51
169 194 36
168 194 62
171 198 84
170 196 51
171 197 80
168 194 36
170 196 57
169 195 57
170 196 51
170 196 51
170 196 51
170 196 51
171 196 51
168 194 51
172 198 72
170 196 62
171 197 57
170 196 44
171 196 51
169 196 44
170 196 57
171 197 62
169 195 51
170 196 44
170 196 51
170 196 44
169 195 36
170 195 51
171 197 57
170 196 36
171 197 67
171 197 72
170 196 36
171 197 62
171 196 57
171 197 67
169 196 62
169 195 44
170 197 80
170 196 57
169 196 62
170 196 62
171 197 62
170 196 57
169 196 67
170 196 72
171 196 44
170 196 51
170 196 36
170 196 57
168 195 25
170 195 36
171 197 72
170 196 44
169 196 57
170 196 62
168 195 0
169 196 57
170 196 51
172 197 76
170 196 51
170 196 62
170 196 51
171 197 72
171 196 62
171 197 62
172 197 62
172 197 72
172 198 95
171 197 67
172 198 84
171 197 67
173 199 95
175 201 114
176 201 122
179 204 140
183 207 171
204 225 237
211 230 255
211 230 255
211 230 255
211 230 255
211 230 255
211 230 255
211 230 255
211 230 255
211 230 255
211 230 255
181 201 236
62 98 160
63 99 164
62 98 161
63 99 164
63 99 169
63 99 163
63 99 164
62 99 166
63 99 166
63 99 167
63 99 166
63 99 168
63 99 167
63 99 164
64 100 171
62 98 161
64 100 173
62 98 161
63 99 162
64 100 171
63 99 165
62 99 165
63 98 161
63 99 162
63 99 162
62 98 160
63 99 166
63 99 159
62 99 163
63 99 160
62 98 159
63 99 162
63 100 171
63 99 162
62 98 162
63 98 160
62 97 155
62 98 156
63 99 165
63 99 165
63 99 165
63 99 162
63 99 160
63 99 166
62 98 160
62 98 162
64 100 169
63 99 165
63 99 168
63 99 163
63 99 162
63 99 166
63 99 161
62 98 159
64 100 174
62 98 156
63 99 165
64 100 166
62 98 161
62 98 155
62 98 156
64 100 167
63 98 159
63 99 166
63 99 165
63 99 160
63 98 156
63 99 160
62 98 156
62 98 161
63 99 160
63 99 162
63 99 163
64 100 167
63 99 165
64 100 168
64 99 164
62 98 162
63 99 160
63 99 164
63 99 163
63 99 164
62 98 162
62 98 159
64 100 165
63 99 163
63 99 160
64 100 168
63 99 164
62 98 160
63 99 162
63 99 166
63 99 166
62 98 162
63 98 163
64 100 170
63 99 163
62 98 161
63 99 169
63 99 162
63 98 163
63 99 169
62 99 169
62 98 158
62 98 162
62 98 162
63 99 166
63 98 166
63 98 166
180 199 232
211 230 255
211 230 255
211 230 255
211 230 255
211 230 255
211 230 255
211 230 255
211 230 255
211 230 255
211 230 255
199 205 198
182 175 114
179 173 114
177 172 114
176 172 114
174 171 114
173 171 114
172 170 114
171 170 114
171 170 114
170 169 114
169 169 114
169 169 114
168 169 114
168 168 114
168 168 114
167 168 114
167 168 114
167 168 114
167 168 114
166 168 114
166 168 114
166 167 114
166 167 114
166 167 114
166 167 114
166 167 114
166 167 114
165 167 114
165 167 114
165 167 114
165 167 114
165 167 114
165 167 114
165 167 114
165 167 114
165 167 114
165 167 114
166 167 114
166 167 114
166 167 114
166 167 114
166 167 114
166 167 114
166 167 114
166 167 114
166 168 114
166 168 114
166 168 114
166 168 114
167 168 114
167 168 114
167 168 114
167 168 114
167 168 114
167 168 114
167 168 114
168 168 114
168 168 114
168 168 114
168 168 114
168 168 114
168 168 114
168 169 114
169 169 114
169 169 114
169 169 114
169 169 114
169 169 114
169 169 114
169 169 114
170 169 114
170 169 114
170 169 114
170 169 114
170 169 114
171 169 114
171 170 114
171 170 114
171 170 114
171 170 114
171 170 114
172 170 114
172 170 114
172 170 114
172 170 114
172 170 114
172 170 114
173 170 114
173 171 114
173 171 114
173 171 114
173 171 114
174 171 114
174 171 114
174 171 114
174 171 114
174 171 114
174 171 114
175 171 114
175 171 114
175 172 114
175 172 114
175 172 114
176 172 114
176 172 114
176 172 114
176 172 114
176 172 114
176 172 114
177 172 114
177 172 114
177 172 114
177 173 114
177 173 114
178 173 114
178 173 114
178 173 114
178 173 114
178 173 114
179 173 114
179 173 114
179 173 114
179 173 114
179 174 114
180 174 114
180 174 114
180 174 114
180 174 114
180 174 114
181 174 114
181 174 114
181 174 114
181 174 114
181 174 114
172 197 76
168 194 57
170 195 80
165 191 51
169 195 57
165 190 44
166 191 51
169 195 57
170 195 51
171 196 95
170 195 67
168 194 62
167 192 57
167 193 51
169 194 57
169 195 51
166 191 36
168 194 25
167 192 36
166 191 36
168 193 67
166 192 57
167 192 51
168 194 57
167 192 36
163 189 44
167 193 51
168 193 44
167 193 51
169 195 57
169 195 36
167 193 62
169 195 57
171 197 67
167 192 44
167 193 25
168 194 44
171 196 67
170 195 57
167 193 36
167 193 62
171 196 62
169 194 51
170 195 44
169 195 57
169 194 44
169 195 67
169 195 62
169 195 67
171 197 62
171 196 57
170 196 36
170 196 51
169 194 57
171 197 67
169 195 62
170 195 57
170 197 62
170 196 62
169 194 36
168 194 44
171 197 62
169 195 25
171 197 57
169 195 62
170 196 57
168 195 36
170 196 67
170 196 36
171 196 36
171 197 67
171 197 62
169 195 25
167 193 36
169 195 57
171 196 44
169 195 57
170 195 36
169 195 51
169 195 44
170 196 36
170 196 72
170 196 44
168 195 44
171 197 57
170 196 57
168 195 44
170 196 57
170 196 51
169 195 44
170 196 44
171 196 57
170 196 44
170 197 67
169 195 36
169 195 36
170 196 44
170 196 36
170 196 62
170 196 62
170 196 36
171 197 76
169 195 36
169 196 62
170 196 62
170 196 51
171 196 51
170 196 36
170 196 36
170 196 51
170 196 57
170 196 57
170 196 57
169 196 51
170 196 67
169 195 44
172 198 80
169 196 51
170 196 57
171 197 72
173 199 95
170 196 44
170 196 51
172 198 84
170 196 44
172 197 76
170 197 88
172 198 88
173 199 88
173 199 95
174 200 102
176 202 117
178 203 133
183 207 155
203 223 230
212 230 255
212 230 255
212 230 255
212 230 255
212 230 255
212 230 255
211 230 255
211 230 255
208 226 253
91 119 173
63 99 165
61 97 155
62 99 167
62 99 167
63 100 170
63 98 159
63 99 166
63 99 168
62 98 159
63 99 166
64 100 171
63 99 160
63 99 166
63 99 165
62 98 157
63 99 162
63 99 163
63 98 158
63 99 162
62 98 156
63 99 162
63 99 165
63 100 169
63 99 163
64 100 166
63 99 167
63 99 168
64 100 165
62 98 159
63 99 164
63 99 167
63 99 161
63 99 162
63 98 160
64 99 162
63 99 164
62 98 159
63 99 165
63 99 164
63 99 162
62 98 155
62 98 161
63 99 165
62 98 158
63 99 162
62 98 158
63 99 166
62 98 157
62 98 157
63 99 163
62 97 154
63 99 165
63 99 164
61 97 156
64 100 168
63 99 161
63 99 164
63 100 168
63 99 161
63 99 159
62 98 159
63 99 163
64 100 166
63 99 166
63 99 162
63 98 162
62 98 160
62 98 153
64 100 169
63 99 165
62 98 157
62 98 158
63 99 167
62 98 160
63 99 166
62 98 162
62 98 161
63 100 170
62 98 155
63 99 164
63 98 157
63 98 161
62 99 163
63 99 162
63 99 165
63 99 164
63 99 160
63 99 163
62 99 166
62 98 160
63 99 164
64 100 166
63 99 164
62 97 152
63 99 160
63 99 163
63 99 164
62 98 159
63 99 166
62 98 160
63 99 170
63 99 166
64 99 169
63 99 162
63 99 167
62 97 155
62 97 157
63 98 165
63 99 170
96 123 179
209 227 254
211 230 255
211 230 255
212 230 255
212 230 255
212 230 255
212 230 255
212 230 255
212 230 255
200 207 202
182 175 114
180 174 114
177 173 114
176 172 114
175 171 114
174 171 114
173 170 114
172 170 114
171 170 114
171 169 114
170 169 114
169 169 114
169 169 114
169 169 114
168 168 114
168 168 114
168 168 114
167 168 114
167 168 114
167 168 114
167 168 114
167 168 114
166 168 114
166 168 114
166 168 114
166 168 114
166 167 114
166 167 114
166 167 114
166 167 114
166 167 114
166 167 114
166 167 114
166 167 114
166 167 114
166 167 114
166 167 114
166 167 114
166 168 114
166 168 114
166 168 114
166 168 114
166 168 114
167 168 114
167 168 114
167 168 114
167 168 114
167 168 114
167 168 114
167 168 114
167 168 114
167 168 114
168 168 114
168 168 114
168 168 114
168 168 114
168 168 114
168 168 114
168 168 114
168 169 114
169 169 114
169 169 114
169 169 114
169 169 114
169 169 114
169 169 114
170 169 114
170 169 114
170 169 114
170 169 114
170 169 114
170 169 114
170 169 114
171 170 114
171 170 114
171 170 114
171 170 114
171 170 114
172 170 114
172 170 114
172 170 114
172 170 114
172 170 114
172 170 114
173 170 114
173 170 114
173 171 114
173 171 114
173 171 114
173 171 114
174 171 114
174 171 114
174 171 114
174 171 114
174 171 114
174 171 114
175 171 114
175 171 114
175 172 114
175 172 114
175 172 114
176 172 114
176 172 114
176 172 114
176 172 114
176 172 114
176 172 114
177 172 114
177 172 114
177 172 114
177 173 114
177 173 114
178 173 114
178 173 114
178 173 114
178 173 114
178 173 114
178 173 114
179 173 114
179 173 114
179 173 114
179 173 114
179 174 114
180 174 114
180 174 114
180 174 114
180 174 114
180 174 114
181 174 114
181 174 114
181 174 114
181 174 114
181 174 114
182 175 114
182 175 114
169 195 44
172 198 67
168 193 44
168 193 62
168 194 44
169 194 62
171 196 72
171 196 67
170 195 57
167 192 62
167 192 51
167 192 44
170 195 72
167 192 36
168 194 51
169 194 67
170 195 67
167 192 51
165 190 36
169 195 51
169 194 62
165 189 57
168 192 76
165 191 44
168 194 57
169 194 44
167 193 44
170 196 67
167 193 44
167 193 51
168 194 44
169 195 44
169 195 57
167 193 51
168 193 44
169 195 72
167 193 25
168 194 51
170 196 57
170 195 36
169 195 62
170 196 72
169 194 36
168 194 51
167 193 36
170 196 62
169 195 51
168 194 36
167 193 44
171 197 44
170 195 36
169 195 51
170 196 57
169 194 36
169 194 57
170 196 44
171 197 67
169 195 67
169 194 51
168 194 36
169 195 51
171 197 51
169 195 36
170 196 51
170 196 57
168 193 51
172 197 51
168 194 57
171 197 62
171 197 57
173 198 80
169 195 57
168 194 0
169 195 36
169 195 36
170 196 62
170 196 57
170 197 62
169 195 51
167 194 67
169 195 36
168 194 57
170 196 62
170 196 51
170 196 51
170 195 36
170 196 62
170 196 51
171 196 44
169 195 44
169 195 25
170 196 57
169 195 57
170 195 44
169 195 51
169 195 36
170 196 44
171 197 62
170 196 62
169 195 25
169 195 51
171 197 57
171 197 62
169 196 51
170 196 57
169 195 25
170 196 36
169 196 51
169 196 44
171 197 44
169 195 51
169 195 36
171 197 72
170 196 51
169 196 51
170 196 51
171 197 67
171 196 51
171 197 57
170 196 44
170 196 36
170 196 67
170 196 0
171 197 67
171 196 51
171 197 72
171 197 76
173 199 95
174 199 99
172 198 80
172 198 88
173 198 99
177 202 130
179 204 137
185 209 172
206 225 237
212 230 255
212 230 255
212 230 255
212 230 255
212 230 255
212 230 255
212 230 255
151 172 210
62 98 164
63 99 161
62 98 161
63 99 168
63 99 170
62 98 165
63 99 165
63 99 167
62 98 161
63 99 166
64 100 168
63 99 161
62 98 161
63 99 165
62 98 158
62 98 160
63 99 165
62 98 156
63 99 165
63 99 168
62 98 159
63 99 162
63 99 163
63 99 164
63 99 163
63 99 164
64 100 168
63 99 163
62 98 156
63 99 167
62 98 157
63 99 161
63 99 161
62 98 154
63 99 165
63 99 163
64 100 166
63 99 161
63 99 164
63 98 159
63 99 163
63 99 161
63 99 161
62 98 158
63 99 167
62 98 159
63 99 164
63 99 165
63 99 166
61 97 150
63 99 165
63 98 161
63 99 161
63 99 163
61 97 151
63 99 165
63 99 165
62 98 160
63 99 163
62 98 162
63 99 161
63 98 156
63 98 159
63 99 165
63 99 163
63 99 161
61 96 145
63 99 159
63 98 156
62 98 155
62 98 157
62 98 160
63 99 161
64 100 164
62 98 157
63 99 160
62 98 158
64 100 165
63 99 163
62 98 157
62 98 157
63 99 166
63 99 166
64 100 169
63 98 159
62 99 163
63 99 163
64 99 166
63 99 159
62 98 158
64 100 172
62 98 159
63 99 161
63 99 161
63 99 162
63 99 164
63 99 165
62 98 159
63 99 165
63 99 164
63 99 169
63 99 165
63 99 159
63 99 162
63 99 167
63 99 168
63 99 164
63 99 166
62 97 162
63 98 167
62 97 161
151 172 210
212 230 255
212 230 255
212 230 255
212 230 255
212 230 255
212 230 255
212 230 255
201 208 204
183 175 114
180 174 114
178 173 114
176 172 114
175 172 114
174 171 114
173 171 114
172 170 114
172 170 114
171 170 114
171 169 114
170 169 114
170 169 114
169 169 114
169 169 114
169 169 114
168 168 114
168 168 114
168 168 114
168 168 114
167 168 114
167 168 114
167 168 114
167 168 114
167 168 114
167 168 114
167 168 114
167 168 114
167 168 114
167 168 114
167 168 114
167 168 114
167 168 114
167 168 114
167 168 114
167 168 114
167 168 114
167 168 114
167 168 114
167 168 114
167 168 114
167 168 114
167 168 114
167 168 114
167 168 114
167 168 114
167 168 114
168 168 114
168 168 114
168 168 114
168 168 114
168 168 114
168 168 114
168 168 114
168 168 114
168 169 114
169 169 114
169 169 114
169 169 114
169 169 114
169 169 114
169 169 114
169 169 114
170 169 114
170 169 114
170 169 114
170 169 114
170 169 114
170 169 114
171 169 114
171 170 114
171 170 114
171 170 114
171 170 114
171 170 114
171 170 114
172 170 114
172 170 114
172 170 114
172 170 114
172 170 114
172 170 114
173 170 114
173 171 114
173 171 114
173 171 114
173 171 114
173 171 114
174 171 114
174 171 114
174 171 114
174 171 114
174 171 114
175 171 114
175 171 114
175 171 114
175 172 114
175 172 114
175 172 114
176 172 114
176 172 114
176 172 114
176 172 114
176 172 114
176 172 114
177 172 114
177 172 114
177 172 114
177 172 114
177 173 114
177 173 114
178 173 114
178 173 114
178 173 114
178 173 114
178 173 114
179 173 114
179 173 114
179 173 114
179 173 114
179 173 114
179 174 114
180 174 114
180 174 114
180 174 114
180 174 114
180 174 114
181 174 114
181 174 114
181 174 114
181 174 114
181 174 114
182 175 114
182 175 114
182 175 114
182 175 114
168 193 88
169 194 51
171 197 80
167 193 44
172 197 92
163 187 57
169 193 62
165 190 44
169 194 51
168 192 57
170 195 51
169 194 36
165 191 67
168 192 57
169 193 62
168 194 51
169 194 51
170 195 51
167 192 36
167 193 51
167 192 51
165 190 44
168 194 51
168 193 57
168 192 44
171 196 67
169 194 57
168 194 51
167 192 51
169 195 44
169 195 57
168 194 57
166 192 51
169 194 36
168 194 67
168 194 51
169 195 51
167 193 51
166 192 44
169 194 44
168 192 67
171 196 62
167 193 36
169 194 36
170 195 57
168 193 44
172 197 62
166 192 51
167 193 25
169 194 57
169 195 51
169 195 62
169 195 51
168 194 51
168 193 36
169 195 51
169 194 57
167 193 44
168 193 44
167 193 44
168 195 36
167 193 57
170 196 44
170 196 44
168 193 0
169 194 44
170 196 62
169 195 51
168 194 36
170 195 25
168 194 0
170 196 36
166 191 44
168 194 0
169 195 36
169 195 36
172 197 57
171 196 51
170 196 44
170 195 44
170 196 44
170 195 51
170 196 25
169 195 44
168 194 62
168 195 57
170 196 44
170 196 57
170 196 36
170 196 44
169 195 62
170 196 72
172 197 51
170 196 51
170 196 62
170 195 51
172 197 72
169 195 57
169 195 36
171 197 57
170 196 36
170 197 62
170 196 51
169 195 0
171 197 67
171 196 57
171 197 72
171 196 25
169 195 36
170 196 57
169 195 25
171 196 51
169 196 51
171 197 62
170 196 62
170 196 25
170 196 57
169 195 44
171 196 44
170 196 44
170 196 57
170 196 57
171 196 67
171 197 57
171 197 72
171 197 62
171 197 72
172 198 80
171 197 67
172 198 67
172 197 80
177 202 128
172 198 76
177 203 130
179 203 135
191 214 196
207 226 240
212 230 255
212 230 255
212 230 255
212 230 255
212 230 255
205 224 250
68 102 165
63 99 164
62 98 158
63 99 164
61 97 155
63 99 160
63 100 173
62 98 161
63 99 158
62 98 160
63 99 167
64 100 167
62 98 153
63 99 161
62 98 160
63 99 162
63 99 166
62 98 161
63 99 164
63 99 161
63 99 163
62 98 162
63 99 160
63 99 160
62 98 158
63 99 163
62 98 156
63 99 167
62 98 153
63 99 160
63 99 164
62 98 156
63 99 159
62 98 159
63 99 162
63 98 155
63 99 165
62 98 157
63 98 156
62 98 159
62 98 161
62 98 156
62 98 160
63 99 160
63 99 166
62 98 157
63 99 165
61 97 151
62 98 155
62 98 154
63 99 160
63 99 158
64 100 170
63 99 165
63 98 159
63 99 165
63 99 161
64 100 168
62 98 160
62 98 158
62 98 160
62 97 153
62 98 158
63 99 163
62 98 162
64 100 168
64 100 167
63 99 162
64 100 166
63 99 165
63 99 161
63 99 163
63 99 162
62 97 154
62 98 159
63 99 163
62 98 160
63 99 162
63 99 161
63 99 161
63 99 162
63 99 166
63 99 164
62 98 156
63 99 163
63 99 158
63 99 164
62 98 157
64 99 167
64 100 169
63 99 161
63 99 164
63 98 159
62 98 158
62 98 159
63 99 163
63 99 165
63 99 160
62 98 159
62 98 160
62 98 161
63 99 161
63 99 164
63 99 166
62 98 159
62 97 159
63 98 162
63 99 167
63 99 168
63 98 163
62 98 162
62 97 159
66 100 168
206 225 251
212 230 255
212 230 255
212 230 255
212 230 255
212 230 255
206 219 230
184 176 116
181 174 114
179 173 114
177 173 114
176 172 114
175 171 114
174 171 114
173 171 114
172 170 114
172 170 114
171 170 114
171 170 114
170 169 114
170 169 114
170 169 114
169 169 114
169 169 114
169 169 114
169 169 114
168 168 114
168 168 114
168 168 114
168 168 114
168 168 114
168 168 114
167 168 114
167 168 114
167 168 114
167 168 114
167 168 114
167 168 114
167 168 114
167 168 114
167 168 114
167 168 114
167 168 114
167 168 114
167 168 114
167 168 114
168 168 114
168 168 114
168 168 114
168 168 114
168 168 114
168 168 114
168 168 114
168 168 114
168 168 114
168 168 114
168 168 114
169 169 114
169 169 114
169 169 114
169 169 114
169 169 114
169 169 114
169 169 114
169 169 114
169 169 114
170 169 114
170 169 114
170 169 114
170 169 114
170 169 114
170 169 114
170 169 114
171 169 114
171 170 114
171 170 114
171 170 114
171 170 114
171 170 114
172 170 114
172 170 114
172 170 114
172 170 114
172 170 114
172 170 114
172 170 114
173 170 114
173 171 114
173 171 114
173 171 114
173 171 114
173 171 114
174 171 114
174 171 114
174 171 114
174 171 114
174 171 114
174 171 114
175 171 114
175 171 114
175 171 114
175 172 114
175 172 114
175 172 114
176 172 114
176 172 114
176 172 114
176 172 114
176 172 114
176 172 114
177 172 114
177 172 114
177 172 114
177 172 114
177 173 114
177 173 114
178 173 114
178 173 114
178 173 114
178 173 114
178 173 114
178 173 114
179 173 114
179 173 114
179 173 114
179 173 114
179 174 114
180 174 114
180 174 114
180 174 114
180 174 114
180 174 114
180 174 114
181 174 114
181 174 114
181 174 114
181 174 114
181 174 114
181 175 114
182 175 114
182 175 114
182 175 114
182 175 114
182 175 114
169 194 44
170 195 76
168 193 65
167 192 57
169 194 62
171 196 57
169 195 57
170 195 62
170 195 70
169 195 62
168 194 72
168 193 62
167 193 36
172 197 72
169 195 76
166 191 36
169 194 25
171 196 67
169 194 44
167 193 36
165 190 44
165 191 67
169 193 51
170 196 51
169 195 44
169 195 36
169 194 72
167 193 36
166 191 25
168 194 36
168 193 51
169 194 67
169 194 62
167 191 44
166 192 51
171 196 76
165 191 44
169 195 44
165 190 51
170 195 67
169 194 62
171 197 76
169 195 51
170 196 62
167 193 25
167 193 57
168 194 44
169 195 36
170 195 57
168 194 51
167 193 36
168 194 51
168 194 44
171 197 72
170 195 51
169 195 44
167 193 36
168 194 44
170 196 36
171 197 51
170 195 72
168 194 51
170 195 44
169 195 51
170 196 72
171 196 44
170 196 57
168 194 51
170 196 51
169 196 67
168 194 36
170 195 62
170 196 44
169 195 36
171 196 57
171 197 62
169 195 25
167 193 0
169 195 51
170 195 44
171 196 51
170 196 51
170 196 57
171 197 67
170 195 51
168 195 44
170 196 44
170 196 51
170 196 44
171 197 62
170 196 51
170 196 67
170 196 57
170 196 36
171 197 62
169 195 57
170 196 44
169 195 44
170 195 25
171 197 62
171 197 72
171 196 44
171 197 67
171 196 25
171 196 51
170 196 62
170 196 51
170 196 51
170 196 44
169 195 44
171 197 57
170 196 36
170 196 44
170 196 57
173 198 84
170 196 57
172 197 44
169 195 25
171 196 25
170 196 57
172 197 72
169 195 36
170 196 57
170 196 62
171 196 57
171 197 72
172 198 92
172 197 72
170 196 51
170 197 67
171 197 72
172 198 80
172 198 80
174 200 114
174 200 95
180 205 151
188 211 177
210 229 249
212 231 255
212 231 255
212 231 255
212 231 255
138 160 202
62 98 161
62 98 155
61 97 157
63 99 171
61 97 157
63 99 166
61 97 157
62 98 162
62 99 164
63 99 166
62 98 158
62 98 162
63 99 165
63 99 163
63 99 162
63 99 163
63 99 161
63 99 165
63 99 163
63 99 161
62 98 159
64 100 169
62 98 152
63 99 157
62 98 160
62 98 156
63 99 162
62 98 159
64 100 169
62 97 151
63 98 157
63 98 161
62 98 157
63 99 160
62 97 152
63 99 159
64 100 169
63 99 162
62 97 154
63 99 164
63 99 166
62 98 157
63 98 158
63 99 160
62 97 149
62 98 155
63 98 158
63 98 160
64 100 166
64 100 170
62 98 156
63 99 165
63 99 160
63 98 158
63 99 164
63 98 161
62 98 156
62 98 159
63 99 158
64 100 166
61 97 153
63 99 163
62 97 154
63 99 159
63 99 163
63 98 156
63 99 162
63 99 158
63 99 163
63 99 160
63 99 164
62 98 158
63 99 163
63 99 164
63 99 161
63 99 163
63 98 159
62 98 161
63 99 164
63 99 164
62 98 154
62 97 152
63 99 162
63 99 159
62 97 155
63 99 160
62 98 158
62 98 161
63 98 159
62 98 159
63 99 165
61 97 153
62 97 153
63 99 162
62 98 156
62 98 164
63 98 161
63 99 164
63 99 161
62 98 161
62 98 158
61 97 155
62 99 164
62 98 158
63 99 163
62 98 164
62 98 157
63 98 161
62 98 159
64 99 167
63 98 163
63 98 165
63 98 166
132 154 196
212 231 255
212 231 255
212 231 255
212 231 255
207 219 231
186 179 125
181 174 114
179 174 114
178 173 114
177 172 114
175 172 114
175 171 114
174 171 114
173 171 114
173 170 114
172 170 114
171 170 114
171 170 114
171 170 114
170 169 114
170 169 114
170 169 114
169 169 114
169 169 114
169 169 114
169 169 114
169 169 114
169 169 114
168 169 114
168 168 114
168 168 114
168 168 114
168 168 114
168 168 114
168 168 114
168 168 114
168 168 114
168 168 114
168 168 114
168 168 114
168 168 114
168 168 114
168 168 114
168 168 114
168 168 114
168 168 114
168 168 114
168 169 114
168 169 114
169 169 114
169 169 114
169 169 114
169 169 114
169 169 114
169 169 114
169 169 114
169 169 114
169 169 114
169 169 114
170 169 114
170 169 114
170 169 114
170 169 114
170 169 114
170 169 114
170 169 114
171 169 114
171 170 114
171 170 114
171 170 114
171 170 114
171 170 114
171 170 114
171 170 114
172 170 114
172 170 114
172 170 114
172 170 114
172 170 114
172 170 114
173 170 114
173 170 114
173 171 114
173 171 114
173 171 114
173 171 114
173 171 114
174 171 114
174 171 114
174 171 114
174 171 114
174 171 114
174 171 114
175 171 114
175 171 114
175 171 114
175 172 114
175 172 114
175 172 114
176 172 114
176 172 114
176 172 114
176 172 114
176 172 114
176 172 114
177 172 114
177 172 114
177 172 114
177 172 114
177 173 114
177 173 114
178 173 114
178 173 114
178 173 114
178 173 114
178 173 114
178 173 114
179 173 114
179 173 114
179 173 114
179 173 114
179 173 114
179 174 114
180 174 114
180 174 114
180 174 114
180 174 114
180 174 114
180 174 114
181 174 114
181 174 114
181 174 114
181 174 114
181 174 114
181 174 114
182 175 114
182 175 114
182 175 114
182 175 114
182 175 114
182 175 114
183 175 114
183 175 114
170 196 57
169 194 70
165 191 57
168 193 62
164 189 54
170 196 67
166 192 51
169 195 62
171 196 57
168 193 36
168 193 44
168 193 62
167 193 51
164 189 36
166 191 57
170 195 62
168 193 72
172 197 84
168 194 51
167 193 76
170 196 51
167 192 62
168 194 62
168 192 25
171 196 72
169 195 67
169 195 62
164 189 57
165 190 44
171 196 67
161 186 36
166 190 51
164 189 44
166 192 36
165 190 44
171 196 51
170 196 51
169 195 62
169 195 25
170 196 76
168 194 25
169 194 57
168 194 25
169 195 36
169 195 57
166 190 36
168 194 67
168 194 25
166 192 51
169 194 62
169 195 67
169 195 51
169 195 44
169 195 62
168 193 57
172 197 72
169 195 72
171 197 57
171 196 36
171 197 62
169 195 36
170 195 44
170 195 57
170 196 67
168 194 36
170 196 44
169 195 51
170 195 72
170 196 62
170 195 36
170 196 51
171 197 62
169 195 62
170 195 25
169 195 44
167 193 57
169 195 72
168 194 44
171 197 67
170 196 57
169 195 51
170 196 44
170 196 57
170 196 57
170 196 76
170 196 44
170 196 25
171 197 72
169 195 25
169 195 57
169 195 51
170 196 51
170 196 51
170 196 51
171 196 44
169 196 67
168 195 57
170 196 51
169 196 51
170 196 25
171 197 62
169 195 25
170 196 44
169 195 51
170 197 62
170 196 57
170 196 51
169 195 51
170 195 36
168 195 36
170 196 57
171 196 36
171 197 62
170 196 62
170 196 57
169 195 36
170 196 51
171 197 76
170 196 44
170 196 36
170 196 44
170 196 51
170 196 57
171 197 57
170 196 44
172 198 76
170 196 44
169 196 51
170 196 62
173 198 72
173 199 92
172 197 62
172 197 84
174 199 103
177 202 117
177 202 130
183 207 164
194 215 198
212 230 254
213 231 255
213 231 255
194 213 242
61 97 150
62 98 159
63 99 167
62 98 162
63 99 166
61 97 153
63 99 162
63 99 162
62 98 154
62 98 155
63 99 158
63 99 162
63 99 166
63 99 163
63 99 163
63 99 167
62 98 155
62 97 150
62 98 157
63 98 160
62 98 157
63 99 162
62 98 153
63 99 160
63 99 160
63 99 160
63 99 161
63 99 165
62 97 152
63 99 164
62 98 157
63 99 164
62 98 157
63 99 163
63 99 161
62 98 157
63 99 163
63 99 160
63 98 157
63 99 161
63 99 162
63 100 169
63 99 158
63 99 165
62 98 158
62 98 158
63 99 159
62 98 154
63 99 166
62 98 156
63 99 164
62 98 154
64 100 169
63 99 160
61 97 149
63 99 162
62 98 157
63 99 157
63 99 159
64 100 165
63 99 162
62 98 153
62 98 163
63 99 158
63 99 159
62 98 156
63 99 161
62 98 155
62 97 155
63 99 163
63 99 163
62 98 152
62 98 159
62 98 158
63 99 163
63 99 160
63 99 165
62 98 158
62 98 154
64 100 166
62 98 158
63 99 160
62 98 153
62 98 155
63 99 159
63 99 161
63 99 164
63 99 165
62 98 158
63 99 163
63 99 162
63 99 164
63 99 164
62 98 154
63 98 160
63 99 159
63 98 160
63 99 164
63 99 164
63 99 161
63 98 158
63 99 166
62 98 159
63 99 169
63 99 163
62 97 153
63 98 163
62 97 153
62 98 162
62 97 159
64 99 167
62 97 162
62 97 160
62 97 160
65 99 161
199 218 245
213 231 255
213 231 255
210 225 243
189 184 139
182 175 114
180 174 114
179 173 114
177 173 114
176 172 114
175 172 114
175 171 114
174 171 114
173 171 114
173 170 114
172 170 114
172 170 114
171 170 114
171 170 114
171 170 114
170 169 114
170 169 114
170 169 114
170 169 114
170 169 114
169 169 114
169 169 114
169 169 114
169 169 114
169 169 114
169 169 114
169 169 114
169 169 114
169 169 114
169 169 114
169 169 114
169 169 114
169 169 114
169 169 114
169 169 114
169 169 114
169 169 114
169 169 114
169 169 114
169 169 114
169 169 114
169 169 114
169 169 114
169 169 114
169 169 114
169 169 114
170 169 114
170 169 114
170 169 114
170 169 114
170 169 114
170 169 114
170 169 114
170 169 114
170 169 114
170 169 114
171 170 114
171 170 114
171 170 114
171 170 114
171 170 114
171 170 114
171 170 114
172 170 114
172 170 114
172 170 114
172 170 114
172 170 114
172 170 114
172 170 114
173 170 114
173 170 114
173 171 114
173 171 114
173 171 114
173 171 114
173 171 114
174 171 114
174 171 114
174 171 114
174 171 114
174 171 114
174 171 114
174 171 114
175 171 114
175 171 114
175 171 114
175 172 114
175 172 114
175 172 114
176 172 114
176 172 114
176 172 114
176 172 114
176 172 114
176 172 114
176 172 114
177 172 114
177 172 114
177 172 114
177 172 114
177 173 114
177 173 114
178 173 114
178 173 114
178 173 114
178 173 114
178 173 114
178 173 114
179 173 114
179 173 114
179 173 114
179 173 114
179 173 114
179 174 114
180 174 114
180 174 114
180 174 114
180 174 114
180 174 114
180 174 114
180 174 114
181 174 114
181 174 114
181 174 114
181 174 114
181 174 114
181 175 114
182 175 114
182 175 114
182 175 114
182 175 114
182 175 114
182 175 114
183 175 114
183 175 114
183 175 114
183 175 114
170 195 65
169 194 70
168 194 51
169 194 70
169 195 72
167 192 31
166 192 62
169 194 62
163 188 31
171 197 62
170 195 67
167 193 44
171 197 67
170 196 51
170 196 57
165 191 44
168 194 44
167 192 51
167 193 57
167 192 62
164 190 36
170 196 51
169 195 51
167 193 44
169 194 62
167 191 44
169 195 62
170 194 62
171 196 62
169 194 62
165 189 36
168 194 44
166 190 72
166 192 51
169 195 51
170 195 67
168 194 36
169 195 36
168 194 76
170 195 72
168 194 25
171 195 51
169 194 57
170 194 44
167 193 57
168 194 51
164 189 36
170 196 51
168 194 57
166 192 44
169 194 57
168 194 25
168 193 62
169 195 72
170 196 57
169 195 51
171 196 57
169 195 57
170 196 76
170 196 62
167 193 62
170 196 51
171 197 51
169 194 51
170 196 57
170 195 51
168 194 57
170 196 76
171 196 67
170 196 57
169 195 44
167 193 25
170 196 62
167 194 62
171 197 57
168 194 36
170 195 44
171 197 67
171 196 36
169 195 51
171 196 57
171 196 57
171 196 51
171 196 51
171 197 67
170 196 62
170 195 57
169 195 0
169 195 36
172 198 80
168 195 51
170 196 44
170 196 44
171 196 57
170 196 62
171 197 62
170 196 36
171 197 67
170 195 0
170 196 62
170 196 44
169 196 44
171 196 62
170 196 44
171 197 67
170 196 57
170 196 44
170 196 51
168 194 25
171 197 62
169 195 36
170 196 51
170 196 62
170 196 36
170 196 57
170 196 57
171 197 57
169 196 57
171 196 51
170 196 44
170 196 62
170 196 67
171 196 36
171 196 36
170 196 57
171 197 67
170 196 36
170 196 76
171 197 67
171 197 86
170 195 51
173 199 84
172 198 76
172 198 88
171 197 72
172 198 108
180 204 140
181 206 144
200 220 218
213 231 255
213 231 255
129 152 190
63 99 162
63 99 162
62 98 159
63 98 160
63 99 162
62 98 156
63 99 163
62 98 156
62 98 156
63 99 159
64 100 165
62 98 159
63 99 162
63 99 161
63 99 163
63 99 161
62 98 159
62 98 153
63 99 165
63 99 162
63 99 161
62 98 161
63 99 164
63 99 162
63 99 163
62 98 155
63 99 160
62 98 158
63 99 163
63 99 165
62 98 158
63 99 161
63 99 158
62 98 155
63 99 164
63 99 160
62 98 159
63 99 160
63 99 165
62 98 155
62 98 156
62 98 158
62 98 160
63 99 163
64 99 163
63 98 156
62 98 155
62 97 149
62 98 158
63 98 157
62 98 152
62 97 154
62 98 155
62 98 160
63 99 161
62 98 154
64 100 165
61 97 151
63 98 162
62 98 155
62 98 158
62 98 156
62 98 156
63 99 158
63 99 166
63 99 163
63 99 159
61 97 151
63 98 156
64 99 162
63 99 159
63 99 162
63 99 160
61 97 149
63 99 163
63 98 158
63 99 165
62 98 161
62 98 160
62 98 158
63 98 155
63 99 162
64 99 160
62 98 159
62 98 155
62 97 154
63 98 155
63 99 161
62 98 158
64 100 163
63 99 160
62 98 157
62 98 159
62 98 158
62 98 157
63 99 165
63 99 166
63 99 163
64 100 165
63 98 162
63 99 162
62 98 160
63 98 157
63 99 164
64 99 168
62 98 160
62 98 157
62 98 163
63 99 163
62 98 161
62 97 155
62 97 156
62 97 160
63 98 163
62 96 155
140 161 203
213 231 255
213 231 255
196 196 174
183 175 114
181 174 114
179 174 114
178 173 114
177 172 114
176 172 114
175 172 114
175 171 114
174 171 114
173 171 114
173 171 114
173 170 114
172 170 114
172 170 114
171 170 114
171 170 114
171 170 114
171 170 114
171 169 114
170 169 114
170 169 114
170 169 114
170 169 114
170 169 114
170 169 114
170 169 114
170 169 114
170 169 114
170 169 114
169 169 114
170 169 114
169 169 114
169 169 114
169 169 114
170 169 114
170 169 114
170 169 114
170 169 114
170 169 114
170 169 114
170 169 114
170 169 114
170 169 114
170 169 114
170 169 114
170 169 114
170 169 114
170 169 114
170 169 114
171 169 114
171 170 114
171 170 114
171 170 114
171 170 114
171 170 114
171 170 114
171 170 114
171 170 114
172 170 114
172 170 114
172 170 114
172 170 114
172 170 114
172 170 114
172 170 114
172 170 114
173 170 114
173 170 114
173 171 114
173 171 114
173 171 114
173 171 114
173 171 114
174 171 114
174 171 114
174 171 114
174 171 114
174 171 114
174 171 114
174 171 114
175 171 114
175 171 114
175 171 114
175 172 114
175 172 114
175 172 114
175 172 114
176 172 114
176 172 114
176 172 114
176 172 114
176 172 114
176 172 114
176 172 114
177 172 114
177 172 114
177 172 114
177 173 114
177 173 114
177 173 114
178 173 114
178 173 114
178 173 114
178 173 114
178 173 114
178 173 114
179 173 114
179 173 114
179 173 114
179 173 114
179 173 114
179 174 114
179 174 114
180 174 114
180 174 114
180 174 114
180 174 114
180 174 114
180 174 114
181 174 114
181 174 114
181 174 114
181 174 114
181 174 114
181 174 114
181 175 114
182 175 114
182 175 114
182 175 114
182 175 114
182 175 114
182 175 114
183 175 114
183 175 114
183 175 114
183 175 114
183 175 114
183 175 114
184 175 114
169 194 78
169 194 72
169 195 57
167 193 65
171 196 67
168 194 51
167 192 25
168 193 25
170 196 51
169 193 72
169 194 44
168 192 76
169 195 62
170 196 51
165 191 47
171 196 74
170 196 67
167 193 51
167 192 51
167 193 25
168 194 44
170 195 62
170 195 57
170 195 36
169 195 65
166 191 44
168 193 51
168 193 51
169 195 25
167 192 36
167 192 36
169 194 51
166 191 51
172 197 67
164 190 36
166 192 36
168 194 44
164 189 44
169 194 44
168 193 62
168 192 57
166 191 44
167 193 36
169 194 36
168 193 51
167 192 25
169 195 44
168 194 51
169 194 51
168 193 36
167 192 36
171 197 72
171 196 44
169 195 44
168 194 57
168 194 57
168 194 44
170 195 25
169 195 62
166 191 44
166 191 44
166 192 25
170 196 36
170 196 51
169 195 57
170 195 57
168 194 36
170 196 67
170 196 51
170 196 67
172 198 76
170 196 25
168 194 36
172 197 44
169 194 44
170 196 57
169 195 44
171 197 62
168 194 51
171 197 57
169 195 57
170 196 51
169 195 36
169 195 51
170 196 36
170 196 44
169 195 44
171 196 44
170 196 62
170 196 51
169 195 36
170 196 67
171 196 62
171 197 62
168 194 25
170 196 57
170 196 44
169 195 25
168 194 62
170 196 44
170 196 44
170 196 62
170 196 51
171 197 62
170 196 57
170 196 57
170 196 36
169 195 36
170 196 25
172 198 76
170 196 51
169 196 44
169 195 25
171 196 44
171 196 44
170 196 36
171 197 67
171 197 62
171 197 62
170 196 51
171 196 44
171 197 72
170 196 36
171 197 62
173 198 57
171 197 67
171 197 67
170 196 57
171 197 62
171 197 72
171 197 72
172 198 76
172 199 99
172 197 82
173 198 84
174 200 99
177 202 122
179 203 125
187 210 173
207 226 241
200 218 244
74 106 156
62 98 161
62 98 161
63 99 161
63 99 166
63 99 161
62 98 157
62 98 156
63 99 164
62 98 163
63 99 158
63 99 164
62 98 156
63 99 164
62 98 154
62 98 159
63 99 160
63 98 157
64 100 164
63 99 162
63 98 157
61 97 150
63 99 156
64 100 167
63 99 162
62 98 159
62 98 154
64 100 170
63 99 157
62 98 154
63 98 156
62 97 149
63 99 160
62 98 157
64 99 164
62 97 151
62 98 154
63 99 157
63 99 161
62 97 154
63 99 159
63 98 157
63 99 158
62 98 156
62 97 149
62 98 155
63 99 160
63 99 157
63 99 159
63 99 161
63 99 162
63 98 161
62 97 153
63 99 162
63 99 159
63 99 162
63 98 156
62 98 157
63 99 165
63 99 164
63 99 158
63 98 157
63 99 158
62 97 149
62 97 153
61 97 147
62 98 160
63 99 158
62 97 153
62 98 155
62 98 152
63 99 164
62 98 159
64 100 164
62 97 157
63 99 159
62 98 158
62 98 152
64 99 165
63 98 158
63 99 162
64 100 161
63 98 158
63 99 160
63 99 162
62 98 158
62 98 155
62 98 159
63 99 161
64 100 165
63 99 161
63 98 160
64 100 170
62 98 160
63 99 161
64 99 166
62 97 158
63 98 158
62 98 164
63 98 159
63 99 160
62 97 154
63 99 161
62 98 157
63 99 163
63 98 163
63 98 158
63 98 162
62 98 159
62 97 154
62 98 164
62 98 164
62 97 158
63 98 163
62 97 159
62 97 155
65 99 164
201 219 244
204 213 214
185 176 114
182 175 114
180 174 114
179 173 114
178 173 114
177 172 114
176 172 114
175 172 114
175 171 114
174 171 114
174 171 114
173 171 114
173 171 114
173 170 114
172 170 114
172 170 114
172 170 114
172 170 114
171 170 114
171 170 114
171 170 114
171 170 114
171 170 114
171 170 114
171 169 114
170 169 114
170 169 114
170 169 114
170 169 114
170 169 114
170 169 114
170 169 114
170 169 114
170 169 114
170 169 114
170 169 114
170 169 114
170 169 114
170 169 114
170 169 114
171 169 114
171 170 114
171 170 114
171 170 114
171 170 114
171 170 114
171 170 114
171 170 114
171 170 114
171 170 114
171 170 114
171 170 114
172 170 114
172 170 114
172 170 114
172 170 114
172 170 114
172 170 114
172 170 114
172 170 114
172 170 114
173 170 114
173 170 114
173 171 114
173 171 114
173 171 114
173 171 114
173 171 114
174 171 114
174 171 114
174 171 114
174 171 114
174 171 114
174 171 114
174 171 114
174 171 114
175 171 114
175 171 114
175 171 114
175 172 114
175 172 114
175 172 114
175 172 114
176 172 114
176 172 114
176 172 114
176 172 114
176 172 114
176 172 114
177 172 114
177 172 114
177 172 114
177 172 114
177 172 114
177 173 114
177 173 114
178 173 114
178 173 114
178 173 114
178 173 114
178 173 114
178 173 114
178 173 114
179 173 114
179 173 114
179 173 114
179 173 114
179 173 114
179 173 114
179 174 114
180 174 114
180 174 114
180 174 114
180 174 114
180 174 114
180 174 114
180 174 114
181 174 114
181 174 114
181 174 114
181 174 114
181 174 114
181 174 114
182 175 114
182 175 114
182 175 114
182 175 114
182 175 114
182 175 114
182 175 114
183 175 114
183 175 114
183 175 114
183 175 114
183 175 114
183 175 114
183 175 114
184 176 114
184 176 114
184 176 114
168 194 47
168 193 40
169 194 62
171 197 51
169 194 25
168 193 36
168 193 65
165 191 65
170 195 67
171 196 78
169 195 57
167 192 57
168 194 62
166 191 44
167 193 70
171 196 51
167 192 54
168 194 70
167 193 51
166 191 25
166 192 51
166 191 44
171 197 67
165 190 0
168 193 51
169 194 47
169 195 54
168 195 44
166 192 51
172 198 72
167 193 44
166 192 57
169 194 57
169 194 44
169 194 36
169 195 51
167 192 57
165 191 25
171 197 80
168 193 67
164 190 44
171 196 51
168 193 62
168 193 36
167 193 36
166 192 57
170 195 72
167 192 57
167 193 57
168 194 36
164 189 51
171 197 62
169 195 44
169 195 57
165 191 62
169 195 57
169 194 51
169 195 51
171 196 36
171 196 72
168 194 44
169 194 51
172 197 84
170 195 36
169 195 36
169 195 36
167 193 44
170 196 62
169 194 36
169 194 36
170 196 44
172 197 57
169 195 67
168 194 62
169 195 67
169 195 36
171 197 67
170 196 51
169 195 44
168 193 57
171 196 62
171 197 51
171 196 51
172 197 72
169 195 36
169 195 57
171 196 44
170 196 57
170 196 44
171 196 36
172 197 67
169 195 57
170 196 36
171 196 44
170 195 51
170 196 57
173 197 57
171 197 57
169 195 25
170 195 51
170 196 57
172 197 67
170 196 51
171 197 62
169 195 44
170 196 44
169 195 44
170 196 25
170 196 36
171 197 51
169 195 44
169 195 62
171 197 57
170 196 51
172 197 62
170 196 44
170 196 51
170 196 57
170 196 44
170 196 36
170 196 51
171 196 36
169 196 44
170 196 36
171 196 51
170 196 25
172 197 62
169 195 0
170 196 72
171 197 72
171 197 67
172 197 76
171 197 51
173 198 80
173 199 92
173 199 92
176 201 105
174 200 118
180 204 147
190 212 186
156 177 213
61 97 154
62 98 161
61 97 151
64 100 165
62 98 161
61 97 154
63 99 160
62 98 159
63 98 159
63 99 162
63 99 161
63 99 162
62 98 159
63 99 162
62 98 156
62 98 160
63 99 164
62 98 157
63 99 159
63 99 160
61 97 150
63 98 158
63 99 160
63 99 164
62 97 153
62 98 161
64 100 166
63 99 163
63 99 161
62 97 151
63 99 160
64 100 166
63 99 161
63 99 160
62 98 159
64 100 161
63 98 159
63 98 155
63 99 160
62 98 155
62 98 154
63 98 159
63 99 162
61 97 150
62 98 157
64 99 159
62 97 151
63 100 168
63 98 159
62 98 156
62 98 158
63 99 163
62 98 152
62 98 155
62 97 151
63 99 162
63 99 162
61 97 152
63 99 163
63 99 156
63 99 158
63 98 157
63 99 163
62 97 153
63 99 164
63 99 162
62 98 154
63 99 161
62 98 152
63 99 161
63 99 162
62 97 150
63 99 160
63 99 163
62 98 160
62 98 155
63 99 162
62 98 158
64 100 166
63 98 158
63 99 158
63 99 164
61 97 154
63 99 162
62 98 158
63 99 159
63 98 157
62 98 157
63 98 153
63 99 162
63 98 159
64 100 166
62 98 156
63 99 164
63 98 156
63 98 156
63 98 156
63 99 160
62 97 152
63 99 164
63 99 162
63 98 161
63 98 158
62 98 158
62 98 159
63 99 161
61 96 150
62 98 160
62 98 158
61 97 158
63 98 164
63 98 163
62 97 155
63 98 160
61 96 148
62 97 161
62 95 151
137 152 175
187 179 123
183 175 114
181 174 114
180 174 114
179 173 114
178 173 114
177 172 114
176 172 114
176 172 114
175 172 114
175 171 114
174 171 114
174 171 114
173 171 114
173 171 114
173 171 114
173 170 114
172 170 114
172 170 114
172 170 114
172 170 114
172 170 114
172 170 114
171 170 114
171 170 114
171 170 114
171 170 114
171 170 114
171 170 114
171 170 114
171 170 114
171 170 114
171 170 114
171 170 114
171 170 114
171 170 114
171 170 114
171 170 114
171 170 114
171 170 114
171 170 114
171 170 114
171 170 114
172 170 114
172 170 114
172 170 114
172 170 114
172 170 114
172 170 114
172 170 114
172 170 114
172 170 114
172 170 114
172 170 114
173 170 114
173 170 114
173 170 114
173 171 114
173 171 114
173 171 114
173 171 114
173 171 114
173 171 114
174 171 114
174 171 114
174 171 114
174 171 114
174 171 114
174 171 114
174 171 114
174 171 114
175 171 114
175 171 114
175 171 114
175 171 114
175 172 114
175 172 114
175 172 114
176 172 114
176 172 114
176 172 114
176 172 114
176 172 114
176 172 114
176 172 114
176 172 114
177 172 114
177 172 114
177 172 114
177 172 114
177 173 114
177 173 114
177 173 114
178 173 114
178 173 114
178 173 114
178 173 114
178 173 114
178 173 114
178 173 114
179 173 114
179 173 114
179 173 114
179 173 114
179 173 114
179 173 114
179 174 114
180 174 114
180 174 114
180 174 114
180 174 114
180 174 114
180 174 114
180 174 114
181 174 114
181 174 114
181 174 114
181 174 114
181 174 114
181 174 114
181 175 114
182 175 114
182 175 114
182 175 114
182 175 114
182 175 114
182 175 114
182 175 114
183 175 114
183 175 114
183 175 114
183 175 114
183 175 114
183 175 114
183 175 114
184 176 114
184 176 114
184 176 114
184 176 114
184 176 114
184 176 114
171 197 74
166 192 54
165 191 44
170 195 51
169 194 67
170 195 62
168 193 44
168 194 62
168 194 44
170 195 72
168 194 51
172 198 72
170 195 57
172 197 76
163 188 47
168 194 70
168 193 51
167 193 57
167 192 62
169 195 36
170 196 57
167 193 57
170 195 47
170 195 62
168 193 25
167 192 65
166 192 62
165 191 44
163 189 44
169 195 76
168 193 36
168 193 54
167 193 51
169 194 57
171 196 44
166 192 47
169 194 62
168 193 57
166 191 67
166 191 44
166 192 36
167 193 44
166 191 57
167 192 62
166 191 51
166 191 25
167 193 25
166 191 51
168 194 67
168 194 44
168 193 57
166 191 44
170 196 72
167 192 36
169 195 57
168 194 62
166 192 25
169 194 51
166 191 44
169 194 25
172 197 72
169 195 44
168 193 36
169 195 36
168 194 62
167 192 67
169 195 62
170 196 67
169 195 57
170 195 36
169 195 51
171 197 80
169 195 36
169 195 44
171 196 57
171 197 72
170 196 57
171 196 51
169 195 44
170 196 76
170 197 67
171 196 67
170 196 67
169 195 57
170 196 72
170 196 62
171 197 51
171 197 67
170 196 51
168 194 44
171 196 51
171 197 67
171 197 62
171 197 67
170 196 62
171 197 51
170 196 44
171 197 62
172 197 62
172 197 62
170 196 62
172 197 67
170 196 51
170 196 44
169 195 36
170 196 62
170 196 44
170 196 25
171 197 57
170 196 44
170 196 57
171 196 51
170 196 44
170 196 44
170 196 36
170 196 51
172 197 67
171 197 62
172 198 84
170 196 51
171 197 57
171 197 44
171 197 76
170 196 44
171 196 57
170 196 51
170 195 0
170 196 44
172 197 67
171 197 67
171 197 51
170 196 44
171 196 72
171 197 70
173 199 88
174 199 92
176 201 108
176 201 108
179 203 128
176 200 148
75 107 154
62 98 156
62 98 159
62 98 157
62 98 155
63 98 158
63 99 158
62 99 163
63 99 164
63 99 161
62 98 153
62 98 155
63 99 164
63 98 161
62 98 155
62 98 153
62 98 154
63 99 162
62 97 154
62 98 157
62 97 152
62 98 156
63 98 157
63 99 161
62 97 151
63 98 156
63 98 158
63 99 159
63 98 158
62 97 152
63 98 156
62 98 158
61 97 150
62 98 158
63 99 161
62 97 151
62 98 156
63 98 157
63 99 155
62 98 150
62 97 149
63 99 160
62 97 149
62 98 159
63 99 161
61 96 147
63 99 160
62 98 155
62 97 154
62 98 156
64 100 166
62 98 158
62 98 156
62 98 155
62 98 155
63 99 159
63 99 164
63 99 163
63 98 157
61 96 147
63 99 162
64 99 165
63 99 162
62 98 155
62 98 151
63 98 160
62 98 153
61 97 148
62 98 157
62 98 156
63 99 160
62 98 157
62 98 160
63 99 159
62 98 151
62 97 153
63 99 162
63 99 160
63 98 160
62 98 157
62 98 157
62 98 155
63 98 156
62 98 154
63 99 162
63 99 164
62 98 158
62 98 156
62 98 151
62 97 152
62 97 152
62 98 155
62 97 151
62 98 155
63 99 162
62 98 159
63 99 163
64 99 161
63 98 157
63 99 162
63 98 157
62 97 153
62 98 157
63 98 157
63 99 162
63 98 160
63 99 164
62 97 153
63 98 158
62 98 158
63 98 162
62 98 153
63 98 160
61 96 148
63 98 161
63 98 162
62 97 153
62 96 156
77 102 150
178 171 116
182 175 114
181 174 114
180 174 114
179 173 114
178 173 114
177 173 114
177 172 114
176 172 114
176 172 114
175 172 114
175 171 114
174 171 114
174 171 114
174 171 114
173 171 114
173 171 114
173 171 114
173 171 114
173 170 114
173 170 114
172 170 114
172 170 114
172 170 114
172 170 114
172 170 114
172 170 114
172 170 114
172 170 114
172 170 114
172 170 114
172 170 114
172 170 114
172 170 114
172 170 114
172 170 114
172 170 114
172 170 114
172 170 114
172 170 114
172 170 114
172 170 114
172 170 114
172 170 114
172 170 114
173 170 114
173 170 114
173 170 114
173 170 114
173 171 114
173 171 114
173 171 114
173 171 114
173 171 114
173 171 114
173 171 114
174 171 114
174 171 114
174 171 114
174 171 114
174 171 114
174 171 114
174 171 114
174 171 114
175 171 114
175 171 114
175 171 114
175 171 114
175 172 114
175 172 114
175 172 114
175 172 114
175 172 114
176 172 114
176 172 114
176 172 114
176 172 114
176 172 114
176 172 114
176 172 114
177 172 114
177 172 114
177 172 114
177 172 114
177 172 114
177 173 114
177 173 114
177 173 114
178 173 114
178 173 114
178 173 114
178 173 114
178 173 114
178 173 114
178 173 114
179 173 114
179 173 114
179 173 114
179 173 114
179 173 114
179 173 114
179 174 114
180 174 114
180 174 114
180 174 114
180 174 114
180 174 114
180 174 114
180 174 114
180 174 114
181 174 114
181 174 114
181 174 114
181 174 114
181 174 114
181 174 114
181 175 114
182 175 114
182 175 114
182 175 114
182 175 114
182 175 114
182 175 114
182 175 114
183 175 114
183 175 114
183 175 114
183 175 114
183 175 114
183 175 114
183 175 114
184 175 114
184 176 114
184 176 114
184 176 114
184 176 114
184 176 114
184 176 114
185 176 114
185 176 114
185 176 114
169 195 57
170 195 57
170 195 70
169 194 47
168 194 44
170 195 76
168 194 36
169 194 60
168 194 44
167 193 62
169 194 51
168 193 36
168 193 62
165 191 36
169 195 44
167 192 47
170 196 67
172 197 78
166 192 47
169 194 70
172 196 62
169 195 62
167 193 60
170 196 57
167 192 57
169 194 72
169 195 62
165 191 0
169 195 57
164 190 44
171 196 57
167 192 65
163 189 44
168 193 51
169 195 62
169 195 44
169 194 65
166 191 51
166 192 54
169 194 36
167 193 36
169 194 36
166 191 57
168 194 60
168 193 36
169 194 62
170 195 62
169 195 44
169 194 57
170 195 44
169 194 44
168 193 67
164 188 44
169 194 72
168 194 44
168 193 51
169 194 62
169 195 57
169 194 36
169 195 67
169 194 51
169 194 67
167 193 51
171 196 67
170 195 67
170 195 57
169 194 44
166 192 36
171 196 36
171 196 51
170 196 51
169 194 44
168 194 57
168 194 62
169 195 51
170 196 44
170 196 62
168 193 25
170 195 57
166 192 51
170 195 57
171 197 67
171 197 62
172 197 57
172 197 62
169 195 57
171 197 57
171 197 51
170 196 51
171 197 62
170 196 51
170 195 25
168 194 25
169 195 57
171 197 57
170 196 57
169 195 51
170 196 36
169 195 36
170 196 44
169 195 44
170 196 51
171 196 44
170 196 36
170 196 44
170 196 36
170 196 62
171 197 57
172 197 57
169 195 36
170 196 57
170 196 25
172 197 57
169 195 25
172 198 76
171 196 44
170 196 44
171 197 62
172 197 51
170 196 57
171 197 57
171 197 57
170 196 57
170 196 51
170 196 44
170 196 62
171 196 51
171 197 44
171 197 62
171 197 57
170 196 57
174 199 84
171 196 51
171 197 80
171 197 74
172 198 80
170 196 62
176 201 102
177 202 125
148 173 124
62 98 155
62 97 158
62 98 154
62 98 160
62 98 156
63 99 161
63 98 159
62 98 154
63 98 158
63 99 162
63 99 163
63 99 160
63 99 160
62 98 153
62 98 154
63 99 164
62 98 157
63 99 162
62 98 153
62 98 156
62 98 155
63 98 158
63 98 156
62 98 151
62 98 153
63 99 159
62 98 151
63 99 159
62 97 148
63 99 161
62 98 157
63 99 159
62 98 154
63 99 160
63 98 155
63 98 159
62 98 158
62 97 147
63 98 158
62 97 150
62 98 157
62 98 155
64 100 167
61 96 144
62 97 152
63 98 154
61 97 151
63 99 162
63 99 161
63 99 159
64 100 165
63 98 156
63 99 164
61 96 141
62 98 157
61 96 141
62 98 154
63 99 159
62 98 157
64 100 164
62 98 152
62 98 157
62 98 157
63 98 158
63 99 157
63 99 162
63 98 155
63 99 156
63 99 161
62 98 160
62 98 155
63 98 160
63 98 158
63 99 163
62 97 153
63 98 154
63 98 158
63 99 162
62 97 153
63 99 159
63 98 159
62 98 154
63 99 167
63 99 158
63 99 160
63 99 156
62 97 151
63 99 161
63 98 157
63 99 162
63 99 162
62 98 157
63 99 160
63 98 154
61 97 153
63 99 162
62 98 156
61 96 147
63 99 159
62 98 153
64 99 166
61 97 152
63 99 159
63 99 158
63 99 165
62 98 151
63 98 159
62 98 162
62 98 157
62 97 158
63 99 161
62 97 151
61 96 154
62 97 159
63 98 161
62 97 155
63 98 161
62 96 151
62 96 153
134 139 133
182 175 114
181 174 114
180 174 114
179 173 114
178 173 114
177 173 114
177 172 114
176 172 114
176 172 114
176 172 114
175 172 114
175 171 114
175 171 114
174 171 114
174 171 114
174 171 114
174 171 114
174 171 114
173 171 114
173 171 114
173 171 114
173 171 114
173 171 114
173 171 114
173 171 114
173 171 114
173 171 114
173 171 114
173 171 114
173 170 114
173 171 114
173 171 114
173 171 114
173 171 114
173 171 114
173 171 114
173 171 114
173 171 114
173 171 114
173 171 114
173 171 114
173 171 114
173 171 114
173 171 114
173 171 114
174 171 114
174 171 114
174 171 114
174 171 114
174 171 114
174 171 114
174 171 114
174 171 114
174 171 114
174 171 114
174 171 114
175 171 114
175 171 114
175 171 114
175 171 114
175 172 114
175 172 114
175 172 114
175 172 114
175 172 114
176 172 114
176 172 114
176 172 114
176 172 114
176 172 114
176 172 114
176 172 114
176 172 114
177 172 114
177 172 114
177 172 114
177 172 114
177 172 114
177 173 114
177 173 114
177 173 114
178 173 114
178 173 114
178 173 114
178 173 114
178 173 114
178 173 114
178 173 114
179 173 114
179 173 114
179 173 114
179 173 114
179 173 114
179 173 114
179 174 114
179 174 114
180 174 114
180 174 114
180 174 114
180 174 114
180 174 114
180 174 114
180 174 114
180 174 114
181 174 114
181 174 114
181 174 114
181 174 114
181 174 114
181 174 114
181 174 114
182 175 114
182 175 114
182 175 114
182 175 114
182 175 114
182 175 114
182 175 114
182 175 114
183 175 114
183 175 114
183 175 114
183 175 114
183 175 114
183 175 114
183 175 114
183 175 114
184 176 114
184 176 114
184 176 114
184 176 114
184 176 114
184 176 114
184 176 114
185 176 114
185 176 114
185 176 114
185 176 114
185 176 114
185 176 114
173 198 76
169 194 47
167 193 70
167 192 65
166 192 54
167 193 51
171 196 80
169 195 65
167 193 57
168 193 60
168 193 36
168 194 44
169 195 65
169 195 54
169 195 51
168 192 84
168 193 65
169 195 65
172 197 82
169 195 51
168 194 47
168 193 65
170 196 62
166 192 65
170 195 51
170 196 51
168 193 36
168 194 54
168 194 40
166 191 70
169 194 51
166 192 60
166 191 51
169 194 44
168 193 51
168 194 44
166 192 36
170 195 51
168 193 62
171 196 67
165 190 44
167 193 44
166 192 25
168 194 57
168 193 62
169 195 36
169 194 57
166 190 44
170 195 76
168 194 62
165 190 0
165 190 44
167 192 57
166 191 0
168 193 51
169 194 44
170 196 72
167 192 44
170 196 51
168 193 51
166 191 44
170 195 44
169 195 57
172 197 72
170 195 62
170 195 25
171 196 57
169 195 36
169 195 51
169 195 57
170 196 57
168 194 51
170 195 25
169 195 25
169 194 25
166 192 25
169 195 57
171 196 57
170 196 36
167 193 0
169 195 51
168 194 25
170 195 44
170 196 57
170 195 25
170 195 36
170 195 51
171 197 57
171 197 57
171 197 67
168 194 36
170 196 51
171 196 51
170 196 72
170 196 51
171 197 51
171 196 51
170 196 51
170 195 67
171 197 72
172 197 62
171 197 62
170 196 62
169 195 36
171 197 62
170 196 36
172 197 62
171 197 67
170 196 51
171 197 57
171 197 62
171 196 51
171 197 62
171 196 67
170 196 36
171 196 44
170 196 51
171 197 67
171 197 62
170 197 67
171 196 51
171 197 62
171 197 72
170 196 44
171 197 62
170 196 44
170 196 44
170 196 36
171 197 57
172 197 72
171 197 62
170 196 57
171 197 62
171 197 62
170 195 60
174 199 95
171 197 67
176 201 114
172 198 84
87 117 140
62 98 159
62 97 152
63 99 162
62 98 157
62 98 158
62 98 157
62 98 156
61 97 148
63 98 159
62 97 149
62 97 154
62 98 158
62 98 153
63 99 161
62 98 153
62 97 151
63 99 163
61 97 150
63 98 158
62 98 153
63 99 160
63 98 159
63 98 159
62 98 157
63 98 155
63 99 161
63 98 156
63 98 159
63 98 156
63 98 156
63 99 160
63 99 158
64 99 163
63 98 154
61 97 150
64 99 164
63 99 159
62 98 155
62 97 149
63 99 157
63 99 160
63 99 159
63 99 159
62 97 149
63 99 164
63 99 162
63 99 158
63 99 157
63 99 160
62 98 155
62 98 157
62 98 157
62 98 157
62 98 151
62 97 152
61 97 143
63 99 160
63 98 155
61 96 142
62 98 155
62 98 154
63 99 158
63 98 152
63 99 162
63 98 156
63 99 160
61 97 149
62 98 152
62 97 149
63 99 159
63 99 158
62 97 148
62 98 155
64 99 159
63 99 162
63 99 157
63 99 159
62 98 149
62 98 159
62 98 156
63 99 160
63 99 161
63 98 158
63 99 159
62 98 152
63 99 163
63 99 162
62 97 148
62 98 154
63 99 158
62 98 157
62 97 154
62 97 154
62 97 152
65 101 172
62 98 154
63 99 163
62 98 159
62 98 158
63 99 160
61 97 152
62 97 152
62 98 154
62 98 153
63 98 158
63 99 161
63 99 159
63 98 161
62 97 154
63 99 160
61 97 150
63 99 161
63 98 158
62 97 154
63 98 163
62 97 152
62 97 161
62 97 156
62 96 152
95 112 140
182 175 114
181 174 114
180 174 114
179 173 114
178 173 114
178 173 114
177 173 114
177 172 114
176 172 114
176 172 114
176 172 114
176 172 114
175 172 114
175 172 114
175 171 114
175 171 114
175 171 114
174 171 114
174 171 114
174 171 114
174 171 114
174 171 114
174 171 114
174 171 114
174 171 114
174 171 114
174 171 114
174 171 114
174 171 114
174 171 114
174 171 114
174 171 114
174 171 114
174 171 114
174 171 114
174 171 114
174 171 114
174 171 114
174 171 114
174 171 114
174 171 114
174 171 114
174 171 114
174 171 114
174 171 114
174 171 114
174 171 114
175 171 114
175 171 114
175 171 114
175 171 114
175 171 114
175 172 114
175 172 114
175 172 114
175 172 114
175 172 114
176 172 114
176 172 114
176 172 114
176 172 114
176 172 114
176 172 114
176 172 114
176 172 114
176 172 114
177 172 114
177 172 114
177 172 114
177 172 114
177 172 114
177 173 114
177 173 114
177 173 114
177 173 114
178 173 114
178 173 114
178 173 114
178 173 114
178 173 114
178 173 114
178 173 114
178 173 114
179 173 114
179 173 114
179 173 114
179 173 114
179 173 114
179 173 114
179 174 114
179 174 114
180 174 114
180 174 114
180 174 114
180 174 114
180 174 114
180 174 114
180 174 114
180 174 114
181 174 114
181 174 114
181 174 114
181 174 114
181 174 114
181 174 114
181 174 114
182 175 114
182 175 114
182 175 114
182 175 114
182 175 114
182 175 114
182 175 114
182 175 114
183 175 114
183 175 114
183 175 114
183 175 114
183 175 114
183 175 114
183 175 114
183 175 114
184 175 114
184 176 114
184 176 114
184 176 114
184 176 114
184 176 114
184 176 114
184 176 114
185 176 114
185 176 114
185 176 114
185 176 114
185 176 114
185 176 114
185 176 114
185 176 114
186 176 114
186 177 114
168 194 62
169 195 57
169 195 78
166 191 60
165 191 36
171 196 51
169 194 70
171 196 67
168 194 60
167 193 54
167 193 54
169 195 44
171 196 62
166 192 70
166 191 60
174 198 57
166 192 25
167 192 44
168 193 51
170 196 62
167 193 51
170 196 44
169 194 44
170 195 36
169 194 65
169 195 80
170 195 51
167 193 40
168 194 57
166 192 47
170 195 62
168 194 60
166 192 25
169 195 44
168 193 44
167 192 47
167 192 65
167 192 65
164 190 54
170 195 44
168 194 60
168 194 65
171 195 47
167 191 62
168 193 54
168 193 40
165 190 60
165 190 47
168 194 54
168 193 44
168 194 44
170 196 62
166 191 62
169 195 44
170 195 57
167 192 51
170 195 62
167 193 62
169 194 57
165 190 25
170 195 62
168 193 67
169 195 44
170 196 51
169 195 44
167 193 44
172 197 57
168 194 51
170 195 57
170 195 44
169 195 51
167 193 44
170 196 44
169 194 51
171 197 72
169 195 25
169 194 44
169 195 51
172 197 57
169 195 44
171 196 76
171 197 67
169 195 44
171 196 51
169 195 51
170 196 44
171 196 44
170 196 51
169 195 25
170 196 57
170 196 57
169 195 36
172 197 67
169 195 51
170 196 57
170 197 72
169 195 51
170 196 67
170 196 51
170 196 44
170 196 51
170 196 57
171 197 62
171 197 72
171 197 51
171 197 80
170 196 57
172 197 51
170 196 51
171 197 51
170 196 51
169 195 25
171 197 62
170 196 44
171 197 62
170 196 57
170 196 36
172 197 57
170 196 57
171 197 57
171 196 62
174 199 84
172 197 62
170 196 36
171 196 54
169 194 62
171 196 44
170 195 25
171 197 67
170 196 54
172 198 84
171 196 62
169 195 0
171 196 51
172 198 76
172 198 67
172 197 76
175 200 105
162 187 110
62 97 150
61 96 148
62 97 151
62 97 152
62 98 155
61 97 153
64 100 167
62 98 153
63 98 157
63 98 159
62 97 150
62 97 150
63 98 155
62 98 156
63 98 157
63 98 155
63 99 159
63 99 157
62 98 157
64 100 165
63 98 157
62 98 152
62 98 159
63 99 161
62 98 158
63 99 157
63 98 153
62 98 155
62 97 149
62 98 153
63 98 155
62 98 153
63 98 156
63 99 160
63 99 158
62 98 159
63 98 159
62 98 157
62 98 151
62 98 156
63 99 156
63 99 157
63 98 158
62 98 152
62 98 152
63 98 155
63 98 155
62 98 157
63 98 156
63 99 157
61 97 147
63 99 159
62 97 150
63 98 154
61 97 151
62 98 157
62 97 152
63 99 161
62 97 153
62 98 152
62 97 151
63 98 156
62 98 152
63 98 156
64 99 162
61 97 150
62 97 155
62 97 149
62 98 156
62 97 152
62 98 153
62 98 155
62 98 151
62 98 152
63 99 164
62 97 149
61 97 145
63 99 156
62 97 150
63 99 161
63 99 159
63 99 163
63 99 160
62 98 152
63 99 157
62 97 149
63 99 160
61 97 152
63 99 165
62 98 150
63 98 158
63 99 158
62 98 155
63 99 158
62 98 157
63 99 162
62 98 158
62 98 151
62 98 156
62 98 153
62 98 157
63 99 158
62 98 155
62 98 158
62 98 155
62 97 152
62 97 149
62 97 156
61 96 149
63 98 161
62 98 161
63 98 156
63 98 159
62 97 155
61 96 152
62 97 155
61 96 148
62 98 161
63 98 163
63 98 161
62 97 161
158 157 123
181 174 114
180 174 114
179 174 114
179 173 114
178 173 114
178 173 114
177 173 114
177 172 114
177 172 114
177 172 114
174 170 113
162 160 109
159 157 108
161 159 109
163 161 109
163 161 110
174 171 114
175 172 114
175 171 114
175 171 114
175 171 114
175 171 114
175 171 114
175 171 114
175 171 114
175 171 114
175 171 114
175 171 114
175 171 114
175 171 114
175 171 114
175 171 114
175 171 114
175 171 114
175 171 114
175 171 114
175 171 114
175 171 114
175 171 114
175 172 114
175 172 114
175 172 114
175 172 114
175 172 114
175 172 114
175 172 114
176 172 114
176 172 114
176 172 114
176 172 114
176 172 114
176 172 114
176 172 114
176 172 114
176 172 114
176 172 114
176 172 114
177 172 114
177 172 114
177 172 114
177 172 114
177 172 114
177 172 114
177 173 114
177 173 114
177 173 114
178 173 114
178 173 114
178 173 114
178 173 114
178 173 114
178 173 114
178 173 114
178 173 114
178 173 114
179 173 114
179 173 114
179 173 114
179 173 114
179 173 114
179 173 114
179 173 114
179 174 114
179 174 114
180 174 114
180 174 114
180 174 114
180 174 114
180 174 114
180 174 114
180 174 114
180 174 114
181 174 114
181 174 114
181 174 114
181 174 114
181 174 114
181 174 114
181 174 114
181 175 114
182 175 114
182 175 114
182 175 114
182 175 114
182 175 114
182 175 114
182 175 114
182 175 114
182 175 114
183 175 114
183 175 114
183 175 114
183 175 114
183 175 114
183 175 114
183 175 114
183 175 114
184 176 114
184 176 114
184 176 114
184 176 114
184 176 114
184 176 114
184 176 114
184 176 114
185 176 114
185 176 114
185 176 114
185 176 114
185 176 114
185 176 114
185 176 114
185 176 114
186 176 114
186 176 114
186 177 114
186 177 114
186 177 114
186 177 114
170 195 65
168 194 65
171 196 54
169 194 62
168 194 51
166 191 44
170 195 51
169 194 54
169 195 51
167 193 47
166 192 47
166 193 36
169 195 51
168 194 36
169 194 67
165 191 47
170 196 62
166 192 44
171 196 65
169 195 62
168 194 44
168 194 44
164 189 51
168 194 36
167 192 54
170 195 40
169 194 65
169 194 65
169 194 60
168 193 72
161 187 31
166 192 0
167 193 65
167 192 51
169 194 62
168 194 36
168 194 0
165 190 65
168 194 44
169 195 44
166 192 40
167 193 40
168 193 65
166 192 40
166 192 0
170 196 76
169 194 62
168 194 54
173 198 67
176 200 97
171 196 70
174 198 102
180 203 114
177 200 111
174 198 102
180 202 114
177 200 111
188 208 151
184 206 135
191 212 155
187 207 153
191 211 161
186 208 140
185 206 140
178 201 105
188 209 147
184 206 130
189 210 157
182 203 130
179 202 120
176 200 95
178 201 102
177 200 92
172 197 72
174 199 80
170 196 57
169 194 57
169 195 44
170 196 57
167 193 0
170 196 57
170 196 57
171 197 57
171 197 76
169 195 36
169 195 57
169 195 36
171 196 36
170 196 67
171 197 67
171 197 57
169 195 62
171 197 62
171 197 62
170 196 36
171 197 44
171 196 44
171 197 67
171 196 57
172 197 57
170 196 51
169 195 36
170 196 44
172 197 67
169 195 36
172 197 62
170 196 25
171 196 36
170 196 36
170 196 51
171 197 67
170 196 57
171 197 67
171 197 72
171 197 67
171 197 51
171 196 25
169 195 36
169 194 44
169 195 40
168 194 44
169 195 0
165 191 36
165 191 36
165 190 47
167 193 25
166 192 25
164 190 44
165 191 44
169 194 25
168 194 70
170 196 74
171 196 44
171 196 44
170 196 65
172 197 62
172 198 76
170 195 54
117 144 130
63 98 159
62 98 154
63 98 158
62 98 156
62 97 151
63 99 162
63 99 160
63 99 158
62 98 154
62 97 150
62 97 156
62 97 153
63 99 164
63 98 155
64 100 165
61 97 151
64 99 164
62 98 156
63 99 158
62 98 156
61 97 147
62 98 153
63 99 158
63 98 155
63 99 157
63 99 157
62 97 148
62 98 155
61 97 149
62 97 153
64 99 163
63 98 155
62 97 147
62 98 158
61 97 151
62 98 156
62 97 147
62 98 155
61 97 149
63 98 158
63 98 156
62 98 155
63 99 161
64 99 163
62 97 155
62 98 155
63 98 158
63 99 159
62 98 152
61 97 148
62 97 150
62 97 149
63 98 157
63 99 163
63 99 157
62 97 151
63 99 160
62 98 152
63 99 160
63 99 156
63 98 153
63 99 154
61 97 149
62 98 158
63 98 157
62 98 153
64 100 164
63 98 157
62 98 159
63 99 161
62 98 153
63 99 159
62 98 156
63 98 156
62 98 158
61 97 148
62 97 153
63 98 154
63 99 159
63 99 158
62 98 155
63 99 160
64 99 162
62 98 152
61 96 144
63 98 157
63 99 162
61 97 147
61 97 144
62 97 151
62 97 152
63 98 157
63 99 158
63 99 158
61 97 148
62 98 157
62 98 152
62 98 150
63 98 153
62 98 156
62 98 155
64 99 162
62 98 153
63 99 160
62 97 151
62 97 155
63 99 161
63 98 157
61 97 150
63 99 161
63 98 158
62 97 149
62 97 154
62 97 157
62 98 155
62 97 155
62 97 154
62 97 155
61 96 153
61 95 148
61 94 146
127 133 130
181 174 114
180 174 114
180 174 114
179 173 114
179 173 114
178 173 114
176 171 113
152 151 103
116 120 90
81 92 79
59 76 74
54 74 74
54 74 75
54 74 75
55 74 75
55 75 76
64 81 79
91 101 85
123 127 95
163 161 109
176 172 114
176 172 114
176 172 114
176 172 114
176 172 114
176 172 114
176 172 114
176 172 114
176 172 114
176 172 114
176 172 114
176 172 114
176 172 114
176 172 114
176 172 114
176 172 114
176 172 114
176 172 114
176 172 114
176 172 114
176 172 114
176 172 114
176 172 114
176 172 114
176 172 114
176 172 114
176 172 114
176 172 114
177 172 114
177 172 114
177 172 114
177 172 114
177 172 114
177 172 114
177 172 114
177 173 114
177 173 114
177 173 114
178 173 114
178 173 114
178 173 114
178 173 114
178 173 114
178 173 114
178 173 114
178 173 114
178 173 114
178 173 114
179 173 114
179 173 114
179 173 114
179 173 114
179 173 114
179 173 114
179 173 114
179 174 114
180 174 114
180 174 114
180 174 114
180 174 114
180 174 114
180 174 114
180 174 114
180 174 114
180 174 114
180 174 114
181 174 114
181 174 114
181 174 114
181 174 114
181 174 114
181 174 114
181 174 114
181 175 114
182 175 114
182 175 114
182 175 114
182 175 114
182 175 114
182 175 114
182 175 114
182 175 114
182 175 114
183 175 114
183 175 114
183 175 114
183 175 114
183 175 114
183 175 114
183 175 114
183 175 114
183 175 114
184 176 114
184 176 114
184 176 114
184 176 114
184 176 114
184 176 114
184 176 114
184 176 114
185 176 114
185 176 114
185 176 114
185 176 114
185 176 114
185 176 114
185 176 114
185 176 114
185 176 114
186 176 114
186 177 114
186 177 114
186 177 114
186 177 114
186 177 114
186 177 114
186 177 114
187 177 114
187 177 114
169 194 47
173 198 80
170 195 72
171 195 80
170 195 60
169 195 51
165 191 44
170 195 44
166 192 44
170 195 76
167 193 36
169 194 44
169 194 62
171 196 60
165 192 0
165 191 57
167 192 54
169 194 54
167 192 44
169 194 60
169 195 25
168 193 44
168 193 67
169 194 25
171 196 67
167 193 54
169 194 57
166 192 36
171 196 70
166 192 67
177 200 103
177 199 118
182 203 126
188 209 149
189 208 161
194 213 171
193 212 172
196 214 192
197 216 188
209 225 212
207 223 210
209 225 218
211 226 223
207 223 217
214 228 237
215 229 233
220 233 247
221 234 250
221 234 252
220 233 250
215 229 246
220 234 252
224 236 254
221 234 252
219 232 250
220 233 250
222 235 254
219 232 248
220 233 249
223 236 253
221 234 250
221 234 250
225 237 255
222 235 252
217 230 246
223 235 253
220 233 246
222 235 252
220 234 249
223 236 252
223 236 254
223 236 252
222 235 252
222 235 250
222 235 250
224 237 252
222 235 250
216 230 238
216 230 231
217 232 236
209 225 218
209 225 214
207 223 214
203 221 196
197 216 177
190 211 155
187 208 147
188 209 144
179 202 108
174 198 76
171 196 51
170 196 51
170 196 57
172 197 57
171 196 44
171 197 51
171 196 62
169 195 57
173 198 62
170 196 51
169 195 36
168 194 36
170 196 44
170 196 51
171 197 62
172 197 72
170 196 44
170 195 25
170 196 44
169 194 25
170 196 51
172 197 67
170 196 51
171 197 57
170 196 44
171 197 57
170 195 25
167 192 54
171 196 0
168 193 31
165 190 44
167 193 25
168 193 25
169 194 18
163 189 44
166 192 31
167 193 25
168 194 25
164 190 36
164 190 31
166 191 36
171 196 25
168 193 51
170 195 47
173 198 80
168 195 25
172 197 62
172 196 88
70 103 131
62 98 157
61 96 143
61 97 147
62 98 154
62 98 153
63 99 158
63 98 152
63 99 158
63 99 158
63 99 158
63 99 162
62 98 153
62 98 154
61 96 147
63 98 156
63 99 157
62 98 156
62 97 142
62 97 153
63 98 157
61 97 151
63 98 153
62 98 154
62 97 149
62 97 148
63 98 155
62 98 148
63 98 153
61 97 147
62 97 151
62 98 152
62 97 152
63 98 160
61 96 144
63 99 159
63 99 157
63 98 155
63 98 155
62 98 157
62 97 153
62 97 148
62 98 152
62 97 153
63 99 158
62 98 155
62 98 154
62 98 154
63 99 157
63 98 157
63 98 155
63 99 160
63 98 154
63 98 153
62 98 153
62 98 152
62 98 153
62 98 152
63 98 155
63 98 157
62 97 147
62 98 157
62 98 151
62 97 150
62 97 149
62 97 151
63 98 158
62 97 147
62 98 152
62 97 145
63 98 156
62 98 153
62 97 151
62 98 155
62 98 151
62 98 152
62 98 154
62 98 158
63 99 155
64 99 159
62 98 154
63 99 161
62 98 154
62 98 151
63 99 160
63 99 158
62 97 149
63 99 156
63 99 158
61 96 144
63 99 160
62 98 154
62 98 152
62 98 152
62 98 150
63 98 157
61 97 148
63 99 158
63 99 158
62 98 152
61 97 144
62 98 162
63 98 155
62 98 154
62 97 150
62 97 145
62 98 153
63 99 162
62 98 157
63 99 155
61 97 150
62 97 153
62 98 156
61 96 150
63 98 161
63 99 161
62 98 156
62 97 151
62 96 149
63 98 159
62 97 154
61 95 150
75 103 155
179 173 114
181 174 114
180 174 114
180 174 114
168 164 109
127 128 94
69 82 73
51 69 66
52 70 67
53 70 67
52 70 67
53 71 68
53 70 67
53 71 70
52 70 67
53 72 70
54 73 73
55 74 75
55 75 75
55 75 77
93 103 86
154 153 106
177 172 114
177 172 114
177 172 114
176 172 114
176 172 114
176 172 114
176 172 114
177 172 114
176 172 114
177 172 114
177 172 114
177 172 114
177 172 114
177 172 114
177 172 114
177 172 114
177 172 114
177 172 114
177 172 114
177 172 114
177 172 114
177 173 114
177 173 114
177 173 114
177 173 114
177 173 114
178 173 114
178 173 114
178 173 114
178 173 114
178 173 114
178 173 114
178 173 114
178 173 114
178 173 114
178 173 114
178 173 114
179 173 114
179 173 114
179 173 114
179 173 114
179 173 114
179 173 114
179 173 114
179 173 114
179 174 114
179 174 114
180 174 114
180 174 114
180 174 114
180 174 114
180 174 114
180 174 114
180 174 114
180 174 114
180 174 114
180 174 114
181 174 114
181 174 114
181 174 114
181 174 114
181 174 114
181 174 114
181 174 114
181 174 114
181 175 114
182 175 114
182 175 114
182 175 114
182 175 114
182 175 114
182 175 114
182 175 114
182 175 114
182 175 114
183 175 114
183 175 114
183 175 114
183 175 114
183 175 114
183 175 114
183 175 114
183 175 114
183 175 114
184 175 114
184 176 114
184 176 114
184 176 114
184 176 114
184 176 114
184 176 114
184 176 114
184 176 114
185 176 114
185 176 114
185 176 114
185 176 114
185 176 114
185 176 114
185 176 114
185 176 114
185 176 114
186 176 114
186 176 114
186 177 114
186 177 114
186 177 114
186 177 114
186 177 114
186 177 114
186 177 114
187 177 114
187 177 114
187 177 114
187 177 114
187 177 114
187 177 114
169 194 57
169 194 65
166 191 54
168 194 60
167 193 40
169 194 72
168 194 44
169 194 57
165 191 25
168 193 36
166 192 44
168 194 76
168 194 40
171 196 72
171 196 72
168 194 0
171 196 62
170 195 72
182 205 124
183 206 135
188 207 159
196 215 181
194 212 182
202 220 199
200 217 196
206 222 213
210 225 226
216 230 241
223 236 252
223 236 254
219 232 250
219 231 249
217 230 247
218 231 248
223 236 254
221 234 253
223 236 254
218 230 248
216 230 248
224 236 254
220 233 252
222 235 254
221 234 252
221 234 252
222 235 254
222 235 254
219 232 249
217 230 246
218 232 250
220 233 251
218 231 249
217 230 248
221 234 252
221 233 251
218 231 248
222 235 254
224 237 255
219 232 249
224 237 254
218 231 248
221 234 252
221 234 250
219 232 248
223 236 254
225 237 255
223 236 253
224 237 254
221 235 252
222 235 252
221 234 249
221 234 252
222 235 252
221 234 252
223 236 250
220 234 248
222 235 250
224 237 254
221 234 246
224 237 254
223 236 252
222 235 252
220 233 248
223 236 253
219 233 245
221 234 248
221 235 249
220 234 249
223 236 253
222 235 250
224 237 252
225 237 254
216 231 234
212 227 223
208 225 211
197 216 179
195 214 167
186 208 137
179 202 108
173 198 80
171 196 51
172 197 57
171 196 51
171 197 57
171 197 57
171 196 44
170 196 51
170 196 51
168 194 44
172 198 72
170 195 44
171 197 57
170 196 57
171 196 44
170 196 44
170 196 36
169 194 36
167 193 31
168 193 18
168 193 25
165 191 36
168 193 31
167 193 25
166 192 36
166 192 18
167 192 25
162 188 31
168 194 18
165 190 31
162 188 36
168 193 18
166 192 18
166 192 31
165 191 31
165 191 25
167 193 40
172 198 72
171 196 67
147 173 92
62 97 153
62 97 150
62 97 153
62 97 151
62 98 157
62 98 149
62 98 156
61 97 147
63 98 154
63 98 157
62 98 154
63 98 158
63 98 155
62 97 144
62 98 156
62 98 155
62 98 148
62 98 151
63 98 153
63 99 157
62 97 145
62 98 154
63 98 158
61 97 152
63 98 156
63 98 153
62 98 152
63 98 153
63 98 154
63 99 157
63 98 157
63 98 154
62 97 149
62 98 154
63 98 155
63 98 154
63 98 153
61 97 149
63 99 159
63 98 154
62 97 150
62 98 155
63 99 158
61 97 148
62 98 154
63 98 154
61 96 142
63 98 156
61 97 149
63 99 158
62 98 151
62 98 153
61 97 148
63 98 152
62 97 145
62 98 151
62 98 153
62 98 151
62 97 149
62 97 154
62 97 153
62 98 155
63 99 162
62 98 153
62 97 149
63 99 155
63 98 156
63 98 158
61 97 151
62 97 149
62 97 147
62 98 157
63 98 157
62 98 153
62 98 149
62 98 155
62 97 156
62 98 155
63 98 154
62 98 154
62 98 158
62 98 153
63 98 157
62 97 152
62 97 148
63 98 154
62 97 150
63 99 157
63 98 150
63 98 163
61 96 141
63 98 150
62 98 154
62 98 153
63 98 153
62 97 150
62 97 149
63 98 154
61 97 147
62 98 152
61 96 144
62 98 152
62 98 152
62 97 148
61 97 143
62 98 156
62 97 150
62 98 154
62 98 153
62 97 148
62 98 152
62 97 152
63 98 152
61 96 150
62 98 156
62 97 148
63 98 161
63 98 156
62 97 151
62 97 153
63 98 160
61 95 146
61 94 146
164 161 121
181 174 114
177 171 113
125 126 92
60 75 70
52 70 67
50 66 61
50 66 60
52 69 66
52 69 66
52 69 66
53 71 68
53 70 66
52 70 66
54 71 68
54 71 67
54 72 70
54 73 73
54 73 73
55 74 74
55 75 75
55 76 77
90 101 86
161 159 108
177 173 114
177 173 114
177 173 114
177 173 114
177 173 114
177 173 114
177 173 114
177 173 114
178 173 114
178 173 114
178 173 114
178 173 114
178 173 114
178 173 114
178 173 114
178 173 114
178 173 114
178 173 114
178 173 114
178 173 114
178 173 114
178 173 114
178 173 114
178 173 114
179 173 114
179 173 114
179 173 114
179 173 114
179 173 114
179 173 114
179 173 114
179 173 114
179 173 114
179 173 114
179 174 114
179 174 114
180 174 114
180 174 114
180 174 114
180 174 114
180 174 114
180 174 114
180 174 114
180 174 114
180 174 114
180 174 114
181 174 114
181 174 114
181 174 114
181 174 114
181 174 114
181 174 114
181 174 114
181 174 114
181 174 114
181 174 114
181 175 114
182 175 114
182 175 114
182 175 114
182 175 114
182 175 114
182 175 114
182 175 114
182 175 114
182 175 114
183 175 114
183 175 114
183 175 114
183 175 114
183 175 114
183 175 114
183 175 114
183 175 114
183 175 114
184 175 114
184 176 114
184 176 114
184 176 114
184 176 114
184 176 114
184 176 114
184 176 114
184 176 114
184 176 114
185 176 114
185 176 114
185 176 114
185 176 114
185 176 114
185 176 114
185 176 114
185 176 114
185 176 114
186 176 114
186 176 114
186 177 114
186 177 114
186 177 114
186 177 114
186 177 114
186 177 114
186 177 114
186 177 114
187 177 114
187 177 114
187 177 114
187 177 114
187 177 114
187 177 114
187 177 114
187 177 114
187 177 114
188 177 114
188 177 114
167 192 51
168 194 47
170 195 62
169 195 70
166 191 60
168 193 74
173 197 72
181 203 126
183 204 142
189 210 158
192 212 167
196 215 180
198 216 194
212 227 233
215 230 233
213 227 232
220 233 251
225 238 255
221 234 251
219 233 250
225 237 255
221 234 252
221 234 252
220 233 252
220 233 251
221 234 253
221 234 252
223 236 254
222 235 253
223 236 255
219 232 252
218 231 248
220 233 251
222 235 253
222 234 253
222 235 253
220 233 252
219 232 250
220 233 252
222 235 253
217 231 248
223 236 254
220 233 251
222 235 252
223 236 254
221 234 252
219 232 250
223 235 254
217 230 249
221 234 252
220 233 250
220 233 250
222 235 254
218 231 248
222 235 253
218 232 250
218 231 248
221 234 252
219 232 250
217 230 248
222 235 253
222 235 253
218 232 246
220 233 250
221 234 250
219 232 249
218 231 246
222 235 252
221 235 249
222 235 253
224 237 253
222 236 253
221 235 250
222 235 252
220 234 248
222 235 252
223 236 253
222 235 250
223 236 252
221 234 249
223 236 253
222 235 250
223 236 252
220 234 246
221 235 249
223 236 254
223 236 253
223 236 253
223 236 253
223 236 252
223 236 250
222 235 246
222 236 252
223 236 252
223 236 253
224 237 254
224 237 252
221 235 246
224 237 253
216 231 234
211 227 221
208 224 207
199 217 186
186 207 128
176 200 84
172 197 51
173 198 72
171 197 51
171 197 67
171 196 44
169 195 0
170 196 44
172 198 76
168 194 47
166 191 40
169 195 18
167 193 31
166 191 42
163 189 44
165 191 31
170 195 0
164 190 36
169 194 0
167 192 25
167 193 18
163 189 31
165 191 36
165 190 25
166 191 31
167 193 0
165 190 31
165 191 36
166 192 25
163 188 18
166 192 25
164 190 40
170 196 62
123 150 120
61 97 149
62 97 148
61 97 151
62 98 156
62 97 148
62 98 156
62 98 156
62 98 156
63 98 157
63 98 153
62 98 152
62 98 158
62 98 159
63 99 159
63 99 157
62 97 152
62 98 155
63 98 157
63 98 157
61 96 147
62 97 150
61 97 144
63 99 158
63 98 160
62 98 157
62 98 156
62 97 147
62 97 152
61 97 150
61 97 145
64 99 163
62 97 153
61 96 141
62 97 149
62 97 150
62 98 153
61 97 147
62 97 148
62 98 154
63 99 156
61 97 152
61 97 145
62 97 148
62 98 153
62 98 155
61 97 148
63 99 154
62 98 151
62 98 154
62 98 150
61 97 149
62 98 153
62 97 148
62 98 152
62 98 151
61 97 144
62 97 151
62 97 150
62 98 149
63 98 157
62 98 154
62 98 155
62 98 150
62 98 153
62 98 156
63 99 161
62 98 151
63 99 157
61 96 142
62 97 153
62 98 158
62 98 157
63 98 155
62 98 151
62 97 145
61 97 149
62 97 151
63 99 159
63 98 156
62 98 153
63 98 153
62 98 154
61 96 145
62 97 150
62 97 147
62 98 154
62 98 151
62 98 152
62 98 150
63 98 155
62 97 150
62 98 156
63 98 155
61 97 147
63 98 156
63 98 160
62 98 156
63 98 152
63 98 156
63 99 162
62 98 157
61 97 150
61 96 143
62 97 153
63 99 158
63 98 156
62 98 152
62 97 148
63 98 153
63 98 154
63 98 155
60 96 143
63 98 158
63 98 159
63 98 156
63 98 151
63 99 162
62 97 152
62 97 157
62 97 155
63 98 158
61 95 147
62 96 157
128 134 128
161 156 105
91 97 73
49 64 57
50 66 59
50 66 61
49 65 59
48 63 57
50 65 57
50 66 61
50 66 60
52 68 63
51 68 61
52 69 65
53 70 66
53 71 68
54 72 70
53 70 66
55 74 73
55 74 73
54 73 72
55 74 74
55 75 75
60 79 79
133 134 98
178 172 114
178 173 114
178 173 114
178 173 114
178 173 114
178 173 114
178 173 114
179 173 114
179 173 114
179 173 114
179 173 114
179 173 114
179 173 114
179 173 114
179 173 114
179 173 114
179 173 114
179 173 114
179 173 114
179 173 114
179 173 114
179 174 114
179 174 114
179 174 114
180 174 114
180 174 114
180 174 114
180 174 114
180 174 114
180 174 114
180 174 114
180 174 114
180 174 114
180 174 114
180 174 114
180 174 114
181 174 114
181 174 114
181 174 114
181 174 114
181 174 114
181 174 114
181 174 114
181 174 114
181 174 114
181 174 114
181 175 114
182 175 114
182 175 114
182 175 114
182 175 114
182 175 114
182 175 114
182 175 114
182 175 114
182 175 114
182 175 114
183 175 114
183 175 114
183 175 114
183 175 114
183 175 114
183 175 114
183 175 114
183 175 114
183 175 114
183 175 114
184 175 114
184 176 114
184 176 114
184 176 114
184 176 114
184 176 114
184 176 114
184 176 114
184 176 114
184 176 114
185 176 114
185 176 114
185 176 114
185 176 114
185 176 114
185 176 114
185 176 114
185 176 114
185 176 114
185 176 114
186 176 114
186 176 114
186 177 114
186 177 114
186 177 114
186 177 114
186 177 114
186 177 114
186 177 114
186 177 114
187 177 114
187 177 114
187 177 114
187 177 114
187 177 114
187 177 114
187 177 114
187 177 114
187 177 114
187 177 114
187 177 114
188 177 114
188 177 114
188 177 114
188 178 114
188 178 114
188 178 114
195 214 169
199 216 196
209 224 222
215 230 234
214 229 238
216 230 244
216 230 247
217 230 249
222 235 253
222 235 253
219 232 250
218 231 248
223 236 253
222 235 253
224 237 255
219 232 250
220 233 251
222 235 252
219 232 250
218 231 248
218 231 249
222 235 253
220 233 251
221 234 252
217 230 248
220 233 252
223 236 255
218 231 248
220 233 252
222 235 254
221 234 253
221 234 252
218 231 250
216 229 246
221 234 252
219 232 250
218 231 250
221 234 252
219 233 250
220 233 252
221 234 252
219 232 250
222 235 254
220 233 250
223 236 254
218 231 249
218 232 250
217 230 248
220 233 252
222 235 254
220 233 250
222 235 253
221 234 252
217 230 246
220 233 251
216 230 248
220 233 250
219 232 250
221 234 252
222 235 253
221 234 252
224 237 254
219 233 250
221 234 248
218 231 244
221 234 249
221 234 250
222 235 250
221 234 250
220 234 249
223 236 253
224 237 254
223 236 252
223 236 253
220 234 249
223 236 253
218 233 244
222 235 252
223 236 253
223 236 253
218 232 246
221 234 249
221 234 252
222 235 253
224 237 254
223 236 253
222 235 250
222 236 250
223 236 250
223 236 253
222 236 252
224 237 253
223 236 253
222 235 250
223 236 250
220 234 246
221 234 250
222 236 250
222 236 253
223 236 252
224 237 255
223 236 254
218 232 241
223 236 250
221 234 248
220 234 245
210 226 217
207 223 209
195 215 169
182 205 122
175 199 76
170 196 51
167 193 40
168 194 0
165 192 31
164 190 40
167 193 31
166 192 31
167 192 31
170 195 31
166 192 31
168 194 25
165 191 31
169 194 18
167 193 18
167 192 25
168 194 18
169 194 18
167 193 36
162 188 36
167 193 25
165 191 18
161 188 40
165 190 25
164 190 40
163 189 36
166 192 31
78 109 133
63 98 154
62 97 151
61 96 145
63 98 156
62 98 155
62 98 156
61 96 143
62 98 155
62 97 148
62 98 156
62 97 149
63 98 151
63 99 162
63 98 156
62 98 153
62 97 152
61 97 144
63 98 157
63 98 157
63 99 157
62 98 154
62 97 150
62 98 153
61 96 141
62 97 145
63 99 155
62 98 154
64 99 163
63 98 150
62 98 153
62 98 151
62 98 155
62 98 152
62 98 154
62 97 152
64 99 160
62 97 149
62 98 154
62 97 147
62 98 150
62 98 154
63 98 158
62 97 149
62 97 147
63 99 158
62 98 156
62 97 149
62 98 156
62 97 152
62 98 150
62 97 151
62 98 151
62 98 148
61 97 150
62 97 147
63 99 157
62 97 148
62 98 155
62 97 150
61 96 140
62 97 147
62 98 152
63 98 155
62 97 151
63 98 152
62 97 151
62 97 148
62 97 147
61 97 147
61 97 148
62 97 150
61 97 151
61 96 140
62 97 144
62 97 151
63 98 154
63 98 154
62 98 154
62 97 152
62 98 152
62 97 144
62 98 154
62 97 157
62 98 154
62 97 149
63 99 156
62 98 153
62 97 152
62 98 154
61 96 144
63 98 157
62 98 154
62 98 151
62 98 155
62 97 151
63 98 153
62 97 149
62 97 151
63 98 156
63 99 157
62 97 150
63 98 155
62 97 149
63 98 156
62 97 151
63 98 152
63 98 150
61 96 141
62 97 149
61 96 146
61 96 149
62 97 152
62 98 153
62 97 148
63 99 163
62 97 152
62 96 146
63 98 160
61 96 145
61 95 146
62 97 153
62 96 147
61 95 142
71 97 134
55 68 58
47 61 49
49 64 57
47 62 56
48 63 55
48 62 53
49 64 57
48 62 54
50 65 58
50 66 59
51 66 58
51 66 60
52 68 62
53 70 66
51 68 64
53 70 64
54 73 72
54 74 73
54 73 70
55 74 72
55 74 72
55 75 74
56 76 76
55 75 74
104 111 88
176 171 113
179 174 114
179 174 114
179 174 114
179 174 114
179 174 114
180 174 114
180 174 114
180 174 114
180 174 114
180 174 114
180 174 114
180 174 114
180 174 114
180 174 114
180 174 114
180 174 114
180 174 114
180 174 114
180 174 114
180 174 114
180 174 114
180 174 114
180 174 114
181 174 114
181 174 114
181 174 114
181 174 114
181 174 114
181 174 114
181 174 114
181 174 114
181 174 114
181 174 114
181 174 114
181 174 114
182 175 114
182 175 114
182 175 114
182 175 114
182 175 114
182 175 114
182 175 114
182 175 114
182 175 114
182 175 114
182 175 114
182 175 114
183 175 114
183 175 114
183 175 114
183 175 114
183 175 114
183 175 114
183 175 114
183 175 114
183 175 114
183 175 114
184 175 114
184 176 114
184 176 114
184 176 114
184 176 114
184 176 114
184 176 114
184 176 114
184 176 114
184 176 114
184 176 114
185 176 114
185 176 114
185 176 114
185 176 114
185 176 114
185 176 114
185 176 114
185 176 114
185 176 114
185 176 114
186 176 114
186 176 114
186 177 114
186 177 114
186 177 114
186 177 114
186 177 114
186 177 114
186 177 114
186 177 114
186 177 114
187 177 114
187 177 114
187 177 114
187 177 114
187 177 114
187 177 114
187 177 114
187 177 114
187 177 114
187 177 114
187 177 114
188 177 114
188 177 114
188 177 114
188 178 114
188 178 114
188 178 114
188 178 114
188 178 114
188 178 114
188 178 114
188 178 114
189 178 114
224 237 255
219 232 250
221 233 250
219 232 250
223 236 254
221 234 252
216 229 247
220 233 251
217 231 248
224 237 255
217 230 248
221 234 252
220 233 250
225 237 255
224 237 255
220 233 252
219 232 252
220 233 250
220 233 252
222 235 254
216 230 248
219 232 250
219 232 250
222 235 254
218 231 250
219 232 251
220 233 250
223 236 255
219 232 251
223 236 254
220 233 251
221 234 252
221 234 252
217 231 250
223 236 255
219 233 252
218 231 250
219 232 250
219 232 251
220 233 252
219 233 250
218 232 250
217 231 248
221 234 252
218 232 250
222 235 254
217 231 249
219 233 252
219 233 251
220 234 252
219 232 251
219 232 251
214 228 246
222 236 254
221 234 252
221 235 254
221 234 252
222 235 254
223 236 254
224 237 255
220 233 251
219 233 250
221 234 252
222 235 253
220 233 248
222 236 250
222 236 252
221 234 249
220 234 246
222 235 249
220 234 249
221 234 249
221 235 250
221 235 250
221 234 249
222 235 250
222 236 250
221 235 248
224 237 254
223 236 253
221 235 249
221 234 248
223 236 253
221 235 250
221 235 250
224 237 255
222 236 252
221 234 249
222 236 250
224 237 253
221 235 248
224 237 255
221 235 250
222 236 250
223 236 254
222 235 249
223 236 252
223 237 254
223 236 252
222 235 249
223 236 254
224 237 254
219 233 244
224 237 254
221 235 248
223 236 252
223 236 250
224 237 254
225 237 254
223 236 250
221 235 246
210 226 222
199 216 200
190 210 172
174 198 97
171 196 62
169 194 36
163 189 44
168 193 18
168 194 18
168 194 0
164 190 36
167 193 31
167 193 25
167 192 25
166 192 18
165 190 18
165 191 18
166 191 18
166 191 0
167 192 18
165 191 25
169 194 18
167 193 18
168 194 18
162 188 31
152 177 60
61 97 148
61 96 144
62 97 152
63 98 156
62 98 149
62 98 153
62 97 152
61 96 141
61 96 141
62 97 150
62 97 149
63 98 153
63 99 158
63 99 156
63 98 155
61 96 139
62 97 144
63 98 152
63 98 153
63 98 157
62 98 151
62 98 151
62 97 149
62 98 155
62 97 148
61 97 149
62 98 155
64 100 162
61 96 145
62 97 148
63 98 154
63 98 156
61 97 144
62 97 155
62 97 149
63 98 157
63 98 156
63 99 158
63 99 158
62 98 152
62 98 156
62 97 150
63 98 155
62 98 154
63 99 159
62 97 147
62 98 149
62 97 145
63 98 155
62 97 148
61 96 141
62 97 147
63 98 156
63 98 153
63 98 152
62 97 147
62 97 147
63 98 152
61 97 143
63 99 158
63 98 152
62 98 151
61 96 139
63 98 154
62 97 148
62 97 148
61 97 148
62 98 155
62 98 155
62 97 147
62 98 150
62 97 149
61 96 145
63 99 156
61 97 144
63 98 156
62 98 151
62 98 154
62 97 149
62 98 153
63 98 156
62 97 149
62 98 159
63 98 158
63 98 157
62 97 143
62 98 151
62 98 151
63 99 158
62 97 153
63 98 155
61 95 139
61 97 144
63 98 157
62 97 148
63 99 157
62 97 153
62 98 155
62 97 145
62 97 150
62 97 143
62 98 153
62 97 149
62 97 148
62 97 149
62 98 152
62 97 149
62 97 148
62 97 152
62 98 148
62 97 148
63 99 163
62 97 154
63 98 158
63 98 158
63 98 153
61 95 140
62 98 156
62 97 150
61 96 147
62 97 153
61 95 142
62 97 148
61 95 145
61 94 140
47 63 64
47 61 50
45 58 47
46 60 53
47 60 49
46 60 51
48 62 53
48 62 53
48 63 55
50 65 56
49 64 55
51 66 58
52 68 61
53 69 63
51 67 61
53 69 62
53 70 64
52 70 64
55 74 71
54 72 67
55 74 72
55 74 72
56 75 72
56 77 78
56 75 75
110 116 89
176 170 112
180 174 114
180 174 114
181 174 114
181 174 114
181 174 114
181 174 114
181 174 114
181 174 114
181 174 114
181 174 114
181 174 114
181 174 114
181 174 114
181 174 114
181 174 114
181 174 114
181 174 114
181 174 114
181 174 114
181 174 114
181 174 114
181 174 114
182 175 114
182 175 114
182 175 114
182 175 114
182 175 114
182 175 114
182 175 114
182 175 114
182 175 114
182 175 114
182 175 114
182 175 114
182 175 114
183 175 114
183 175 114
183 175 114
183 175 114
183 175 114
183 175 114
183 175 114
183 175 114
183 175 114
183 175 114
183 175 114
183 175 114
184 175 114
184 176 114
184 176 114
184 176 114
184 176 114
184 176 114
184 176 114
184 176 114
184 176 114
184 176 114
184 176 114
184 176 114
185 176 114
185 176 114
185 176 114
185 176 114
185 176 114
185 176 114
185 176 114
185 176 114
185 176 114
185 176 114
185 176 114
186 176 114
186 176 114
186 176 114
186 177 114
186 177 114
186 177 114
186 177 114
186 177 114
186 177 114
186 177 114
186 177 114
187 177 114
187 177 114
187 177 114
187 177 114
187 177 114
187 177 114
187 177 114
187 177 114
187 177 114
187 177 114
187 177 114
187 177 114
188 177 114
188 177 114
188 177 114
188 178 114
188 178 114
188 178 114
188 178 114
188 178 114
188 178 114
188 178 114
188 178 114
189 178 114
189 178 114
189 178 114
189 178 114
189 178 114
189 178 114
189 178 114
222 235 253
222 235 253
221 234 254
221 234 252
220 233 250
222 235 254
221 234 252
220 233 251
219 233 251
218 231 249
217 231 248
221 234 253
219 233 252
221 234 252
222 235 253
221 234 252
222 235 253
220 233 252
221 234 252
223 236 255
220 233 251
221 234 253
220 233 252
219 232 250
221 234 253
221 234 252
220 233 252
222 235 253
216 230 248
223 236 254
219 233 250
220 233 252
221 235 254
221 234 252
219 233 252
220 233 252
221 235 253
216 229 250
222 236 254
220 233 252
222 235 254
221 234 252
221 234 253
220 233 252
218 232 252
223 236 255
220 234 253
220 234 253
223 236 254
219 232 250
222 235 254
222 236 255
222 236 255
215 228 247
211 225 244
219 232 252
221 234 252
219 232 250
219 232 250
223 236 254
223 237 255
222 235 254
221 234 252
219 232 250
218 231 249
221 235 251
221 235 250
220 234 246
223 236 254
221 235 249
221 234 246
220 234 250
221 235 252
219 233 246
220 234 250
223 236 252
224 237 255
223 236 253
222 235 249
222 235 252
223 236 253
221 235 249
222 236 253
223 236 253
221 235 250
220 234 248
223 236 253
221 235 249
222 236 250
223 236 254
220 234 246
223 236 252
223 236 253
224 237 255
221 234 249
222 236 250
221 235 250
224 237 254
222 235 250
223 236 250
222 236 249
224 237 254
224 237 255
223 236 252
224 237 255
222 235 248
221 234 248
224 237 254
222 236 250
223 236 252
224 237 255
218 231 249
223 236 252
217 230 246
215 229 240
220 233 244
210 226 218
198 216 188
186 207 148
173 197 88
165 191 25
165 192 18
167 192 25
167 193 31
166 191 25
166 192 25
167 192 25
168 194 25
166 192 36
167 193 31
163 189 25
165 191 25
166 192 18
165 190 18
167 192 25
166 192 36
129 156 94
60 95 134
62 97 148
61 97 150
62 97 149
63 98 151
62 98 153
62 97 149
64 100 164
62 97 144
62 98 151
62 97 148
63 99 154
62 98 152
61 97 144
62 98 148
61 96 140
62 97 148
62 98 154
62 97 151
63 98 155
62 98 152
62 97 148
62 97 148
62 97 144
61 97 148
63 98 151
62 97 148
62 97 144
62 97 148
63 98 157
63 99 157
62 98 154
62 98 153
62 97 145
62 97 149
61 96 143
63 98 155
61 97 147
62 97 144
61 96 141
62 98 152
61 96 141
62 98 151
62 97 148
62 97 152
61 97 143
61 96 140
63 99 162
62 97 149
61 97 148
61 96 143
63 98 152
63 98 151
63 99 159
62 97 148
62 97 151
63 99 159
61 96 140
63 98 154
63 99 156
62 98 151
62 98 150
60 95 134
62 97 152
63 98 152
62 97 147
62 97 144
63 98 157
61 96 144
61 96 139
62 98 152
63 99 157
62 97 147
63 98 155
62 97 149
62 97 147
62 98 152
62 97 147
62 97 148
63 99 159
62 98 151
62 98 151
61 96 148
62 98 154
61 97 145
62 97 147
61 97 145
62 97 145
61 96 143
63 99 155
61 96 141
61 97 147
62 97 152
61 97 152
62 98 151
63 98 153
62 98 151
62 98 153
62 97 149
63 99 160
63 99 157
63 98 153
62 97 150
63 98 156
63 98 156
63 98 154
62 97 150
61 97 148
62 98 154
61 96 141
62 97 147
62 98 152
62 96 144
61 96 142
62 97 146
62 97 151
61 96 144
62 96 149
62 97 145
62 98 157
63 98 152
63 97 150
62 97 158
61 95 144
61 95 150
51 72 93
44 57 47
45 58 45
44 57 46
48 62 53
46 60 54
45 59 50
49 63 55
50 64 56
46 60 50
49 62 51
50 66 58
52 67 60
50 65 55
53 70 65
53 69 62
53 69 61
53 72 67
54 73 68
54 72 67
55 74 71
55 73 69
55 75 73
56 74 72
55 75 72
56 77 76
112 117 90
181 174 114
182 175 114
181 175 114
182 175 114
182 175 114
182 175 114
182 175 114
182 175 114
182 175 114
182 175 114
182 175 114
182 175 114
182 175 114
182 175 114
182 175 114
182 175 114
182 175 114
182 175 114
182 175 114
182 175 114
182 175 114
182 175 114
183 175 114
183 175 114
183 175 114
183 175 114
183 175 114
183 175 114
183 175 114
183 175 114
183 175 114
183 175 114
183 175 114
183 175 114
183 175 114
183 175 114
184 175 114
184 176 114
184 176 114
184 176 114
184 176 114
184 176 114
184 176 114
184 176 114
184 176 114
184 176 114
184 176 114
184 176 114
184 176 114
185 176 114
185 176 114
185 176 114
185 176 114
185 176 114
185 176 114
185 176 114
185 176 114
185 176 114
185 176 114
185 176 114
185 176 114
186 176 114
186 176 114
186 177 114
186 177 114
186 177 114
186 177 114
186 177 114
186 177 114
186 177 114
186 177 114
186 177 114
186 177 114
187 177 114
187 177 114
187 177 114
187 177 114
187 177 114
187 177 114
187 177 114
187 177 114
187 177 114
187 177 114
187 177 114
187 177 114
188 177 114
188 177 114
188 177 114
188 177 114
188 178 114
188 178 114
188 178 114
188 178 114
188 178 114
188 178 114
188 178 114
188 178 114
189 178 114
189 178 114
189 178 114
189 178 114
189 178 114
189 178 114
189 178 114
189 178 114
189 178 114
189 178 114
189 178 114
189 178 114
190 178 114
190 178 114
220 233 252
220 233 251
219 232 251
220 233 252
217 231 249
221 234 252
221 234 252
221 234 252
220 233 252
220 233 251
219 232 252
220 233 251
221 234 253
221 235 252
222 235 254
215 229 247
217 230 249
217 230 248
219 232 250
222 235 254
220 234 252
222 235 254
221 234 253
219 233 251
218 231 250
219 233 252
222 235 254
218 231 249
220 233 252
217 231 249
221 234 254
222 235 253
218 232 252
217 231 250
218 232 251
221 234 252
216 230 251
223 236 255
220 233 252
216 230 250
223 236 254
218 232 250
224 237 255
219 233 252
220 234 252
224 237 255
221 234 253
216 230 248
221 234 254
215 229 246
218 232 252
220 233 251
220 233 253
221 235 254
224 237 255
222 236 254
220 234 253
223 236 255
221 234 252
219 233 252
219 233 252
221 234 252
221 235 253
216 229 248
216 230 247
215 228 245
220 234 250
222 235 252
220 234 248
223 237 254
221 235 248
220 233 249
219 233 245
221 235 252
222 236 252
222 235 252
220 235 249
221 235 248
222 236 252
223 236 254
218 232 242
222 236 253
223 236 253
222 236 252
220 234 245
222 235 252
221 235 250
221 235 249
220 234 249
222 236 252
222 235 250
223 236 253
223 236 253
222 235 249
223 236 252
221 235 250
222 235 252
222 236 250
221 235 250
223 236 253
222 235 249
221 235 248
222 236 252
223 237 254
222 235 250
222 236 253
221 235 248
222 236 253
221 235 248
218 232 245
221 235 248
219 233 249
218 231 247
222 235 253
219 232 245
220 233 248
214 228 242
218 231 246
217 231 243
219 233 246
210 225 217
195 213 182
186 206 152
167 191 74
164 191 25
169 195 0
165 191 18
169 194 31
164 190 18
165 191 0
165 191 25
165 191 0
164 189 31
168 194 0
165 192 25
165 191 18
102 130 124
61 96 142
62 97 147
62 97 142
62 97 149
62 98 149
62 98 149
63 99 160
63 98 154
62 97 145
63 98 154
61 97 149
63 99 163
63 98 152
62 97 150
63 98 155
62 98 150
61 97 144
62 97 147
62 98 150
63 98 154
62 97 145
62 97 150
62 98 150
62 97 150
63 98 152
64 99 154
60 96 142
63 98 157
62 98 155
63 98 151
61 97 147
62 97 148
62 97 151
62 98 151
61 96 135
62 98 157
62 98 150
64 99 159
63 98 153
62 98 149
62 97 144
63 98 156
62 97 147
61 97 145
63 98 153
63 98 153
59 94 131
63 99 158
62 97 149
62 97 148
63 98 151
60 96 136
62 97 148
62 98 152
61 96 140
61 96 147
62 97 148
62 97 150
62 98 149
62 98 149
62 98 152
63 98 153
62 98 154
61 96 140
63 98 157
62 98 151
63 98 153
63 99 154
61 96 143
62 97 147
63 99 158
63 99 155
63 98 154
63 98 151
63 99 162
60 96 141
62 98 150
62 98 151
62 97 151
62 98 149
62 98 150
63 98 151
62 97 148
62 97 151
62 98 156
62 98 155
63 99 158
62 97 150
62 97 148
62 97 147
61 96 142
61 97 143
61 96 147
62 97 147
62 98 151
62 98 145
62 98 150
61 96 142
62 98 154
62 97 151
62 97 143
62 98 155
62 98 149
61 96 141
63 98 153
62 97 145
61 96 137
62 97 148
62 97 148
62 97 147
62 97 145
63 98 156
62 97 150
62 98 158
62 97 150
62 98 151
61 96 148
62 97 151
63 98 155
63 98 158
62 97 148
61 95 144
62 96 146
60 93 137
62 95 150
51 75 99
43 55 45
41 53 45
44 55 43
43 56 44
45 58 48
47 60 49
45 59 49
49 64 56
48 62 51
48 61 50
50 65 56
50 65 56
51 67 59
51 68 61
53 69 62
53 69 63
53 70 64
54 71 64
53 71 64
54 72 68
55 73 66
54 72 66
55 74 71
55 75 71
56 76 74
56 76 73
135 135 97
182 175 114
183 175 114
183 175 114
183 175 114
183 175 114
183 175 114
183 175 114
183 175 114
183 175 114
183 175 114
183 175 114
183 175 114
183 175 114
183 175 114
183 175 114
183 175 114
183 175 114
183 175 114
183 175 114
183 175 114
183 175 114
183 175 114
184 175 114
184 176 114
184 176 114
184 176 114
184 176 114
184 176 114
184 176 114
184 176 114
184 176 114
184 176 114
184 176 114
184 176 114
184 176 114
184 176 114
185 176 114
185 176 114
185 176 114
185 176 114
185 176 114
185 176 114
185 176 114
185 176 114
185 176 114
185 176 114
185 176 114
185 176 114
185 176 114
185 176 114
186 176 114
186 176 114
186 177 114
186 177 114
186 177 114
186 177 114
186 177 114
186 177 114
186 177 114
186 177 114
186 177 114
186 177 114
187 177 114
187 177 114
187 177 114
187 177 114
187 177 114
187 177 114
187 177 114
187 177 114
187 177 114
187 177 114
187 177 114
187 177 114
187 177 114
188 177 114
188 177 114
188 177 114
188 177 114
188 177 114
188 178 114
188 178 114
188 178 114
188 178 114
188 178 114
188 178 114
188 178 114
188 178 114
189 178 114
189 178 114
189 178 114
189 178 114
189 178 114
189 178 114
189 178 114
189 178 114
189 178 114
189 178 114
189 178 114
189 178 114
189 178 114
189 178 114
190 178 114
190 178 114
190 178 114
190 178 114
190 178 114
190 179 114
190 179 114
190 179 114
220 234 253
220 233 253
218 232 250
220 233 252
220 233 251
219 232 249
219 233 250
220 233 250
220 233 251
220 234 252
220 233 252
219 232 250
217 231 249
221 234 253
220 233 252
221 234 252
222 235 254
216 230 249
223 236 255
222 236 254
217 231 248
222 235 254
219 233 251
220 234 253
221 234 254
223 236 255
222 236 255
220 233 252
218 232 250
220 233 253
218 232 250
220 234 252
217 230 250
219 233 252
222 236 255
222 235 253
220 234 252
220 234 253
220 234 253
217 231 250
220 233 252
221 235 254
218 232 250
218 231 250
219 233 253
218 232 252
220 234 254
221 234 253
217 231 248
220 234 253
218 232 252
216 230 250
219 233 252
217 231 248
219 233 252
220 234 253
218 232 251
221 235 254
218 232 251
222 235 253
222 236 254
216 230 249
220 234 253
220 234 252
216 230 249
221 234 252
219 233 251
220 234 250
222 236 252
223 237 254
221 235 249
221 235 250
221 234 249
222 236 253
222 236 253
220 234 249
222 235 250
220 235 250
221 235 249
222 236 253
221 235 248
220 234 245
223 236 253
221 234 248
221 235 250
222 235 250
222 236 252
222 235 250
220 234 246
221 235 249
221 234 250
222 236 253
222 235 250
221 235 249
222 235 252
222 236 253
222 235 250
222 236 252
222 235 249
219 233 244
223 236 252
221 235 248
223 236 254
222 235 250
223 236 253
223 237 254
221 235 248
222 236 252
220 233 249
222 235 254
221 235 246
217 231 248
222 235 253
212 226 240
217 231 244
217 230 243
219 232 248
216 229 244
222 235 250
221 234 248
216 229 245
218 231 244
217 230 242
221 234 246
214 228 228
196 214 187
184 204 143
168 193 47
165 191 25
167 193 25
164 190 25
165 191 0
167 193 0
166 192 0
167 193 0
165 190 18
83 114 136
61 96 146
62 98 151
61 97 150
61 97 147
62 98 155
62 97 145
61 96 144
62 98 151
63 98 152
62 98 151
62 97 147
62 97 145
61 97 145
62 98 154
63 98 154
63 98 149
62 97 149
62 97 150
61 97 145
63 98 154
62 98 150
63 99 157
61 96 145
63 98 152
61 96 141
63 98 153
61 96 140
61 96 143
61 96 144
62 97 149
61 96 142
62 97 149
62 98 151
62 98 152
61 96 140
62 97 148
63 98 151
62 98 151
62 97 147
61 97 142
62 98 152
62 97 145
62 97 147
62 98 155
61 97 148
62 97 150
61 96 141
62 97 150
62 97 150
62 97 149
60 96 141
61 97 145
62 97 142
62 97 150
63 98 153
63 98 151
63 99 161
62 97 147
61 97 140
63 98 156
61 97 144
62 97 144
63 98 151
63 98 152
62 97 148
62 97 149
63 98 152
62 97 147
61 96 141
62 98 153
60 96 141
61 97 143
62 97 148
62 97 149
62 98 156
63 98 155
61 97 144
61 97 143
62 98 151
61 97 142
62 98 154
62 97 149
61 97 145
62 97 144
61 96 145
62 97 147
63 98 155
63 98 153
62 98 155
62 97 140
63 98 154
61 96 142
62 97 150
62 98 150
62 97 153
60 96 144
63 98 155
62 97 149
62 98 149
62 98 153
62 98 151
61 97 143
62 98 153
62 97 149
62 98 152
63 98 154
62 98 154
62 98 153
61 97 150
61 96 142
62 97 142
61 96 143
61 96 145
63 99 158
62 97 144
62 97 145
62 97 151
62 97 147
62 97 150
62 97 149
61 95 143
62 97 154
61 95 142
61 95 138
61 94 142
57 88 127
40 50 38
37 48 38
40 51 39
41 53 43
44 56 45
43 54 41
45 57 44
48 62 51
47 60 46
49 64 54
49 64 57
50 64 56
51 66 56
52 69 63
53 69 60
52 68 59
54 71 65
53 69 62
53 71 65
54 71 63
54 71 65
56 74 72
55 74 68
56 75 72
56 75 71
56 76 73
58 78 75
160 156 106
184 175 114
184 176 114
184 176 114
184 176 114
184 176 114
184 176 114
184 176 114
184 176 114
184 176 114
184 176 114
184 176 114
184 176 114
184 176 114
184 176 114
184 176 114
184 176 114
184 176 114
184 176 114
184 176 114
184 176 114
184 176 114
185 176 114
185 176 114
185 176 114
185 176 114
185 176 114
185 176 114
185 176 114
185 176 114
185 176 114
185 176 114
185 176 114
185 176 114
185 176 114
185 176 114
185 176 114
185 176 114
186 176 114
186 176 114
186 177 114
186 177 114
186 177 114
186 177 114
186 177 114
186 177 114
186 177 114
186 177 114
186 177 114
186 177 114
186 177 114
186 177 114
187 177 114
187 177 114
187 177 114
187 177 114
187 177 114
187 177 114
187 177 114
187 177 114
187 177 114
187 177 114
187 177 114
187 177 114
187 177 114
188 177 114
188 177 114
188 177 114
188 177 114
188 177 114
188 178 114
188 178 114
188 178 114
188 178 114
188 178 114
188 178 114
188 178 114
188 178 114
188 178 114
189 178 114
189 178 114
189 178 114
189 178 114
189 178 114
189 178 114
189 178 114
189 178 114
189 178 114
189 178 114
189 178 114
189 178 114
189 178 114
189 178 114
189 178 114
190 178 114
190 178 114
190 178 114
190 178 114
190 178 114
190 179 114
190 179 114
190 179 114
190 179 114
190 179 114
190 179 114
190 179 114
190 179 114
190 179 114
191 179 114
191 179 114
215 229 247
222 235 254
219 233 251
217 231 249
218 232 250
216 230 250
223 236 255
216 230 250
223 236 255
220 234 252
218 232 251
220 234 253
219 232 252
222 235 253
221 235 254
220 233 252
221 235 254
221 234 253
223 236 254
220 234 252
221 235 254
221 235 254
220 234 252
219 233 253
220 234 254
219 233 252
218 232 250
218 232 251
219 233 252
222 236 255
220 234 253
221 235 254
218 232 252
221 235 254
220 234 254
221 234 254
222 236 255
219 233 252
217 230 250
217 230 250
217 231 249
220 234 253
218 232 251
219 233 252
219 233 253
221 235 254
222 236 255
218 232 252
219 233 252
220 234 253
219 233 253
220 233 253
222 236 255
222 236 255
217 230 250
219 233 252
219 233 252
218 232 250
219 232 252
221 235 254
218 231 250
221 235 254
217 231 249
221 235 254
221 235 253
219 233 251
220 233 252
218 231 250
221 235 252
223 236 254
221 235 249
222 236 253
221 235 249
221 235 249
220 234 249
220 234 248
221 235 249
221 234 248
221 235 249
220 234 248
222 235 252
221 235 250
219 233 245
221 235 249
220 234 248
220 235 249
222 236 252
222 235 252
222 236 252
220 234 248
222 236 253
222 236 253
221 234 250
222 236 253
222 236 253
222 235 252
221 235 250
221 235 250
222 235 252
221 235 249
222 236 253
223 236 253
223 236 253
222 235 250
222 236 252
222 235 250
221 235 250
219 234 245
217 231 247
218 232 244
216 230 243
218 231 246
221 234 252
218 231 245
222 235 251
221 235 250
221 234 249
218 231 249
219 232 246
221 234 252
220 233 246
221 234 250
211 225 238
219 232 248
220 234 247
217 230 242
215 229 239
219 232 242
202 218 205
188 208 151
173 197 76
167 193 0
166 192 25
165 191 31
169 195 0
163 188 25
63 99 147
63 98 151
61 97 147
62 97 147
62 97 149
61 96 140
61 96 141
62 97 151
60 95 131
62 98 153
62 98 156
63 98 151
62 97 145
61 96 137
63 98 152
62 97 149
63 99 158
63 98 153
62 97 143
62 97 148
61 96 140
61 97 145
61 96 142
63 98 152
62 98 148
62 97 150
62 98 151
61 97 143
62 97 147
61 97 149
63 98 152
62 97 148
63 99 154
63 99 155
62 97 150
61 97 145
62 97 145
62 97 148
62 97 149
62 97 145
63 98 154
62 97 148
61 97 145
61 96 143
62 98 152
62 97 147
63 98 153
61 96 144
63 98 154
62 98 152
62 98 151
62 97 147
62 97 149
61 97 144
61 97 144
62 97 147
61 97 144
62 97 148
61 96 143
62 97 151
62 97 149
63 98 155
62 98 150
62 97 149
62 97 144
61 96 139
61 96 143
63 98 153
63 99 156
61 96 143
62 97 147
62 97 148
61 97 149
63 98 152
62 97 148
63 98 154
62 97 151
62 97 140
62 98 149
61 96 142
61 96 139
62 98 148
62 97 141
62 98 155
62 98 148
62 97 141
62 98 149
62 97 152
61 96 143
63 98 149
61 97 147
63 99 159
61 97 143
62 97 148
61 96 145
62 97 150
62 97 149
63 98 158
61 96 141
60 96 140
61 96 142
61 96 142
61 96 145
62 98 151
63 98 156
62 97 150
61 96 145
63 98 150
61 96 144
62 98 151
61 96 142
62 98 152
63 98 151
62 97 152
61 96 146
62 97 148
62 97 149
62 98 151
62 97 152
63 97 153
62 97 148
62 96 146
61 95 142
61 95 138
60 94 144
62 96 149
61 93 138
36 48 50
38 49 39
41 52 42
43 55 44
40 51 39
42 53 39
47 60 48
48 62 51
47 59 45
48 60 47
49 64 53
49 63 53
51 65 55
51 65 56
49 64 51
52 68 57
53 69 61
52 68 57
54 71 63
53 71 65
54 71 63
55 73 69
53 71 65
55 74 69
56 74 71
56 76 75
57 77 75
84 95 82
181 173 113
185 176 114
185 176 114
185 176 114
185 176 114
185 176 114
185 176 114
185 176 114
185 176 114
185 176 114
185 176 114
185 176 114
185 176 114
185 176 114
185 176 114
185 176 114
185 176 114
185 176 114
185 176 114
185 176 114
185 176 114
186 176 114
186 176 114
186 176 114
186 176 114
186 177 114
186 177 114
186 177 114
186 177 114
186 177 114
186 177 114
186 177 114
186 177 114
186 177 114
186 177 114
186 177 114
186 177 114
186 177 114
187 177 114
187 177 114
187 177 114
187 177 114
187 177 114
187 177 114
187 177 114
187 177 114
187 177 114
187 177 114
187 177 114
187 177 114
187 177 114
187 177 114
187 177 114
188 177 114
188 177 114
188 177 114
188 177 114
188 178 114
188 178 114
188 178 114
188 178 114
188 178 114
188 178 114
188 178 114
188 178 114
188 178 114
188 178 114
188 178 114
189 178 114
189 178 114
189 178 114
189 178 114
189 178 114
189 178 114
189 178 114
189 178 114
189 178 114
189 178 114
189 178 114
189 178 114
189 178 114
189 178 114
189 178 114
189 178 114
190 178 114
190 178 114
190 178 114
190 178 114
190 178 114
190 179 114
190 179 114
190 179 114
190 179 114
190 179 114
190 179 114
190 179 114
190 179 114
190 179 114
191 179 114
191 179 114
191 179 114
191 179 114
191 179 114
191 179 114
191 179 114
191 179 114
191 179 114
191 179 114
191 179 114
221 235 254
221 235 254
217 231 250
217 231 252
218 232 250
221 235 254
218 232 252
217 231 249
219 233 252
220 233 253
220 234 253
220 234 252
220 234 253
217 231 250
220 234 252
219 232 251
221 235 254
219 233 252
218 232 250
218 232 250
222 236 255
218 232 252
220 234 252
216 229 249
220 234 254
219 233 252
218 232 252
218 232 251
218 231 250
217 231 250
221 235 254
222 236 254
220 234 254
220 234 254
220 234 254
221 235 254
220 234 253
215 229 249
219 233 252
221 234 254
219 233 253
218 231 252
218 231 252
218 231 251
220 233 252
220 234 253
219 233 252
223 237 255
217 231 251
219 233 252
220 234 254
217 231 250
216 230 250
220 234 254
221 235 254
218 232 252
220 233 254
218 232 250
214 228 248
220 234 252
220 234 252
221 235 254
220 233 252
217 230 248
218 232 250
216 229 248
221 234 254
218 231 250
218 232 252
222 236 253
221 235 250
221 235 252
219 234 246
220 234 246
223 236 254
223 236 254
220 235 249
219 234 248
222 236 253
221 235 252
220 234 249
220 234 248
221 235 250
222 235 252
221 235 250
220 235 249
220 233 245
221 235 252
221 235 249
221 235 253
221 235 249
219 234 246
222 235 252
222 235 252
220 234 249
221 235 250
221 235 250
222 236 253
222 235 250
222 236 253
220 234 246
221 235 250
220 234 248
220 234 249
221 235 250
222 235 250
220 234 248
219 233 246
218 232 245
216 230 246
217 231 248
217 230 248
218 231 246
221 235 252
218 232 245
219 233 246
220 233 251
219 232 248
220 234 250
217 231 242
219 232 244
219 233 249
220 233 250
218 232 245
219 232 248
217 230 246
221 234 249
220 233 250
220 233 247
219 233 248
216 230 239
209 224 220
197 215 179
173 197 92
165 191 33
151 176 78
63 99 155
63 98 149
62 98 152
62 98 152
61 96 140
63 98 149
63 98 148
63 98 152
62 98 156
63 99 158
60 95 137
62 97 144
61 97 145
64 99 160
62 98 151
62 98 150
63 98 150
61 97 142
63 98 152
63 98 152
62 97 149
62 97 144
63 98 153
63 98 153
63 98 151
62 98 151
62 98 152
61 96 140
62 97 145
62 97 148
62 97 153
62 98 153
62 97 141
62 97 148
62 97 147
63 98 155
62 97 149
62 97 144
62 97 149
62 98 149
60 95 137
62 98 154
62 97 147
61 96 141
63 98 152
63 98 154
62 97 147
62 97 144
62 98 147
62 97 148
62 97 150
60 95 130
62 97 143
63 98 155
63 98 152
62 98 149
63 98 154
62 98 153
60 95 135
61 96 136
62 97 152
62 97 149
61 97 143
63 98 155
62 97 148
63 98 151
62 97 148
63 98 151
61 97 144
61 96 143
62 97 148
61 97 140
62 98 153
62 97 150
61 97 141
62 98 151
62 98 153
62 97 144
62 97 147
61 96 144
62 98 149
62 98 149
61 96 143
62 97 145
62 97 148
61 96 141
61 96 136
61 97 151
62 97 144
62 98 150
61 97 142
63 98 156
61 97 143
62 98 152
61 96 143
63 98 155
63 99 156
61 96 143
63 98 152
61 96 136
61 96 142
62 98 155
60 95 133
61 96 143
61 95 136
61 96 134
63 98 154
62 98 150
62 97 145
61 96 143
62 98 153
61 96 142
62 98 156
62 97 145
62 97 146
62 97 143
62 97 149
62 97 151
61 96 142
61 96 143
61 95 139
62 97 151
62 96 146
62 97 150
61 95 144
61 95 145
60 92 143
43 60 70
36 45 34
40 52 41
41 52 40
41 52 40
43 54 42
42 54 40
45 58 47
48 60 47
48 62 53
49 63 52
49 63 53
50 65 56
52 68 60
52 66 54
52 67 59
52 68 58
52 69 60
53 70 61
53 70 62
54 72 66
54 72 64
55 73 67
54 72 66
55 73 66
55 74 70
57 77 75
56 76 73
139 138 97
186 176 114
186 177 114
186 177 114
186 177 114
186 177 114
186 177 114
186 177 114
186 177 114
186 177 114
186 177 114
186 177 114
186 177 114
186 177 114
186 177 114
186 177 114
186 177 114
186 177 114
186 177 114
186 177 114
186 177 114
187 177 114
186 177 114
187 177 114
187 177 114
187 177 114
187 177 114
187 177 114
187 177 114
187 177 114
187 177 114
187 177 114
187 177 114
187 177 114
187 177 114
187 177 114
187 177 114
187 177 114
187 177 114
187 177 114
188 177 114
188 177 114
188 177 114
188 177 114
188 178 114
188 178 114
188 178 114
188 178 114
188 178 114
188 178 114
188 178 114
188 178 114
188 178 114
188 178 114
188 178 114
188 178 114
188 178 114
189 178 114
189 178 114
189 178 114
189 178 114
189 178 114
189 178 114
189 178 114
189 178 114
189 178 114
189 178 114
189 178 114
189 178 114
189 178 114
189 178 114
189 178 114
190 178 114
190 178 114
190 178 114
190 178 114
190 178 114
190 178 114
190 178 114
190 179 114
190 179 114
190 179 114
190 179 114
190 179 114
190 179 114
190 179 114
190 179 114
190 179 114
190 179 114
191 179 114
191 179 114
191 179 114
191 179 114
191 179 114
191 179 114
191 179 114
191 179 114
191 179 114
191 179 114
191 179 114
191 179 114
191 179 114
191 179 114
191 179 114
191 179 114
191 179 114
192 179 114
192 179 114
192 179 114
220 234 253
219 233 252
220 234 252
218 231 250
216 230 249
220 234 253
219 233 252
217 231 250
218 231 250
219 233 252
215 229 250
219 233 252
221 235 254
220 234 253
214 228 248
217 230 249
218 231 250
218 232 251
220 234 252
219 233 250
218 232 250
222 235 255
221 234 254
215 229 250
218 232 252
218 231 252
220 234 253
221 235 254
219 233 252
219 232 252
218 232 250
219 233 252
216 229 249
218 232 252
222 236 254
218 232 251
220 233 252
215 229 250
219 233 252
220 234 253
219 233 252
219 232 252
219 232 252
219 232 252
219 233 252
222 235 255
218 232 252
220 234 253
220 233 254
222 235 255
219 232 252
216 230 250
220 233 254
220 234 254
219 233 253
219 232 252
221 234 254
219 232 251
220 234 254
222 235 254
220 234 253
215 229 250
218 232 252
216 230 250
220 234 252
218 232 250
220 234 252
218 231 250
218 231 250
221 234 253
221 235 250
219 234 246
220 234 249
222 235 252
221 235 249
221 235 252
220 234 249
221 235 250
222 236 254
220 234 249
221 235 250
222 236 253
221 235 250
222 235 252
222 236 254
222 235 252
220 235 249
220 234 246
222 236 254
222 236 253
220 235 250
222 236 253
219 234 248
221 235 250
222 235 252
221 235 249
222 236 253
223 236 254
222 235 252
221 235 250
222 236 253
221 235 252
220 234 248
222 236 253
221 235 250
221 235 252
221 235 249
221 234 252
219 233 246
216 230 245
217 231 246
219 232 248
219 232 247
218 231 248
222 235 251
216 230 244
215 230 240
219 233 247
218 232 246
216 230 244
221 234 254
221 234 252
220 233 248
219 233 244
218 232 247
216 230 244
218 232 249
215 229 243
220 234 246
218 232 244
215 229 243
219 232 244
223 236 254
218 231 247
211 225 230
157 176 168
62 97 149
61 97 147
61 97 147
63 99 158
61 96 139
62 97 149
63 99 157
62 97 144
62 97 144
61 96 141
61 96 140
61 96 133
61 96 140
62 97 145
62 98 152
62 97 149
61 96 142
61 96 137
62 97 150
63 98 152
62 97 147
62 97 142
62 98 153
61 97 142
61 96 141
61 96 144
62 97 142
63 99 158
62 97 147
61 96 140
61 96 140
62 97 147
62 97 145
61 96 137
62 97 151
61 96 141
62 97 145
61 96 142
62 98 149
62 98 151
60 95 137
63 99 156
63 98 151
63 98 155
62 97 151
62 98 150
62 97 149
61 97 147
61 96 137
62 97 145
63 98 149
62 98 145
62 97 151
61 97 143
63 99 157
62 98 149
62 98 151
63 99 158
62 97 143
61 96 141
60 96 141
61 97 143
62 97 150
61 97 145
62 97 145
63 98 153
62 97 143
62 98 152
62 97 147
62 97 151
61 96 142
62 97 143
61 97 140
61 96 143
61 97 141
61 97 142
61 96 140
62 97 147
61 96 139
62 97 148
60 95 139
61 96 140
61 97 147
61 97 145
62 97 145
63 98 150
62 97 151
62 97 148
62 97 150
62 97 145
62 97 149
62 97 147
63 98 155
62 98 151
61 96 142
62 97 154
62 97 149
63 98 154
61 96 140
62 98 151
63 98 152
62 97 147
62 97 145
62 97 148
62 98 150
62 97 147
62 98 155
61 96 144
61 96 143
62 97 141
61 97 143
62 98 152
61 95 140
61 95 136
62 97 145
62 97 148
63 98 155
61 95 139
62 96 142
61 95 134
60 95 135
62 96 147
62 96 155
61 95 140
62 96 147
61 95 143
60 92 133
49 71 95
36 46 34
37 47 33
39 50 39
42 52 39
40 51 38
45 57 43
43 55 43
45 58 46
49 63 53
48 61 49
50 64 53
49 64 55
50 66 56
52 68 60
53 68 59
51 66 56
53 69 60
53 69 58
54 71 63
54 72 62
53 70 61
54 73 66
55 73 65
55 74 68
55 75 70
56 75 71
56 76 72
61 80 74
177 169 111
187 177 114
187 177 114
187 177 114
187 177 114
187 177 114
187 177 114
187 177 114
187 177 114
187 177 114
187 177 114
187 177 114
187 177 114
187 177 114
187 177 114
187 177 114
187 177 114
187 177 114
187 177 114
187 177 114
187 177 114
188 177 114
188 177 114
188 177 114
188 177 114
188 177 114
188 177 114
188 178 114
188 178 114
188 178 114
188 178 114
188 178 114
188 178 114
188 178 114
188 178 114
188 178 114
188 178 114
188 178 114
188 178 114
188 178 114
188 178 114
189 178 114
189 178 114
189 178 114
189 178 114
189 178 114
189 178 114
189 178 114
189 178 114
189 178 114
189 178 114
189 178 114
189 178 114
189 178 114
189 178 114
189 178 114
189 178 114
189 178 114
189 178 114
190 178 114
190 178 114
190 178 114
190 178 114
190 178 114
190 178 114
190 178 114
190 179 114
190 179 114
190 179 114
190 179 114
190 179 114
190 179 114
190 179 114
190 179 114
190 179 114
190 179 114
190 179 114
191 179 114
191 179 114
191 179 114
191 179 114
191 179 114
191 179 114
191 179 114
191 179 114
191 179 114
191 179 114
191 179 114
191 179 114
191 179 114
191 179 114
191 179 114
191 179 114
191 179 114
192 179 114
192 179 114
192 179 114
192 179 114
192 179 114
192 179 114
192 179 114
192 179 114
192 179 114
192 179 114
192 180 114
192 180 114
192 180 114
192 180 114
221 234 253
218 232 251
219 233 252
217 231 250
222 236 254
221 234 253
220 233 252
216 229 248
222 236 255
221 235 254
218 232 251
216 229 249
221 234 253
220 233 252
219 233 252
218 232 251
220 234 253
218 232 250
221 235 254
219 233 254
218 232 252
220 233 253
221 234 254
220 234 254
218 232 252
221 234 254
218 232 251
218 232 252
217 231 251
220 233 253
221 234 254
220 234 254
216 230 250
220 233 253
221 234 254
219 233 252
217 231 250
221 234 254
218 232 252
220 234 254
219 233 253
221 234 253
219 233 252
214 228 249
219 233 252
218 232 252
218 232 252
216 230 251
218 232 252
217 231 252
220 233 253
218 232 252
213 227 249
220 233 253
221 235 254
222 235 255
218 232 252
217 231 252
218 232 252
220 234 254
218 232 252
220 233 254
220 233 254
222 236 255
215 229 248
216 229 248
219 233 252
215 229 248
219 232 252
219 233 252
221 234 252
222 236 253
221 235 252
220 234 250
221 235 250
221 235 253
220 234 249
221 235 252
222 236 253
222 236 254
220 234 249
222 236 254
221 235 252
221 235 252
220 235 250
220 234 248
221 235 252
222 236 253
221 235 253
222 236 253
221 235 252
220 235 250
221 235 249
222 236 254
220 235 250
220 234 249
222 236 253
219 234 245
220 234 248
220 234 248
221 235 249
222 236 254
222 235 252
223 236 255
220 234 246
220 234 248
218 233 246
220 233 252
222 236 252
215 229 246
220 234 247
220 233 250
218 232 245
218 232 251
214 228 246
219 233 248
221 235 250
218 231 248
221 234 251
217 231 242
217 231 247
219 232 246
220 234 245
216 230 245
222 235 250
221 234 251
220 233 248
217 230 248
220 234 248
220 234 248
219 233 246
214 228 240
222 235 251
218 231 244
223 236 252
140 159 191
62 97 149
62 97 144
62 97 144
62 97 143
62 98 154
62 97 142
62 97 148
61 96 142
63 99 157
62 98 149
61 97 142
62 97 150
62 98 148
61 97 147
62 97 143
63 98 150
61 96 142
62 97 152
63 99 160
62 97 145
62 98 145
60 95 137
61 96 137
60 95 135
61 96 142
62 97 145
62 98 153
62 97 145
62 97 149
62 98 150
61 96 144
62 97 152
63 98 152
61 96 144
62 97 150
61 96 144
62 97 143
61 97 141
61 96 141
60 95 135
61 97 145
62 97 142
62 97 145
62 98 150
61 96 145
60 95 136
62 97 147
62 97 152
61 96 141
62 97 144
61 96 141
62 97 145
61 96 141
62 97 147
63 98 154
60 96 140
61 97 143
62 97 148
61 97 148
61 97 144
61 96 144
62 97 148
62 97 149
60 96 133
62 97 147
62 98 149
62 98 149
61 96 137
61 96 137
62 97 147
62 97 143
62 97 148
61 95 137
61 96 136
63 98 149
63 99 157
63 98 149
61 96 141
63 98 153
62 97 148
62 98 151
62 97 148
62 98 150
61 96 142
62 97 149
61 97 144
61 96 136
61 96 139
61 96 142
62 98 150
62 97 144
60 95 130
62 97 145
61 96 143
63 98 150
62 97 147
63 98 154
61 96 143
62 97 155
62 97 145
62 97 147
61 96 142
61 96 141
62 98 154
61 96 140
61 96 136
61 97 149
62 98 152
60 95 140
62 97 145
62 97 149
61 97 144
61 96 142
61 96 142
62 97 148
62 97 150
61 96 141
62 97 150
60 95 133
61 95 140
60 93 133
61 95 144
61 94 134
61 95 137
61 94 141
61 94 142
61 93 139
46 67 85
31 39 28
37 45 31
36 46 32
43 54 43
41 51 36
43 55 41
44 56 46
46 60 51
48 60 46
47 60 47
49 63 53
50 65 55
48 62 47
51 64 50
51 66 55
52 67 57
52 68 58
52 68 58
53 70 59
53 70 60
53 71 63
55 73 67
55 74 68
55 74 67
55 74 68
55 75 68
57 77 74
56 76 72
150 146 101
188 177 114
188 177 114
188 178 114
188 178 114
188 178 114
188 178 114
188 178 114
188 178 114
188 178 114
188 178 114
188 178 114
188 178 114
188 178 114
188 178 114
188 178 114
188 178 114
188 178 114
188 178 114
188 178 114
188 178 114
188 178 114
189 178 114
189 178 114
189 178 114
189 178 114
189 178 114
189 178 114
189 178 114
189 178 114
189 178 114
189 178 114
189 178 114
189 178 114
189 178 114
189 178 114
189 178 114
189 178 114
189 178 114
189 178 114
189 178 114
189 178 114
189 178 114
189 178 114
190 178 114
190 178 114
190 178 114
190 178 114
190 178 114
190 178 114
190 178 114
190 179 114
190 179 114
190 179 114
190 179 114
190 179 114
190 179 114
190 179 114
190 179 114
190 179 114
190 179 114
190 179 114
191 179 114
191 179 114
191 179 114
191 179 114
191 179 114
191 179 114
191 179 114
191 179 114
191 179 114
191 179 114
191 179 114
191 179 114
191 179 114
191 179 114
191 179 114
191 179 114
191 179 114
191 179 114
191 179 114
191 179 114
192 179 114
192 179 114
192 179 114
192 179 114
192 179 114
192 179 114
192 179 114
192 179 114
192 179 114
192 179 114
192 180 114
192 180 114
192 180 114
192 180 114
192 180 114
192 180 114
192 180 114
192 180 114
192 180 114
192 180 114
192 180 114
193 180 114
193 180 114
193 180 114
193 180 114
193 180 114
217 231 250
217 231 252
220 233 252
221 234 253
219 232 251
219 233 251
220 234 254
213 227 248
216 230 249
218 232 252
217 230 249
219 233 252
221 235 254
221 234 254
219 232 251
219 233 253
220 233 252
220 234 253
218 232 252
221 234 254
222 235 255
218 232 252
219 233 252
222 235 254
214 228 249
219 233 253
217 231 252
221 234 254
217 231 250
218 232 252
219 233 254
219 232 252
214 228 249
216 230 250
217 231 251
218 232 252
218 232 252
218 232 252
217 231 251
218 232 252
218 232 252
216 230 250
220 234 253
215 229 251
218 232 252
220 233 254
221 235 255
218 232 253
218 232 253
219 233 254
216 230 251
222 236 255
220 233 254
214 228 250
220 234 254
222 235 255
216 230 252
215 229 249
218 232 252
221 235 255
220 234 253
220 234 252
221 235 254
219 233 252
220 234 254
216 230 248
221 235 255
219 233 252
218 232 252
217 231 250
222 235 254
218 232 248
222 235 253
221 235 252
222 236 254
222 236 254
222 236 253
222 236 253
219 233 245
220 234 249
220 234 249
220 234 248
221 235 253
219 233 245
221 235 253
221 235 252
218 233 242
221 235 249
222 236 253
221 235 252
219 234 246
221 235 250
222 236 254
221 235 250
221 235 252
218 232 242
221 235 252
222 236 254
220 234 248
222 236 254
220 234 249
219 234 246
222 236 254
221 235 250
221 235 252
222 236 254
216 230 245
215 229 245
214 228 243
216 230 245
219 233 249
218 232 244
214 228 242
214 228 246
219 233 250
220 234 249
217 231 248
219 233 248
216 230 246
220 233 251
218 232 246
219 233 248
216 230 247
216 229 244
215 229 244
215 229 243
222 236 252
217 231 244
219 233 248
221 234 248
217 231 245
217 231 244
222 235 251
213 226 240
215 229 244
130 151 188
62 97 148
62 97 141
63 98 151
62 97 143
62 97 144
63 98 152
63 98 154
63 99 158
63 98 148
61 97 141
62 98 150
62 96 139
61 97 145
62 97 150
63 98 152
61 96 139
63 98 156
62 98 152
62 97 148
62 98 147
61 96 139
62 98 152
61 96 141
62 97 145
61 96 141
62 98 148
61 96 141
63 98 151
63 98 156
62 97 149
63 98 155
61 96 139
62 97 145
62 97 147
61 96 139
61 96 141
61 96 139
62 97 150
62 97 150
61 96 139
62 98 151
62 97 144
62 97 144
61 97 145
62 97 147
61 96 136
61 96 139
61 97 145
61 96 137
61 96 139
61 97 143
63 98 156
61 97 143
63 99 158
61 97 144
62 97 144
61 97 144
60 95 139
62 97 145
62 97 143
61 97 147
61 96 144
61 97 145
62 97 143
61 96 143
62 98 149
61 96 141
62 97 152
63 98 153
61 96 140
61 96 142
63 98 153
63 98 153
62 98 147
62 97 149
60 95 126
62 97 143
61 96 139
61 96 142
63 98 151
62 97 148
61 96 140
61 97 147
62 98 151
62 97 145
62 98 150
62 97 148
62 97 147
61 97 145
62 97 147
62 97 143
61 96 142
60 95 140
63 98 152
61 97 141
62 97 148
62 97 147
62 97 147
61 96 141
62 98 149
62 97 149
62 97 147
62 97 145
61 96 140
62 98 150
62 97 148
62 97 150
62 97 144
61 96 143
62 97 143
62 97 142
61 96 142
62 98 152
60 95 133
62 96 142
63 98 150
62 96 147
61 95 136
62 96 144
61 96 137
63 98 152
61 95 136
62 97 147
60 93 131
60 94 133
60 93 131
60 92 128
53 81 116
31 39 25
33 41 30
37 46 30
40 49 32
41 52 39
43 54 42
41 52 38
44 56 39
45 57 41
48 61 48
47 60 45
51 64 51
51 66 55
51 65 51
51 65 50
51 66 53
51 67 57
52 69 59
53 69 60
53 71 62
52 70 60
54 71 63
55 73 67
54 73 65
55 74 68
55 75 68
56 75 68
55 75 70
91 100 79
189 178 114
189 178 114
189 178 114
189 178 114
189 178 114
189 178 114
189 178 114
189 178 114
189 178 114
189 178 114
189 178 114
189 178 114
189 178 114
189 178 114
189 178 114
189 178 114
189 178 114
189 178 114
189 178 114
189 178 114
189 178 114
190 178 114
190 178 114
190 178 114
190 178 114
190 178 114
190 178 114
190 178 114
190 178 114
190 178 114
190 179 114
190 179 114
190 179 114
190 179 114
190 179 114
190 179 114
190 179 114
190 179 114
190 179 114
190 179 114
190 179 114
190 179 114
190 179 114
190 179 114
190 179 114
191 179 114
191 179 114
191 179 114
191 179 114
191 179 114
191 179 114
191 179 114
191 179 114
191 179 114
191 179 114
191 179 114
191 179 114
191 179 114
191 179 114
191 179 114
191 179 114
191 179 114
191 179 114
191 179 114
191 179 114
191 179 114
191 179 114
192 179 114
192 179 114
192 179 114
192 179 114
192 179 114
192 179 114
192 179 114
192 179 114
192 179 114
192 179 114
192 180 114
192 180 114
192 180 114
192 180 114
192 180 114
192 180 114
192 180 114
192 180 114
192 180 114
192 180 114
192 180 114
192 180 114
193 180 114
193 180 114
193 180 114
193 180 114
193 180 114
193 180 114
193 180 114
193 180 114
193 180 114
193 180 114
193 180 114
193 180 114
193 180 114
193 180 114
193 180 114
193 180 114
193 180 114
193 180 114
220 233 253
217 231 252
219 233 253
218 232 252
217 231 251
218 232 251
218 232 251
219 233 253
219 232 252
222 235 255
219 233 252
217 231 250
222 235 255
215 229 249
216 230 250
219 233 252
217 231 251
219 233 254
219 233 253
218 232 252
217 231 252
217 231 251
218 232 252
217 231 251
220 234 254
218 232 252
216 230 250
220 234 254
219 232 252
220 234 254
220 234 254
220 234 254
218 232 253
219 233 254
219 233 252
217 231 252
218 232 252
217 231 252
219 233 253
219 233 254
218 232 253
221 235 255
218 232 253
218 232 253
216 230 251
220 234 254
218 232 253
218 232 253
220 234 254
218 232 253
217 231 251
218 232 253
221 235 255
218 232 252
219 233 252
220 234 254
219 233 253
218 232 252
221 234 254
216 230 251
219 233 254
221 235 255
221 235 255
217 231 252
220 234 254
218 232 251
220 233 254
219 233 252
218 232 252
218 232 252
219 233 252
217 231 250
220 234 249
220 234 249
221 235 252
219 234 246
220 234 250
221 235 252
220 234 249
220 234 249
220 234 249
219 234 248
221 235 252
222 236 255
221 235 253
221 235 253
221 235 252
220 234 249
221 235 252
220 234 249
219 234 246
221 235 252
221 235 253
221 235 253
222 236 254
221 235 253
222 236 255
221 235 253
220 234 248
220 234 248
221 235 250
220 234 249
221 235 252
220 234 246
219 233 245
222 236 253
214 229 244
214 228 246
215 230 243
220 234 250
221 235 254
217 231 247
217 231 248
218 232 245
219 233 249
217 231 247
219 233 248
215 229 242
217 231 247
221 234 252
219 233 248
218 232 244
219 233 249
220 234 246
218 232 249
217 231 244
221 235 253
217 231 247
220 234 248
218 232 248
217 231 248
220 233 251
220 234 249
219 232 248
219 233 248
92 119 162
62 97 143
62 97 148
62 97 147
62 97 149
62 97 143
63 98 151
62 97 148
63 98 149
62 97 144
60 95 141
62 97 149
61 96 140
63 99 155
61 97 144
62 97 142
63 98 152
61 96 135
61 97 142
62 97 145
62 97 150
62 98 151
62 98 154
61 96 141
62 97 144
62 97 148
63 98 149
62 97 143
61 96 141
60 95 129
61 96 141
62 97 145
61 96 137
61 97 144
62 98 151
61 97 142
62 97 144
62 98 149
62 97 143
61 96 137
61 96 139
62 98 150
62 98 153
61 96 142
62 97 142
62 97 144
63 98 150
62 97 148
61 96 140
61 97 148
61 97 141
61 96 142
62 97 144
61 96 140
62 98 150
62 97 148
60 95 135
61 96 140
60 96 140
61 96 137
62 98 148
61 96 137
62 97 147
61 96 139
62 97 148
61 96 137
62 97 151
62 98 151
62 97 147
62 98 149
62 97 145
62 97 144
62 97 149
61 97 143
61 96 141
62 97 148
62 97 152
61 96 140
61 96 133
62 97 144
61 96 137
60 95 130
63 98 151
60 95 133
62 97 148
62 98 151
61 96 139
62 97 148
62 98 151
61 96 137
62 97 148
61 97 143
62 97 146
61 96 140
61 96 134
62 97 149
60 95 136
61 96 139
61 96 141
61 96 144
61 97 144
62 97 147
62 97 147
61 96 139
62 97 141
60 95 135
60 94 128
63 98 153
61 96 143
62 97 143
62 97 143
62 97 151
62 97 148
62 97 145
62 97 141
62 97 143
61 96 140
60 94 138
61 95 140
62 97 147
63 99 156
62 97 148
61 95 140
61 94 136
61 95 143
61 95 146
62 96 147
60 92 135
58 89 127
34 42 30
34 43 32
36 45 33
37 47 34
41 51 37
42 53 36
42 52 36
46 58 44
47 59 43
45 58 47
47 61 47
50 64 51
50 65 53
50 64 52
51 65 53
49 63 51
52 68 54
51 67 58
53 71 61
53 70 62
54 72 65
54 72 64
54 73 64
54 72 62
54 73 64
55 74 67
55 74 67
56 75 70
57 77 75
173 164 108
190 179 114
190 179 114
190 179 114
190 179 114
190 179 114
190 179 114
190 179 114
190 179 114
190 179 114
190 179 114
190 179 114
190 179 114
190 179 114
190 179 114
190 179 114
190 179 114
190 179 114
190 179 114
190 179 114
190 179 114
191 179 114
191 179 114
191 179 114
191 179 114
191 179 114
191 179 114
191 179 114
191 179 114
191 179 114
191 179 114
191 179 114
191 179 114
191 179 114
191 179 114
191 179 114
191 179 114
191 179 114
191 179 114
191 179 114
191 179 114
191 179 114
191 179 114
191 179 114
191 179 114
191 179 114
191 179 114
192 179 114
192 179 114
192 179 114
192 179 114
192 179 114
192 179 114
192 179 114
192 179 114
192 179 114
192 179 114
192 179 114
192 179 114
192 179 114
192 180 114
192 180 114
192 180 114
192 180 114
192 180 114
192 180 114
192 180 114
192 180 114
192 180 114
192 180 114
192 180 114
192 180 114
193 180 114
192 180 114
193 180 114
193 180 114
193 180 114
193 180 114
193 180 114
193 180 114
193 180 114
193 180 114
193 180 114
193 180 114
193 180 114
193 180 114
193 180 114
193 180 114
193 180 114
193 180 114
193 180 114
193 180 114
193 180 114
193 180 114
193 180 114
193 180 114
193 180 114
193 180 114
193 180 114
194 180 114
194 180 114
194 180 114
194 180 114
194 180 114
194 180 114
194 180 114
194 180 114
221 234 254
220 234 253
221 235 255
214 228 250
219 233 254
217 231 250
220 234 254
219 233 252
220 234 254
217 231 251
216 230 249
216 230 248
221 234 254
215 229 250
218 232 251
221 235 255
216 230 250
220 234 253
216 230 250
218 232 252
217 231 250
219 233 252
220 234 254
218 232 252
220 234 254
221 235 254
218 232 253
216 230 250
220 234 254
220 234 252
215 229 249
221 235 255
219 233 254
219 233 254
218 232 252
219 233 254
216 230 251
218 232 253
219 233 253
217 231 252
220 234 254
217 231 252
216 230 251
216 230 252
219 233 254
220 234 254
217 231 252
219 233 254
220 234 254
220 234 254
216 230 252
215 229 251
217 231 251
216 230 251
222 236 255
216 230 251
218 232 253
218 232 253
218 232 252
221 235 255
217 231 252
219 233 254
218 232 252
217 231 251
220 234 254
216 230 252
220 234 253
219 233 252
215 229 250
217 231 249
220 234 254
219 233 252
221 235 254
220 234 249
221 235 252
219 233 246
221 235 252
219 234 248
221 235 253
220 234 248
221 235 253
222 236 254
222 236 254
220 235 250
219 234 248
221 235 252
220 235 250
220 235 250
221 235 253
220 234 249
220 234 249
221 235 252
221 235 253
222 236 255
221 235 253
221 235 252
220 234 249
222 236 254
220 234 249
222 236 253
220 234 248
220 234 249
220 234 249
222 236 254
222 236 254
218 232 247
217 231 246
217 231 245
218 232 246
216 230 246
218 232 250
219 234 248
217 231 247
217 231 250
218 232 248
213 227 244
218 232 248
217 231 247
216 230 245
215 229 242
222 235 253
219 233 248
216 230 246
217 231 248
218 232 248
219 233 248
220 234 250
215 229 244
216 229 244
221 235 252
214 228 244
219 233 251
219 233 250
211 225 242
219 233 250
72 105 157
64 99 157
62 98 149
61 97 145
61 97 147
61 95 137
62 97 145
63 99 153
62 97 149
61 96 134
61 96 142
61 96 136
61 96 137
61 96 140
62 97 152
60 95 134
61 96 135
61 97 145
63 98 153
62 97 142
62 97 148
61 97 137
61 97 142
62 97 141
60 95 135
61 96 142
61 97 140
61 96 144
62 97 147
62 98 150
62 97 139
62 97 143
61 96 141
62 98 145
62 98 149
62 97 148
63 98 155
62 97 145
60 95 135
61 96 133
61 96 140
62 98 147
63 98 152
61 96 140
61 95 134
60 95 134
61 96 136
62 98 149
61 96 143
60 95 131
62 97 145
61 96 137
61 96 141
60 95 133
62 97 144
61 96 140
62 98 150
62 97 143
63 98 151
60 95 135
61 96 141
61 96 144
61 96 141
62 97 145
61 96 139
62 97 144
62 97 145
61 96 142
62 98 148
61 96 140
61 95 129
60 95 130
61 97 149
62 97 145
62 98 150
62 97 149
60 95 136
61 97 147
61 96 139
63 98 148
62 97 145
62 97 145
61 96 143
63 98 155
61 96 137
62 98 149
61 96 147
62 98 154
62 97 145
62 97 145
62 97 149
62 97 145
62 98 152
60 95 133
63 98 153
60 95 134
60 95 134
62 97 147
62 97 147
61 96 142
60 95 137
61 96 139
63 98 155
61 96 135
62 97 148
61 96 141
61 97 143
62 97 149
60 96 137
62 97 145
61 97 150
62 98 149
61 96 133
62 97 142
61 95 139
62 97 145
62 97 146
60 95 136
62 97 146
62 97 144
61 95 142
61 96 143
61 95 142
61 96 142
61 95 147
60 95 139
61 94 138
60 93 134
58 90 130
30 38 25
33 42 29
37 47 36
36 45 32
37 47 34
42 53 39
43 54 40
42 53 34
45 57 41
47 60 47
46 58 45
47 60 44
50 64 52
50 65 54
51 67 54
51 65 53
50 65 51
53 69 58
52 68 54
53 69 57
54 71 60
54 72 65
54 71 62
55 73 66
55 73 63
55 74 67
55 74 65
56 75 68
56 76 71
128 127 90
191 179 114
191 179 114
191 179 114
191 179 114
191 179 114
191 179 114
191 179 114
191 179 114
191 179 114
191 179 114
191 179 114
191 179 114
191 179 114
191 179 114
191 179 114
191 179 114
191 179 114
191 179 114
191 179 114
191 179 114
191 179 114
192 179 114
192 179 114
192 179 114
192 179 114
192 179 114
192 179 114
192 179 114
192 179 114
192 179 114
192 179 114
192 179 114
192 179 114
192 179 114
192 179 114
192 179 114
192 180 114
192 180 114
192 180 114
192 180 114
192 180 114
192 180 114
192 180 114
192 180 114
192 180 114
192 180 114
192 180 114
192 180 114
192 180 114
192 180 114
192 180 114
193 180 114
193 180 114
193 180 114
193 180 114
193 180 114
193 180 114
193 180 114
193 180 114
193 180 114
193 180 114
193 180 114
193 180 114
193 180 114
193 180 114
193 180 114
193 180 114
193 180 114
193 180 114
193 180 114
193 180 114
193 180 114
193 180 114
193 180 114
193 180 114
193 180 114
193 180 114
193 180 114
193 180 114
193 180 114
193 180 114
194 180 114
194 180 114
194 180 114
194 180 114
194 180 114
194 180 114
194 180 114
194 180 114
194 180 114
194 180 114
194 180 114
194 180 114
194 180 114
194 180 114
194 180 114
194 180 114
194 181 114
194 181 114
194 181 114
194 181 114
194 181 114
194 181 114
194 181 114
194 181 114
194 181 114
217 231 250
220 234 254
220 234 254
219 233 253
217 231 250
222 236 255
216 230 249
219 233 253
219 233 254
220 234 254
219 233 253
216 230 250
218 232 250
219 233 253
219 233 254
219 233 252
218 232 253
216 230 251
218 232 250
219 233 253
220 234 254
221 235 254
221 235 255
219 233 252
212 226 249
214 228 248
217 231 250
222 236 255
217 231 252
217 231 252
219 233 254
217 231 252
218 232 252
219 233 254
214 228 250
219 233 254
219 233 253
216 230 251
218 232 252
219 233 254
218 232 253
220 234 254
220 234 254
215 229 251
219 233 253
216 230 251
220 234 254
220 234 254
217 231 252
218 232 252
214 228 250
220 234 254
219 233 253
216 230 251
216 230 251
221 235 255
217 231 252
216 230 250
220 234 254
219 233 254
221 235 255
219 233 254
219 233 254
220 234 254
219 233 254
217 231 252
219 233 254
217 231 252
220 234 254
219 233 252
217 231 250
217 231 251
221 235 255
221 235 253
221 236 254
221 235 252
221 235 254
222 236 254
221 235 253
221 235 253
220 234 249
219 234 249
220 235 250
220 235 250
221 235 252
219 233 246
219 234 248
220 235 250
221 235 252
221 235 252
219 234 248
220 234 249
220 234 250
220 234 248
221 236 254
221 235 252
220 235 250
221 235 252
221 235 253
222 236 254
220 234 249
220 234 249
219 234 248
220 235 250
221 235 253
214 229 244
218 232 253
215 230 248
211 225 242
218 232 250
219 233 248
214 228 246
216 230 247
212 227 242
218 232 249
217 232 250
214 228 242
215 229 244
218 233 247
218 232 248
217 231 248
218 232 250
220 234 250
217 231 250
217 231 247
218 232 245
217 231 248
219 233 250
213 227 244
215 229 247
216 230 242
218 232 247
214 229 243
219 232 250
212 226 246
63 98 149
62 97 145
62 98 150
60 96 136
62 97 145
63 98 151
62 98 148
62 97 144
62 97 141
62 97 145
62 97 142
62 97 148
61 96 135
62 98 150
62 97 147
63 98 149
61 97 148
61 96 141
61 96 140
63 98 150
61 96 137
62 97 142
62 97 143
61 96 145
62 97 143
62 97 145
61 96 135
63 99 155
60 94 130
62 97 151
62 97 142
62 97 147
61 96 135
62 97 148
60 95 129
61 97 143
62 97 143
62 97 147
62 97 150
61 96 142
62 97 144
61 97 143
62 97 145
61 96 143
62 97 142
61 96 142
61 96 137
60 95 134
62 97 144
62 97 148
62 97 148
61 96 140
60 95 139
61 96 142
60 95 135
60 95 133
61 96 139
62 98 149
62 97 147
61 96 136
61 96 137
61 96 143
62 97 147
63 98 154
62 98 150
62 97 142
60 95 133
60 95 137
61 97 141
62 97 144
63 99 154
61 96 144
60 95 134
60 95 140
62 98 153
60 95 136
62 97 144
62 98 149
61 96 137
62 98 152
62 98 153
62 97 142
62 98 143
61 97 142
62 97 142
61 97 143
61 96 137
61 96 140
60 95 130
61 96 141
61 96 140
61 97 147
61 96 139
61 96 142
62 97 145
62 97 144
61 96 143
61 96 147
61 97 140
61 96 142
61 97 144
60 95 129
61 96 138
62 97 147
61 96 141
60 94 134
60 95 130
62 97 148
61 96 137
60 95 138
62 97 148
60 95 135
60 94 133
61 96 143
61 95 133
62 96 144
62 96 146
62 97 148
62 97 149
62 97 143
61 95 136
61 96 139
61 95 137
62 96 145
60 94 135
62 97 149
60 93 128
60 92 134
60 91 131
33 43 39
33 41 26
36 45 31
35 45 35
41 51 31
39 48 33
42 53 39
45 57 42
46 59 47
47 61 50
48 60 45
46 59 43
50 64 46
48 62 45
51 65 48
50 65 51
51 66 53
53 68 55
53 69 56
52 69 57
52 69 57
53 70 59
53 70 58
55 73 62
53 71 60
55 74 67
55 74 66
55 75 66
56 75 67
102 107 78
192 180 114
192 180 114
192 180 114
192 180 114
192 180 114
192 180 114
192 180 114
192 180 114
192 180 114
192 180 114
192 180 114
192 180 114
192 180 114
192 180 114
192 180 114
192 180 114
192 180 114
192 180 114
192 180 114
192 180 114
192 180 114
192 180 114
193 180 114
193 180 114
193 180 114
193 180 114
193 180 114
193 180 114
193 180 114
193 180 114
193 180 114
193 180 114
193 180 114
193 180 114
193 180 114
193 180 114
193 180 114
193 180 114
193 180 114
193 180 114
193 180 114
193 180 114
193 180 114
193 180 114
193 180 114
193 180 114
193 180 114
193 180 114
193 180 114
193 180 114
193 180 114
193 180 114
193 180 114
193 180 114
193 180 114
193 180 114
193 180 114
194 180 114
194 180 114
194 180 114
194 180 114
194 180 114
194 180 114
194 180 114
194 180 114
194 180 114
194 180 114
194 180 114
194 180 114
194 180 114
194 180 114
194 180 114
194 180 114
194 180 114
194 180 114
194 180 114
194 181 114
194 181 114
194 181 114
194 181 114
194 181 114
194 181 114
194 181 114
194 181 114
194 181 114
194 181 114
194 181 114
194 181 114
194 181 114
194 181 114
194 181 114
194 181 114
194 181 114
195 181 114
195 181 114
195 181 114
195 181 114
195 181 114
195 181 114
195 181 114
195 181 114
195 181 114
195 181 114
195 181 114
195 181 114
195 181 114
221 235 255
220 234 254
222 236 255
219 233 252
217 231 251
217 231 250
217 231 251
216 230 251
219 233 252
216 230 250
220 234 254
217 231 252
220 234 254
217 231 250
219 233 254
218 232 252
216 230 251
216 230 252
219 233 252
216 230 250
218 232 252
218 232 252
219 233 254
217 231 252
217 231 252
219 233 254
221 235 255
219 233 254
218 232 252
216 230 252
217 231 252
219 233 252
216 230 252
221 235 255
214 228 250
221 235 255
220 234 254
219 233 254
221 235 255
219 233 253
218 232 253
220 234 254
218 232 253
217 231 252
216 230 252
216 230 250
220 234 254
222 236 255
216 230 251
215 229 250
216 230 251
221 235 255
219 233 253
219 233 254
220 234 254
218 232 253
215 229 251
222 236 255
220 234 254
216 230 252
219 233 253
218 232 253
219 233 254
217 231 251
215 229 250
221 235 255
220 234 254
215 229 248
219 233 252
217 231 251
212 227 246
219 233 252
220 234 254
222 236 255
222 236 255
222 236 255
222 236 255
222 236 255
222 236 255
222 236 255
222 236 255
222 236 255
222 236 255
222 236 255
222 236 255
222 236 255
222 236 255
222 236 255
222 236 254
221 235 253
222 236 255
222 236 254
221 236 254
222 236 255
222 236 255
222 236 255
221 235 253
221 235 253
221 235 253
222 236 254
222 236 255
221 236 254
222 236 255
221 235 253
222 236 254
220 234 252
215 229 248
216 230 250
215 230 246
216 230 250
217 231 250
215 229 249
217 231 248
217 231 250
220 234 254
217 231 250
215 229 248
218 232 252
220 234 254
213 227 246
220 234 253
218 232 250
217 231 250
218 232 251
218 232 251
220 233 253
218 232 250
222 235 255
219 233 252
217 231 251
219 232 252
217 230 250
218 232 252
219 233 252
209 224 245
63 98 150
63 98 155
62 97 145
62 97 144
60 95 136
61 96 142
61 96 137
62 97 149
62 98 145
62 98 151
61 96 136
61 96 143
62 97 147
61 96 141
61 96 136
61 97 142
62 97 143
60 95 137
61 96 139
62 97 149
60 95 137
61 96 140
60 95 136
61 97 141
61 96 134
62 97 143
61 97 142
62 97 142
62 97 144
63 98 150
60 95 139
61 97 139
61 96 136
60 94 126
61 96 139
61 96 142
62 97 144
62 97 141
61 96 143
61 96 140
62 97 151
62 97 136
62 97 149
62 97 145
62 97 143
61 96 137
60 95 131
61 96 135
62 97 145
61 96 137
63 98 147
62 97 149
61 96 142
62 97 144
61 96 141
61 96 141
61 96 137
61 96 139
61 96 139
62 97 143
61 96 136
63 99 156
62 97 142
61 96 142
60 94 130
62 97 147
61 96 140
61 96 136
62 97 143
61 96 139
62 97 147
62 97 143
61 96 134
62 97 143
60 95 133
62 97 145
63 98 155
61 97 141
61 96 135
63 99 154
60 95 134
62 97 147
62 97 147
62 97 147
60 95 131
62 97 144
62 97 142
61 97 143
61 96 137
61 96 141
62 97 145
60 95 136
60 95 131
60 95 134
61 96 139
61 96 141
61 96 139
62 97 150
62 97 144
61 95 135
62 97 147
63 97 148
62 97 146
62 97 151
61 96 139
61 96 141
62 97 144
63 98 154
61 97 145
61 95 133
62 98 150
61 96 147
61 97 142
61 96 141
62 97 147
61 96 143
61 96 147
60 94 128
61 96 137
61 96 148
61 95 142
61 96 140
60 94 134
61 95 138
61 96 141
61 96 143
59 92 131
60 92 137
58 90 116
34 47 51
31 39 25
35 43 27
37 46 27
41 50 33
40 50 34
41 51 33
42 53 40
44 56 42
46 59 45
44 56 41
45 59 41
48 60 41
49 63 50
50 64 46
52 67 55
50 66 50
51 66 54
52 68 54
53 70 59
53 69 57
52 69 53
54 72 64
53 70 57
54 73 63
54 72 62
55 74 65
55 75 67
56 76 69
72 85 72
193 180 114
193 180 114
193 180 114
193 180 114
193 180 114
193 180 114
193 180 114
193 180 114
193 180 114
193 180 114
193 180 114
193 180 114
193 180 114
193 180 114
193 180 114
193 180 114
193 180 114
193 180 114
193 180 114
193 180 114
193 180 114
193 180 114
193 180 114
193 180 114
194 180 114
194 180 114
194 180 114
194 180 114
194 180 114
194 180 114
194 180 114
194 180 114
194 180 114
194 180 114
194 180 114
194 180 114
194 180 114
194 180 114
194 180 114
194 180 114
194 180 114
194 180 114
194 180 114
194 180 114
194 180 114
194 180 114
194 180 114
194 181 114
194 180 114
194 181 114
194 181 114
194 181 114
194 181 114
194 181 114
194 181 114
194 181 114
194 181 114
194 181 114
194 181 114
194 181 114
194 181 114
194 181 114
194 181 114
194 181 114
194 181 114
194 181 114
195 181 114
195 181 114
195 181 114
195 181 114
195 181 114
195 181 114
195 181 114
195 181 114
195 181 114
195 181 114
195 181 114
195 181 114
195 181 114
195 181 114
195 181 114
195 181 114
195 181 114
195 181 114
195 181 114
195 181 114
195 181 114
195 181 114
195 181 114
195 181 114
195 181 114
195 181 114
195 181 114
195 181 114
195 181 114
195 181 114
195 181 114
195 181 114
195 181 114
195 181 114
195 181 114
195 181 114
195 181 114
195 181 114
195 181 114
195 181 114
220 234 254
214 229 249
218 232 251
216 230 252
218 232 251
218 232 252
220 234 254
218 232 252
218 232 252
219 233 253
217 231 251
218 232 253
216 230 250
219 233 254
221 235 255
220 234 254
220 234 254
219 233 252
221 235 255
217 231 252
218 232 252
217 231 252
217 231 252
219 233 252
216 230 251
219 233 254
222 236 255
216 230 251
221 235 255
217 232 252
218 232 253
217 231 251
218 232 252
213 228 250
220 234 254
217 231 251
216 230 251
220 234 254
218 232 253
218 232 253
222 236 255
213 228 249
213 228 249
218 232 252
214 228 250
220 234 254
213 228 249
221 235 255
218 232 253
218 232 252
219 233 253
217 231 252
219 233 254
217 232 252
218 232 253
216 230 252
219 233 252
218 232 252
219 233 254
221 235 255
221 235 255
220 234 254
217 231 252
218 232 252
215 230 251
220 234 254
219 233 253
217 231 250
217 231 252
220 234 254
219 233 252
218 232 252
219 233 253
221 235 255
222 236 255
222 236 255
222 236 255
222 236 255
222 236 255
222 236 255
222 236 255
222 236 255
222 236 255
222 236 255
222 236 255
222 236 255
222 236 255
221 236 254
222 236 255
222 236 255
222 236 255
222 236 255
222 236 255
222 236 255
222 236 255
222 236 255
222 236 255
222 236 255
222 236 255
222 236 255
222 236 255
222 236 255
222 236 255
222 236 255
222 236 255
216 230 250
220 234 254
214 228 248
218 232 251
215 229 250
220 234 254
219 233 252
218 232 253
218 232 251
219 233 253
218 232 252
216 230 250
219 233 254
218 232 252
220 234 253
215 229 250
214 228 248
214 228 248
217 231 252
218 232 253
217 231 251
218 232 251
220 234 254
217 231 252
217 231 252
217 231 251
216 230 251
216 230 251
219 232 253
207 221 243
62 98 145
62 97 145
63 98 151
62 97 150
61 96 141
63 98 152
62 98 147
61 96 141
61 96 140
62 97 139
60 95 133
61 96 139
61 97 144
61 96 144
62 98 148
61 96 140
62 97 143
61 96 136
62 97 142
62 97 143
60 95 130
60 96 137
62 97 148
61 96 135
61 96 139
62 98 151
61 96 136
60 95 133
62 97 144
61 96 136
61 97 142
61 96 143
62 97 150
62 97 142
61 96 140
61 97 150
60 95 131
61 96 141
61 96 139
62 97 148
60 95 134
63 98 149
62 98 149
61 96 137
62 97 143
61 96 141
62 97 147
62 97 142
61 96 140
62 97 145
62 97 144
62 98 149
62 97 147
61 96 137
62 97 145
62 97 148
63 99 158
61 96 139
61 96 142
62 97 144
62 97 149
61 96 137
61 96 136
62 97 149
60 94 129
62 97 145
62 97 145
62 97 141
61 96 136
61 95 135
62 97 144
61 96 142
61 96 137
61 97 144
62 97 145
62 97 144
61 96 137
60 95 133
62 97 145
62 97 144
61 95 143
62 97 147
61 96 142
61 96 137
62 97 141
62 97 142
61 97 144
62 97 143
61 96 136
60 95 128
60 95 133
61 96 139
62 98 147
62 97 147
61 96 136
60 95 135
62 97 144
62 97 149
60 95 130
62 97 145
61 96 140
61 96 143
62 97 149
62 97 143
60 95 133
62 98 154
60 95 134
60 95 139
62 97 147
61 96 137
60 95 140
60 95 138
63 98 154
61 96 141
62 97 149
62 96 150
62 96 143
61 95 134
60 94 132
61 95 134
62 97 144
62 96 144
61 95 141
61 95 136
61 96 144
60 94 134
61 95 139
58 91 126
60 93 129
35 47 49
30 37 22
34 43 26
35 44 30
40 49 34
36 45 31
44 55 39
44 55 38
43 53 37
47 59 46
46 58 41
46 58 40
49 63 48
48 61 41
49 63 51
50 64 47
48 62 46
52 67 54
52 69 52
52 68 55
52 68 54
51 67 54
54 70 57
54 71 57
55 73 64
53 71 57
56 74 68
55 75 66
54 73 61
55 75 64
182 171 109
194 181 114
194 181 114
194 181 114
194 181 114
194 181 114
194 181 114
194 181 114
194 181 114
194 181 114
194 181 114
194 181 114
194 181 114
194 181 114
194 181 114
194 181 114
194 181 114
194 181 114
194 181 114
194 181 114
194 181 114
194 181 114
194 181 114
195 181 114
194 181 114
194 181 114
195 181 114
195 181 114
195 181 114
195 181 114
195 181 114
195 181 114
195 181 114
195 181 114
195 181 114
195 181 114
195 181 114
195 181 114
195 181 114
195 181 114
195 181 114
195 181 114
195 181 114
195 181 114
195 181 114
195 181 114
195 181 114
195 181 114
195 181 114
195 181 114
195 181 114
195 181 114
195 181 114
195 181 114
195 181 114
195 181 114
195 181 114
195 181 114
195 181 114
195 181 114
195 181 114
195 181 114
195 181 114
195 181 114
195 181 114
195 181 114
195 181 114
195 181 114
195 181 114
195 181 114
195 181 114
195 181 114
195 181 114
195 181 114
195 181 114
195 181 114
195 181 114
195 181 114
195 181 114
195 181 114
195 181 114
195 181 114
195 181 114
196 181 114
196 181 114
196 181 114
196 181 114
196 181 114
196 181 114
196 181 114
196 181 114
196 181 114
196 181 114
196 181 114
196 181 114
196 181 114
196 181 114
196 181 114
196 181 114
196 181 114
196 181 114
196 181 114
196 181 114
196 181 114
196 181 114
196 181 114
221 235 255
217 232 251
221 235 255
217 231 251
220 234 254
215 230 250
219 233 254
220 234 254
219 233 254
215 230 250
219 233 254
219 233 253
220 234 254
216 230 252
221 235 254
218 233 252
215 229 251
220 234 254
222 236 255
220 234 254
215 230 250
219 233 254
220 234 254
218 233 253
218 232 252
216 231 252
218 233 252
221 235 255
219 233 252
212 227 248
220 234 254
217 231 252
216 231 252
221 235 255
220 234 254
218 233 253
219 233 254
217 231 252
217 232 252
215 230 251
217 232 253
215 230 251
209 224 248
217 232 252
216 231 250
218 233 254
213 228 250
217 232 252
217 232 252
218 232 253
217 232 253
218 233 253
218 233 253
217 231 252
216 231 252
216 231 251
219 233 253
213 228 250
222 236 255
216 230 252
218 233 254
218 233 254
220 234 254
219 234 254
215 230 251
219 233 254
215 230 251
215 230 251
218 232 252
215 230 251
214 229 250
219 234 253
215 230 249
218 233 253
221 236 255
222 236 255
222 236 255
222 236 255
222 236 255
222 236 255
222 236 255
222 236 255
222 236 255
222 236 255
222 236 255
222 236 255
221 236 255
222 236 255
222 236 255
222 236 255
222 236 255
222 236 255
221 236 255
222 236 255
222 236 255
222 236 255
222 236 255
222 236 255
222 236 255
222 236 255
222 236 255
222 236 255
222 236 255
222 236 255
221 235 255
215 229 249
218 232 252
219 233 252
212 227 248
219 233 252
220 234 254
217 231 252
221 235 254
218 232 252
218 232 253
218 232 252
213 227 248
212 227 247
215 229 249
221 235 255
217 231 252
220 234 254
219 233 252
220 234 254
214 228 249
215 229 248
218 232 252
215 229 251
218 232 252
219 233 254
219 233 253
213 227 248
217 231 250
220 234 254
194 209 231
63 98 148
62 97 143
62 97 143
61 97 142
63 99 155
62 97 141
62 97 149
62 97 145
61 96 134
61 96 135
61 97 142
62 97 148
61 96 136
61 96 139
62 98 151
61 96 144
62 97 144
60 95 131
61 96 137
61 96 135
60 96 139
62 98 151
61 96 136
60 96 136
61 96 140
61 96 135
60 95 128
62 97 143
61 96 137
61 96 137
61 96 135
62 97 140
62 97 147
62 97 140
61 96 143
61 96 143
61 96 133
62 97 147
62 97 148
60 95 130
63 98 153
60 95 140
63 98 150
60 95 129
62 97 145
61 96 143
60 94 126
61 96 145
61 96 134
62 97 148
60 95 131
62 98 149
60 95 136
60 95 133
61 96 135
61 97 144
63 98 153
62 97 144
61 96 137
60 95 134
61 96 140
63 98 153
61 97 140
62 97 143
62 97 148
63 98 150
63 98 149
60 95 131
61 97 145
60 95 133
61 96 136
61 96 139
61 96 140
61 97 145
61 96 141
62 97 143
61 96 141
61 96 137
61 96 136
61 96 140
61 95 131
61 97 142
61 97 140
60 95 129
62 98 144
61 96 135
62 97 149
62 97 145
62 97 144
62 97 148
61 96 141
61 96 140
62 97 141
61 96 141
61 96 136
62 97 143
61 96 142
59 94 124
62 98 151
60 95 132
62 97 142
60 95 134
62 97 143
61 96 142
62 98 148
62 97 144
62 97 145
61 96 143
61 96 141
61 95 139
61 96 143
62 97 145
60 95 135
61 95 139
61 96 145
61 95 133
61 96 140
60 95 134
61 96 140
60 94 139
61 96 145
62 96 143
60 94 132
60 94 134
61 95 139
61 95 139
60 92 129
60 92 133
59 91 126
37 53 59
31 39 25
33 41 23
35 43 25
38 48 34
42 52 34
42 53 37
43 54 35
42 53 31
43 55 37
45 57 37
47 60 46
48 60 40
49 63 45
47 61 46
52 66 51
49 64 50
50 65 48
50 67 53
52 67 50
52 68 54
52 70 55
53 70 56
53 70 57
53 71 59
53 72 60
55 73 64
55 74 63
55 75 66
54 74 61
179 167 106
195 181 114
195 181 114
195 181 114
195 181 114
195 181 114
195 181 114
195 181 114
195 181 114
195 181 114
195 181 114
195 181 114
195 181 114
195 181 114
195 181 114
195 181 114
195 181 114
195 181 114
195 181 114
195 181 114
195 181 114
195 181 114
195 181 114
195 181 114
195 181 114
195 181 114
195 181 114
195 181 114
195 181 114
195 181 114
195 181 114
196 181 114
195 181 114
196 181 114
196 181 114
196 181 114
196 181 114
196 181 114
196 181 114
196 181 114
196 181 114
196 181 114
196 181 114
196 181 114
196 181 114
196 181 114
196 181 114
196 181 114
196 181 114
196 181 114
196 181 114
196 181 114
196 181 114
196 181 114
196 181 114
196 181 114
196 181 114
196 181 114
196 181 114
196 181 114
196 181 114
196 181 114
196 181 114
196 181 114
196 181 114
196 181 114
196 181 114
196 181 114
196 181 114
196 181 114
196 181 114
196 181 114
196 181 114
196 181 114
196 181 114
196 181 114
196 181 114
196 182 114
196 182 114
196 181 114
196 182 114
196 182 114
196 182 114
196 182 114
196 182 114
196 182 114
196 182 114
196 182 114
196 182 114
196 182 114
196 182 114
196 182 114
196 182 114
196 182 114
196 182 114
196 182 114
196 182 114
196 182 114
196 182 114
196 182 114
196 182 114
196 182 114
196 182 114
196 182 114
196 182 114
196 182 114
216 231 251
217 232 252
217 232 252
219 234 254
219 234 254
218 233 254
219 234 254
215 230 250
213 228 248
218 233 253
217 232 252
217 232 252
217 232 252
219 234 253
219 234 254
216 231 250
218 233 254
215 230 250
218 233 252
216 231 252
221 236 255
219 234 254
215 230 251
216 231 252
218 233 254
214 229 251
217 232 252
217 232 252
219 234 254
216 231 251
218 233 254
214 229 250
217 232 253
219 234 254
220 235 255
218 233 254
221 236 255
218 233 253
217 232 253
219 234 254
218 233 254
219 234 253
218 233 253
216 231 252
215 230 251
214 229 249
217 232 252
221 236 255
217 232 253
219 234 254
219 233 253
216 230 251
215 230 250
217 232 253
216 231 252
215 230 251
218 233 254
219 233 253
218 233 252
218 233 254
219 233 253
216 231 252
215 230 252
216 231 251
216 231 252
214 229 251
217 232 252
219 234 254
217 232 252
217 232 252
217 232 252
219 234 254
216 230 249
219 234 254
221 236 255
221 236 255
221 236 255
221 236 255
221 236 255
221 236 255
221 236 255
221 236 255
221 236 255
221 236 255
221 236 255
221 236 255
221 236 255
221 236 255
221 236 255
222 236 255
221 236 255
221 236 255
222 236 255
222 236 255
222 236 255
221 236 255
221 236 255
221 236 255
221 236 255
221 236 255
221 236 255
222 236 255
222 236 255
221 236 255
222 236 255
218 233 253
215 230 249
211 226 246
220 234 254
221 235 255
221 235 254
219 233 254
218 232 253
218 232 253
220 234 254
221 235 255
212 227 249
214 229 250
217 232 251
221 235 255
218 232 253
217 231 252
221 235 254
219 233 254
217 231 251
214 229 251
216 230 251
220 234 254
216 230 251
217 231 252
220 234 254
216 230 251
219 233 253
216 230 251
181 198 223
61 96 140
61 96 137
61 96 137
62 97 139
61 96 140
62 97 145
61 96 139
62 97 143
61 96 135
61 96 136
61 96 136
62 97 144
62 97 144
60 95 130
61 96 140
60 95 135
61 96 136
61 96 135
62 97 147
62 97 144
61 97 142
61 96 137
60 94 125
62 97 147
61 96 141
61 96 140
61 96 139
61 96 137
61 97 142
62 97 144
61 96 140
61 97 147
61 96 143
61 97 139
60 95 126
61 97 142
60 95 135
62 97 150
61 96 139
61 95 139
61 96 143
61 96 140
59 93 115
60 95 136
61 96 135
61 96 137
62 97 143
61 96 140
62 97 144
62 97 140
61 96 136
62 97 141
62 97 147
60 95 135
61 96 135
62 97 143
62 97 147
61 96 134
61 96 137
60 95 131
61 96 139
62 97 147
61 96 137
62 98 151
62 97 148
61 96 140
61 96 137
62 97 145
61 96 137
62 97 148
60 95 131
61 96 135
61 95 135
60 95 134
62 97 144
62 97 148
61 96 135
62 98 151
62 97 143
62 97 148
61 97 141
61 95 136
61 96 137
61 96 140
60 95 130
62 97 144
63 98 156
62 97 145
61 96 135
61 96 143
63 99 155
61 96 142
62 97 149
60 95 133
60 95 133
61 96 135
61 96 143
60 95 135
62 97 143
61 96 141
62 97 142
61 96 143
61 96 142
60 95 133
62 97 148
61 96 140
62 97 143
61 96 131
61 95 130
60 95 133
61 95 135
61 96 138
61 96 137
60 95 134
61 96 140
61 95 134
61 95 136
62 97 150
61 95 139
61 96 143
61 96 138
60 94 129
60 94 132
60 94 129
59 93 131
61 94 136
60 94 136
59 91 125
59 91 128
37 52 63
28 35 22
29 37 22
37 46 25
37 47 30
38 48 33
40 51 35
40 52 31
44 56 38
42 53 36
46 57 41
46 59 41
48 61 43
48 62 43
47 60 41
49 63 43
50 65 50
52 67 51
52 67 51
53 69 58
52 68 52
50 66 47
53 71 58
52 70 54
52 69 56
53 71 56
54 73 62
53 72 56
56 76 69
55 75 66
175 164 105
196 182 114
196 182 114
196 182 114
196 182 114
196 182 114
196 182 114
196 182 114
196 182 114
196 182 114
196 182 114
196 182 114
196 182 114
196 182 114
196 182 114
196 182 114
196 182 114
196 182 114
196 182 114
196 182 114
196 182 114
196 182 114
196 182 114
196 182 114
196 182 114
196 182 114
196 182 114
196 182 114
196 182 114
196 182 114
196 182 114
196 182 114
196 182 114
196 182 114
196 182 114
197 182 114
196 182 114
196 182 114
196 182 114
196 182 114
197 182 114
196 182 114
197 182 114
196 182 114
197 182 114
197 182 114
197 182 114
197 182 114
197 182 114
197 182 114
197 182 114
197 182 114
197 182 114
197 182 114
197 182 114
197 182 114
197 182 114
197 182 114
197 182 114
197 182 114
197 182 114
197 182 114
197 182 114
197 182 114
197 182 114
197 182 114
197 182 114
197 182 114
197 182 114
197 182 114
197 182 114
197 182 114
197 182 114
197 182 114
197 182 114
197 182 114
197 182 114
197 182 114
197 182 114
197 182 114
197 182 114
197 182 114
197 182 114
197 182 114
197 182 114
197 182 114
197 182 114
197 182 114
197 182 114
197 182 114
197 182 114
197 182 114
197 182 114
197 182 114
197 182 114
197 182 114
197 182 114
197 182 114
197 182 114
197 182 114
197 182 114
197 182 114
197 182 114
197 182 114
197 182 114
197 182 114
217 232 252
215 230 252
220 235 255
219 234 254
217 231 251
216 231 252
216 231 251
216 231 252
217 231 250
214 229 248
220 235 255
216 231 251
217 232 252
215 230 251
220 235 255
216 231 252
217 232 252
219 234 254
215 230 251
213 228 250
219 234 254
217 232 253
220 235 255
217 232 252
221 236 255
213 228 249
218 233 254
218 233 252
218 233 254
212 227 248
216 231 251
219 234 254
217 232 253
216 231 252
219 234 254
217 232 253
218 233 253
218 233 253
221 236 255
216 230 251
217 232 252
216 231 252
215 230 250
217 232 252
218 233 254
220 235 255
217 232 252
216 231 252
218 233 253
218 232 252
218 232 252
215 228 248
217 231 250
216 230 251
216 231 252
215 230 251
220 235 254
213 228 250
217 232 252
218 233 254
219 233 254
217 232 252
218 233 253
220 235 255
219 234 254
216 231 252
216 231 252
219 234 254
219 234 254
216 231 252
219 234 254
219 234 254
219 234 254
217 232 252
221 236 255
221 236 255
221 236 255
221 236 255
221 236 255
221 236 255
221 236 255
221 236 255
221 236 255
221 236 255
221 236 255
221 236 255
221 236 255
221 236 255
221 236 255
221 236 255
221 236 255
221 236 255
221 236 255
221 236 255
221 236 255
221 236 255
221 236 255
221 236 255
221 236 255
221 236 255
221 236 255
221 236 255
221 236 255
221 236 255
220 235 255
213 228 249
217 232 252
217 232 252
218 233 254
219 234 254
216 231 252
220 235 255
215 229 250
214 229 248
214 229 249
217 232 251
216 231 251
218 233 252
220 235 254
215 229 250
218 233 253
215 230 252
218 233 253
216 231 251
218 233 253
216 231 252
217 232 253
219 234 254
210 225 248
217 232 252
215 230 249
217 232 253
220 235 255
219 234 254
170 187 214
62 98 148
62 97 147
62 97 145
61 96 137
61 96 134
61 96 135
61 97 139
61 96 141
61 96 135
62 97 142
60 94 129
62 97 143
60 95 125
61 96 135
60 95 131
61 96 137
61 96 137
62 97 140
60 95 130
63 98 150
61 96 141
61 96 135
61 96 142
62 98 150
62 98 154
63 98 147
61 97 137
61 95 134
60 95 135
61 96 140
61 96 139
61 97 144
59 94 128
61 96 140
61 96 136
62 97 144
62 97 144
60 95 129
61 96 134
62 98 144
61 97 144
60 95 131
63 98 152
61 96 140
61 96 137
61 96 137
61 96 140
61 96 141
61 96 134
62 97 137
62 97 145
60 95 131
61 96 142
60 95 135
61 95 135
61 96 139
60 95 136
62 97 142
62 97 142
63 98 149
62 97 147
60 95 128
62 97 149
61 96 140
62 98 149
60 94 130
61 96 136
62 97 147
61 97 142
61 96 140
61 96 135
61 95 136
62 97 147
61 96 137
59 93 120
62 97 143
61 96 134
60 95 126
61 96 137
60 95 139
62 97 152
61 96 140
62 97 145
62 97 144
60 95 134
62 97 142
61 96 142
61 96 141
61 95 131
59 94 125
61 96 136
60 95 133
61 96 141
62 97 140
60 95 134
61 96 140
61 96 139
61 96 137
61 97 145
62 97 141
60 95 134
63 98 148
60 95 128
62 97 145
61 96 137
60 95 134
61 96 140
60 95 135
60 95 135
60 95 134
61 96 137
61 95 137
61 96 136
59 93 125
61 95 136
61 96 141
62 97 141
61 96 140
61 96 138
61 96 133
60 94 128
62 96 140
61 95 141
58 92 115
60 95 134
59 92 129
60 93 132
59 92 132
58 89 116
38 55 61
28 35 15
32 40 24
32 40 22
37 46 26
39 48 30
38 49 32
41 52 31
44 55 38
43 54 37
46 59 40
48 60 42
48 62 43
48 62 43
50 64 46
49 62 42
50 65 50
50 65 50
51 66 48
52 68 51
53 70 56
53 71 57
52 70 54
52 68 52
53 71 58
54 73 61
53 71 54
54 72 57
54 73 62
54 73 59
161 153 100
197 182 114
197 182 114
197 182 114
197 182 114
197 182 114
197 182 114
197 182 114
197 182 114
197 182 114
197 182 114
197 182 114
197 182 114
197 182 114
197 182 114
197 182 114
197 182 114
197 182 114
197 182 114
197 182 114
197 182 114
197 182 114
197 182 114
197 182 114
197 182 114
197 182 114
197 182 114
197 182 114
197 182 114
197 182 114
197 182 114
197 182 114
197 182 114
197 182 114
197 182 114
197 182 114
197 182 114
197 182 114
197 182 114
197 182 114
197 182 114
197 182 114
197 182 114
197 182 114
197 182 114
197 182 114
197 182 114
197 182 114
197 182 114
197 182 114
197 182 114
197 182 114
197 182 114
197 182 114
197 182 114
197 182 114
197 182 114
197 182 114
197 182 114
197 182 114
197 182 114
197 182 114
197 182 114
197 182 114
197 182 114
197 182 114
197 182 114
197 182 114
197 182 114
197 182 114
197 182 114
197 182 114
197 182 114
197 182 114
197 182 114
197 182 114
197 182 114
197 182 114
197 182 114
197 182 114
197 182 114
197 182 114
197 182 114
197 182 114
197 182 114
197 182 114
197 182 114
197 182 114
197 182 114
198 182 114
197 182 114
197 182 114
198 182 114
198 182 114
198 182 114
198 182 114
198 182 114
198 182 114
197 182 114
198 182 114
198 182 114
198 182 114
198 182 114
198 182 114
198 182 114
198 182 114
219 234 254
219 233 254
219 233 254
219 233 253
219 234 254
217 232 252
218 233 253
216 230 250
219 234 254
218 233 253
218 233 254
214 229 249
220 235 255
216 231 252
219 234 254
219 234 254
215 230 252
219 234 254
219 234 254
217 232 252
216 231 252
217 231 251
218 233 254
216 230 250
218 233 254
217 232 253
216 231 252
219 234 254
214 228 249
219 234 254
217 232 252
217 232 252
215 230 251
214 229 250
213 228 250
217 232 252
216 231 252
220 235 255
217 232 253
218 232 253
215 230 251
216 231 251
219 233 254
214 229 250
218 233 253
217 232 253
220 235 255
217 232 253
218 233 254
220 234 254
219 233 253
217 231 250
212 226 245
219 233 254
221 235 255
220 235 255
215 229 250
214 229 250
218 233 254
217 232 252
216 231 251
218 232 252
218 233 253
220 235 255
216 231 252
218 233 253
219 234 254
213 228 250
218 233 254
217 232 253
214 229 251
219 233 253
220 235 255
219 234 254
221 235 255
221 235 255
221 235 255
221 235 255
221 235 255
221 235 255
221 235 255
221 235 255
221 235 255
221 235 255
221 235 255
221 235 255
221 235 255
221 235 255
221 235 255
221 235 255
221 235 255
221 235 255
221 235 255
221 235 255
221 235 255
221 235 255
221 235 255
221 235 255
221 235 255
221 235 255
221 235 255
221 235 255
221 235 255
221 235 255
218 232 253
220 234 255
219 234 254
215 229 250
214 228 248
217 231 252
218 232 253
216 231 252
216 231 251
217 232 252
220 234 254
216 231 252
212 227 248
218 233 253
216 230 251
216 231 252
218 233 253
215 230 252
217 232 252
216 231 252
217 232 253
218 232 253
213 228 250
217 232 253
215 230 251
213 228 249
219 234 254
216 231 252
219 233 254
220 234 255
190 206 229
63 98 148
60 95 134
63 98 149
61 96 135
60 95 136
61 97 141
62 97 143
62 97 142
61 96 140
62 97 145
62 97 141
60 95 133
61 96 136
62 97 142
61 96 140
60 95 134
60 95 125
62 97 148
62 97 142
61 96 139
61 96 139
61 96 142
61 96 136
60 95 133
62 97 142
60 95 130
61 96 143
61 96 140
61 96 137
61 95 136
61 97 147
62 97 139
61 96 143
60 95 137
61 96 139
62 97 142
61 96 141
60 94 125
60 95 129
62 97 142
61 96 135
61 96 140
61 96 142
63 98 151
61 97 139
60 95 130
61 96 141
60 95 136
61 96 137
60 95 130
62 97 145
62 97 142
60 95 131
62 97 145
60 95 135
61 96 134
61 96 135
60 96 137
60 95 137
60 95 129
60 95 135
63 98 149
60 96 134
60 95 130
62 97 142
61 96 137
62 97 147
61 96 142
62 97 145
60 94 128
62 98 148
61 96 143
61 96 137
62 97 143
61 96 137
60 94 130
60 95 137
60 95 131
61 96 137
62 96 137
61 96 136
59 94 133
60 95 135
61 96 139
61 96 144
62 97 142
61 95 135
61 96 143
61 97 143
62 97 147
61 96 135
62 97 143
61 96 136
60 95 133
61 96 137
61 96 139
61 96 140
61 96 137
62 98 149
61 96 142
62 97 149
61 96 137
60 95 130
60 95 134
61 95 131
61 96 139
61 95 137
59 94 122
61 97 139
61 96 138
61 96 142
62 97 141
61 96 139
61 96 143
61 96 142
60 94 128
61 95 132
60 94 131
60 95 134
60 94 132
60 94 131
59 94 127
60 93 127
60 94 138
60 94 130
61 95 139
60 93 134
59 91 126
59 90 122
37 53 65
29 37 25
32 40 24
36 45 26
34 42 21
39 48 28
39 49 29
40 50 32
42 52 34
45 56 39
45 57 38
47 58 36
46 58 36
49 63 46
49 63 43
49 63 49
48 62 39
51 65 50
51 66 49
51 67 49
52 69 53
51 68 49
51 68 51
54 71 58
52 69 55
55 73 64
54 72 60
54 73 61
54 73 62
53 72 56
169 158 102
198 183 114
198 183 114
198 183 114
198 183 114
198 183 114
198 183 114
198 183 114
198 183 114
198 183 114
198 183 114
198 183 114
198 183 114
198 183 114
198 183 114
198 183 114
198 183 114
198 183 114
198 183 114
198 183 114
198 183 114
198 183 114
198 183 114
198 183 114
198 183 114
198 183 114
198 183 114
198 183 114
198 183 114
198 183 114
198 183 114
198 183 114
198 183 114
198 183 114
198 183 114
198 183 114
198 183 114
198 183 114
198 183 114
198 183 114
198 183 114
198 183 114
198 183 114
198 183 114
198 183 114
198 183 114
198 183 114
198 183 114
198 183 114
198 183 114
198 183 114
198 183 114
198 182 114
198 183 114
198 183 114
198 183 114
198 183 114
198 183 114
198 183 114
198 182 114
198 183 114
198 183 114
198 183 114
198 183 114
198 182 114
198 183 114
198 182 114
198 183 114
198 183 114
198 183 114
198 182 114
198 183 114
198 182 114
198 182 114
198 182 114
198 182 114
198 182 114
198 182 114
198 182 114
198 182 114
198 182 114
198 182 114
198 182 114
198 182 114
198 182 114
198 182 114
198 182 114
198 182 114
198 182 114
198 182 114
198 182 114
198 182 114
198 182 114
198 182 114
198 182 114
198 182 114
198 182 114
198 182 114
198 182 114
198 182 114
198 182 114
198 182 114
198 182 114
198 182 114
198 182 114
198 182 114
217 231 252
219 233 254
215 229 250
218 232 252
217 231 252
218 232 252
216 231 252
218 232 252
220 234 255
220 234 254
219 233 254
218 232 253
219 233 253
218 232 253
218 233 254
212 226 248
216 231 252
215 230 251
214 229 250
221 235 255
218 232 252
214 228 248
219 233 253
217 231 252
217 231 252
216 231 252
214 229 251
217 231 252
219 233 254
217 231 252
216 231 252
217 231 252
219 233 254
214 228 248
217 232 253
217 232 252
216 231 252
220 234 255
216 230 251
221 235 255
215 230 251
218 232 253
218 233 254
218 232 253
220 234 255
216 230 251
220 234 254
219 233 254
219 234 254
217 231 252
218 232 252
218 232 253
219 234 254
216 230 251
220 234 254
220 234 255
220 234 255
218 232 253
220 234 255
218 232 252
220 234 255
219 233 253
218 232 253
221 235 255
220 234 254
216 231 252
218 232 252
220 234 255
213 227 248
215 230 250
219 233 254
218 232 252
218 232 253
220 234 255
221 235 255
221 235 255
221 235 255
221 235 255
221 235 255
221 235 255
221 235 255
221 235 255
221 235 255
221 235 255
221 235 255
221 235 255
221 235 255
221 235 255
221 235 255
221 235 255
221 235 255
221 235 255
221 235 255
221 235 255
221 235 255
221 235 255
221 235 255
221 235 255
221 235 255
221 235 255
221 235 255
221 235 255
221 235 255
221 235 255
220 234 255
220 234 255
216 230 251
219 233 254
218 232 254
214 228 250
212 227 248
219 233 254
217 231 252
213 227 249
216 230 251
215 229 250
218 232 253
216 230 252
220 234 255
219 233 254
217 231 252
218 232 254
214 228 250
218 232 254
215 229 250
217 231 253
215 229 251
217 231 252
219 233 254
215 229 251
215 229 250
216 230 252
215 229 252
219 233 254
189 205 231
62 97 140
61 96 135
63 98 147
62 98 145
60 95 134
61 96 141
60 95 129
60 95 131
61 95 136
61 96 140
62 97 142
62 97 141
60 95 126
62 97 148
62 97 143
60 94 128
60 95 129
61 96 141
61 96 136
60 95 135
61 96 137
61 96 133
62 97 143
61 96 135
61 96 137
61 95 133
61 96 137
60 95 129
62 97 143
61 96 139
61 96 139
60 95 131
61 96 140
61 96 133
61 96 137
61 97 147
61 97 143
61 95 133
61 97 144
62 97 144
61 96 134
61 96 145
62 97 142
60 95 125
61 96 141
61 96 136
62 97 143
60 94 128
61 95 131
61 96 140
61 95 130
61 96 137
62 97 141
61 96 140
60 95 133
61 95 136
61 96 140
60 96 135
60 95 135
60 95 129
61 95 134
62 97 142
62 97 144
61 97 142
63 98 152
61 95 131
61 96 129
60 95 133
62 97 143
61 96 135
61 96 139
60 95 128
61 96 137
60 95 125
61 95 140
61 95 135
62 97 142
61 96 135
62 97 143
61 96 135
61 96 129
62 97 140
61 96 133
62 97 145
61 96 134
60 95 130
61 96 137
60 95 134
61 96 135
60 95 134
60 94 125
62 97 145
62 96 140
60 95 134
61 97 142
62 97 143
60 95 134
60 95 129
60 95 130
62 97 142
62 97 147
62 97 145
60 94 124
61 96 139
60 94 129
61 96 137
62 97 147
60 94 128
60 95 133
61 95 140
60 95 134
61 95 134
62 97 143
61 96 141
61 96 142
60 95 129
62 96 145
61 95 135
59 93 126
60 94 135
61 95 132
61 95 138
61 95 134
59 93 124
60 93 133
60 94 133
60 93 128
59 91 125
58 89 115
37 55 66
28 36 21
35 43 25
34 43 22
35 44 25
37 45 22
38 46 26
41 52 31
42 52 32
43 54 34
43 53 35
45 57 37
46 58 38
46 59 38
49 63 44
49 63 50
49 65 48
47 60 42
51 66 50
50 65 44
51 66 51
52 69 55
53 70 55
53 71 57
52 70 52
53 71 58
52 71 51
53 73 59
53 72 58
54 74 62
174 162 102
199 183 114
199 183 114
199 183 114
199 183 114
199 183 114
199 183 114
199 183 114
199 183 114
199 183 114
199 183 114
199 183 114
199 183 114
199 183 114
199 183 114
199 183 114
199 183 114
199 183 114
199 183 114
199 183 114
199 183 114
199 183 114
199 183 114
199 183 114
199 183 114
199 183 114
199 183 114
199 183 114
199 183 114
199 183 114
199 183 114
199 183 114
199 183 114
199 183 114
199 183 114
199 183 114
199 183 114
199 183 114
199 183 114
199 183 114
199 183 114
199 183 114
199 183 114
199 183 114
199 183 114
199 183 114
199 183 114
199 183 114
199 183 114
199 183 114
199 183 114
199 183 114
199 183 114
199 183 114
199 183 114
199 183 114
199 183 114
199 183 114
199 183 114
199 183 114
199 183 114
199 183 114
199 183 114
199 183 114
199 183 114
199 183 114
199 183 114
199 183 114
199 183 114
199 183 114
199 183 114
199 183 114
199 183 114
199 183 114
199 183 114
199 183 114
199 183 114
199 183 114
199 183 114
199 183 114
199 183 114
199 183 114
199 183 114
199 183 114
199 183 114
199 183 114
199 183 114
199 183 114
199 183 114
199 183 114
199 183 114
199 183 114
199 183 114
199 183 114
199 183 114
199 183 114
199 183 114
199 183 114
199 183 114
199 183 114
199 183 114
199 183 114
199 183 114
199 183 114
199 183 114
199 183 114
216 230 252
212 227 248
219 233 254
221 235 255
212 227 250
213 227 249
217 231 252
221 235 255
214 228 250
216 230 250
219 233 254
216 230 252
215 229 250
220 234 254
219 233 254
218 232 254
218 232 253
218 232 253
218 232 252
214 228 250
214 229 249
219 233 254
218 232 253
219 233 254
217 231 252
219 233 254
217 231 252
215 229 250
221 235 255
219 233 254
214 228 249
215 230 251
219 233 254
218 232 254
218 232 252
216 230 250
216 230 251
215 229 250
218 232 253
216 230 251
221 235 255
214 228 249
214 229 250
219 233 254
220 234 255
217 231 252
220 234 254
215 230 251
220 234 255
218 232 253
219 233 253
217 231 251
218 232 253
216 230 250
218 232 254
218 232 254
217 231 253
217 231 250
218 232 253
218 232 253
220 234 255
217 231 252
218 232 253
219 233 254
217 231 252
218 232 253
219 233 254
218 233 254
218 232 252
218 232 253
219 233 254
216 230 251
219 233 254
221 235 255
221 235 255
221 235 255
221 235 255
220 235 254
221 235 255
221 235 255
221 235 255
221 235 255
221 235 255
221 235 255
221 235 255
220 235 254
221 235 255
220 235 254
221 235 255
221 235 255
221 235 255
221 235 255
221 235 255
221 235 255
221 235 255
220 235 254
221 235 255
221 235 255
221 235 255
221 235 255
221 235 255
221 235 255
221 235 255
221 235 255
220 234 255
215 230 251
215 230 252
217 232 253
218 233 254
217 231 253
215 230 250
214 229 249
216 231 252
217 232 252
216 231 252
216 231 253
216 231 251
214 229 251
217 232 252
213 228 248
215 230 252
214 229 250
214 229 250
218 233 254
217 232 253
216 231 253
215 230 252
219 234 254
216 231 252
213 228 250
218 233 254
214 229 250
217 232 253
213 228 250
193 209 232
62 97 135
61 95 135
61 96 140
61 96 134
60 95 129
63 98 151
60 95 130
61 96 141
59 94 125
61 96 134
59 94 124
60 95 129
62 97 142
60 94 126
61 96 129
61 96 139
61 96 137
60 95 133
62 97 145
59 94 120
61 96 134
59 93 114
60 95 130
62 97 141
60 94 128
61 96 131
60 95 129
60 95 135
62 97 144
61 96 142
62 98 152
61 96 134
60 95 136
60 95 130
60 95 131
61 96 143
60 95 128
61 95 133
61 96 134
60 95 131
60 95 135
60 94 129
60 95 131
61 96 135
61 95 133
61 96 147
62 97 148
61 96 137
59 94 125
61 95 131
62 97 141
60 95 137
61 96 137
60 95 134
61 96 139
62 98 147
61 96 139
62 97 147
60 95 130
61 96 135
61 96 135
60 95 128
60 95 134
61 96 135
60 95 129
62 97 144
60 95 130
60 96 139
60 95 134
60 95 134
60 95 135
61 96 139
62 97 141
60 95 136
60 95 130
62 97 139
61 96 140
60 95 125
61 95 137
60 95 133
61 96 137
60 95 135
62 97 142
61 96 133
61 96 137
61 96 131
60 95 139
60 95 134
60 95 134
60 95 130
61 96 134
60 94 133
61 96 139
61 95 137
61 96 135
61 95 136
60 95 134
60 95 131
60 95 134
60 95 128
63 98 150
61 96 137
60 94 128
59 93 120
61 96 137
61 96 137
60 96 139
61 96 141
59 94 128
61 96 140
60 95 128
60 94 128
62 97 143
60 95 126
60 94 127
60 94 129
61 95 136
61 95 135
58 92 115
61 95 139
60 94 128
61 95 139
60 94 129
59 93 129
60 94 128
59 92 122
60 93 131
60 93 131
59 90 123
34 48 48
26 33 13
32 40 20
32 40 24
33 41 21
37 47 28
42 53 33
40 49 29
41 50 31
43 53 32
42 53 32
45 57 33
47 58 37
45 57 34
46 60 40
47 62 42
49 63 46
50 64 47
50 65 44
49 63 44
50 66 50
50 67 47
51 67 48
51 67 50
53 71 55
51 67 45
52 71 54
54 74 62
53 72 56
52 72 52
187 173 109
200 184 114
200 184 114
200 184 114
200 184 114
200 184 114
200 184 114
200 184 114
200 184 114
200 184 114
200 184 114
200 184 114
200 184 114
200 184 114
200 184 114
200 184 114
200 184 114
200 183 114
200 183 114
200 183 114
200 184 114
200 183 114
200 183 114
200 183 114
200 183 114
200 183 114
200 183 114
200 183 114
200 183 114
200 183 114
200 183 114
200 183 114
200 183 114
200 183 114
200 183 114
200 183 114
200 183 114
200 183 114
200 183 114
200 183 114
200 183 114
200 183 114
200 183 114
200 183 114
200 183 114
200 183 114
200 183 114
200 183 114
200 183 114
200 183 114
200 183 114
200 183 114
200 183 114
200 183 114
200 183 114
200 183 114
200 183 114
200 183 114
200 183 114
200 183 114
200 183 114
200 183 114
200 183 114
200 183 114
200 183 114
200 183 114
200 183 114
200 183 114
200 183 114
200 183 114
200 183 114
200 183 114
200 183 114
200 183 114
199 183 114
199 183 114
199 183 114
199 183 114
199 183 114
199 183 114
199 183 114
199 183 114
199 183 114
199 183 114
199 183 114
199 183 114
199 183 114
199 183 114
199 183 114
199 183 114
199 183 114
199 183 114
199 183 114
199 183 114
199 183 114
199 183 114
199 183 114
199 183 114
199 183 114
199 183 114
199 183 114
199 183 114
199 183 114
199 183 114
199 183 114
199 183 114
219 233 254
217 231 252
212 227 247
217 232 253
217 231 251
218 233 254
217 231 252
217 232 253
219 233 254
218 233 253
217 232 252
216 231 253
215 230 250
218 232 254
216 231 252
215 229 250
215 230 252
219 233 254
218 232 254
214 229 251
218 232 253
215 230 252
217 231 253
216 231 252
217 232 252
218 232 253
217 231 252
216 230 251
215 230 251
219 233 254
215 229 251
218 232 254
217 231 252
220 234 255
219 233 254
219 233 254
212 227 248
214 229 250
217 231 252
218 232 253
218 232 252
220 234 254
219 233 254
210 225 248
221 235 255
215 230 252
219 233 253
217 231 252
220 234 255
217 231 253
215 230 250
216 230 252
219 233 254
217 231 253
217 231 253
217 231 252
219 233 254
214 229 248
213 228 250
218 232 254
219 234 254
215 230 250
218 233 251
213 228 248
217 231 252
218 233 252
212 227 250
214 229 250
217 232 252
216 231 250
214 229 251
210 225 246
213 228 248
218 233 251
220 234 253
219 234 252
220 234 253
220 234 253
220 235 254
220 235 254
219 233 249
219 234 252
219 234 250
219 234 252
216 232 244
220 235 254
219 234 252
218 233 249
219 234 250
219 234 252
220 235 254
217 233 248
219 234 252
219 234 253
217 233 246
218 233 248
219 234 253
220 235 254
216 232 244
220 235 254
219 234 250
216 231 242
218 233 249
219 234 253
218 233 249
216 231 251
219 234 254
212 227 248
220 235 255
218 233 254
217 232 252
214 229 251
216 231 252
216 231 251
214 229 250
218 233 254
217 232 251
214 229 252
213 228 248
217 232 253
217 232 254
215 230 250
219 234 255
215 230 251
216 231 250
214 229 250
217 232 254
215 230 251
216 231 252
216 231 253
215 230 251
218 233 254
214 229 251
205 221 246
200 216 242
61 96 142
63 98 148
61 96 133
62 97 142
61 96 136
60 95 125
61 96 137
61 96 137
60 95 134
61 96 137
61 95 135
60 95 126
60 95 130
62 97 140
61 96 136
61 96 144
61 96 136
61 96 134
60 95 129
60 94 124
61 96 137
61 95 133
61 97 143
63 98 149
61 96 135
60 95 136
62 97 141
61 96 134
59 94 130
62 97 148
61 96 139
61 96 136
61 96 136
61 96 134
60 96 134
61 96 142
61 96 139
61 96 137
61 96 133
61 96 137
61 96 137
61 97 144
60 94 130
62 97 140
59 94 120
60 95 126
60 95 128
58 93 117
60 95 133
60 95 133
61 96 137
62 97 145
62 97 142
60 94 129
62 97 143
61 96 142
62 97 145
61 96 137
61 96 136
60 95 139
62 97 141
61 96 141
61 96 144
61 96 137
61 96 136
61 96 139
62 97 141
60 95 131
60 95 134
61 95 135
62 97 144
60 94 126
61 96 137
61 96 140
60 95 130
60 95 131
60 95 135
59 94 124
62 98 152
61 96 137
61 96 141
60 94 130
61 96 134
60 95 131
61 96 134
61 95 136
60 95 143
60 95 133
59 94 128
61 96 135
61 96 135
61 95 136
61 96 137
60 95 125
60 95 133
60 95 135
62 97 142
61 96 138
61 96 139
60 95 130
60 94 133
60 95 133
61 96 144
61 96 140
61 95 133
62 96 143
63 98 151
60 94 132
60 95 133
61 95 135
60 94 129
60 94 124
62 96 139
61 95 137
60 94 130
60 94 125
61 96 136
61 96 136
61 95 136
61 96 140
60 94 133
61 95 139
61 96 139
60 93 131
60 94 129
59 92 131
60 93 133
58 90 122
57 88 115
32 44 46
31 40 22
31 39 22
36 45 24
35 44 23
35 45 21
37 47 26
39 49 21
41 52 31
43 56 34
44 54 29
46 59 38
44 57 32
45 58 41
45 58 39
48 62 45
48 62 40
49 64 46
48 64 43
50 66 49
50 65 45
50 66 46
51 68 48
51 69 46
52 69 50
53 71 58
52 70 54
53 71 54
53 73 57
53 72 55
141 142 18
151 151 0
153 152 19
154 153 25
154 153 25
157 154 34
157 155 36
154 153 28
161 157 47
156 154 34
163 158 51
161 157 47
163 158 51
163 159 53
171 163 66
163 159 52
168 161 61
164 159 56
167 161 61
170 163 64
170 163 66
172 164 69
171 164 69
171 164 68
175 166 75
173 165 71
174 166 75
177 168 80
176 167 78
176 167 78
179 169 82
182 171 87
181 170 85
185 173 93
180 170 85
183 172 90
185 173 92
187 175 95
192 178 103
192 178 102
194 179 105
195 180 106
198 182 110
195 180 106
197 181 109
198 182 111
200 183 113
201 184 114
201 184 114
201 184 114
201 184 114
201 184 114
201 184 114
201 184 114
201 184 114
200 184 114
201 184 114
201 184 114
200 184 114
200 184 114
200 184 114
200 184 114
200 184 114
200 184 114
200 184 114
200 184 114
200 184 114
200 184 114
200 184 114
200 184 114
200 184 114
200 184 114
200 184 114
200 183 114
200 183 114
200 183 114
200 183 114
200 183 114
200 183 114
200 183 114
200 183 114
200 183 114
200 183 114
200 183 114
200 183 114
200 183 114
200 183 114
200 183 114
200 183 114
200 183 114
200 183 114
200 183 114
200 183 114
200 183 114
200 183 114
200 183 114
200 183 114
200 183 114
200 183 114
200 183 114
200 183 114
200 183 114
200 183 114
200 183 114
200 183 114
200 183 114
213 228 250
217 232 253
213 228 249
219 234 255
218 233 254
218 233 254
213 228 250
217 232 253
214 229 250
217 232 254
214 229 250
218 233 254
218 233 254
218 233 254
215 230 251
215 230 252
219 234 255
218 233 254
214 229 250
215 230 252
219 233 254
219 233 254
217 232 252
219 234 255
219 234 255
216 231 252
217 232 253
218 233 254
217 232 253
219 233 254
216 231 252
215 230 250
214 229 248
215 230 250
217 232 252
218 233 252
215 230 249
215 230 249
219 234 255
216 231 248
214 229 251
218 233 252
215 230 249
219 234 254
218 232 249
217 232 252
216 231 252
216 231 250
217 232 250
216 231 248
214 229 249
217 232 251
217 232 252
216 231 247
215 230 247
214 229 246
215 231 248
216 232 249
213 229 246
217 232 249
218 233 252
216 231 249
216 232 246
214 229 248
213 229 245
216 231 247
213 229 242
216 231 248
212 227 246
218 233 250
216 231 250
216 231 248
215 231 248
218 234 250
218 233 249
219 234 252
218 233 250
218 234 250
219 234 253
219 234 253
218 233 250
218 233 248
219 234 253
218 233 250
219 234 253
219 234 253
220 235 254
219 234 253
220 235 255
218 233 249
218 233 248
217 232 245
219 234 252
218 233 249
217 233 248
218 233 249
218 233 250
218 233 250
220 235 255
218 233 249
219 234 252
218 233 249
219 234 252
218 233 249
217 233 248
217 232 249
213 228 248
218 233 254
217 232 253
217 232 252
217 232 253
216 231 252
214 229 250
216 231 252
218 233 254
215 230 250
218 233 253
219 234 255
218 233 254
219 234 255
216 231 251
215 230 250
216 231 252
218 233 254
218 233 254
218 233 254
218 233 254
215 230 251
216 231 253
215 230 252
218 233 254
215 230 252
214 230 252
213 229 252
209 225 248
61 96 141
62 97 140
63 98 150
61 96 134
61 96 140
61 96 134
61 96 136
60 95 126
61 96 135
60 95 134
61 96 133
61 96 136
61 96 135
61 96 136
60 95 133
61 96 134
62 97 141
62 97 141
60 95 131
61 96 140
60 95 131
61 95 134
62 97 140
60 95 125
61 96 136
61 96 136
61 96 134
62 97 140
61 96 141
61 96 141
61 97 141
61 96 133
61 96 141
61 96 134
60 95 128
61 96 136
59 94 122
60 95 131
61 96 142
61 96 135
61 96 137
60 95 125
61 96 135
60 95 133
60 95 131
62 97 145
62 97 141
60 95 133
60 95 128
61 96 139
60 95 124
62 97 140
60 95 133
61 96 141
61 96 133
61 96 139
61 96 140
61 96 134
61 96 140
60 95 126
59 94 124
61 97 142
61 95 137
60 95 126
60 95 131
60 95 136
60 95 131
61 96 136
61 96 134
61 97 144
60 95 133
60 95 128
61 96 136
61 96 134
60 95 134
61 97 143
61 96 137
61 95 130
62 97 142
60 95 130
60 94 126
61 96 135
61 96 136
62 97 148
60 96 134
60 94 135
60 95 131
61 96 134
60 94 125
62 97 145
61 96 143
61 95 133
60 95 136
59 93 117
62 97 137
60 95 128
60 94 130
61 96 139
60 95 135
60 95 134
62 97 144
60 95 131
61 96 136
60 95 128
60 94 131
60 95 134
61 96 136
60 94 125
60 95 134
62 97 141
60 94 133
60 95 133
61 96 135
60 95 133
61 96 137
60 95 130
60 94 134
60 94 132
60 94 134
59 93 115
60 93 124
60 94 126
59 93 124
60 94 132
60 92 127
59 93 126
60 94 138
60 93 130
57 89 116
27 37 30
29 36 16
31 39 20
28 35 19
34 43 24
37 46 26
38 48 26
39 49 28
42 53 29
41 52 29
45 56 29
43 56 35
48 61 44
48 61 37
47 60 36
47 61 40
49 62 38
49 63 44
50 65 46
49 65 46
50 66 44
50 67 45
50 67 44
51 69 48
53 70 54
52 70 52
52 70 53
53 71 53
53 72 52
63 78 50
150 150 8
151 151 0
151 151 0
151 151 0
151 151 0
151 151 0
152 152 0
152 151 0
151 151 0
152 151 0
152 151 0
151 151 0
151 151 0
152 151 0
151 151 0
152 151 0
153 152 0
152 151 0
151 151 0
153 152 0
151 151 0
151 151 0
151 151 0
152 151 0
151 151 0
152 151 0
152 152 0
152 151 0
150 151 0
151 151 0
151 151 0
151 151 0
152 151 0
151 151 0
152 151 0
151 151 0
150 151 0
151 151 0
151 151 0
152 151 0
152 151 0
151 151 0
151 151 0
152 151 0
152 151 0
151 151 0
151 151 0
154 152 16
154 153 22
156 154 32
157 154 32
165 160 58
161 157 47
165 160 57
166 160 54
169 162 64
166 160 59
174 165 73
171 164 69
176 167 76
174 166 75
180 170 84
180 170 84
181 170 86
183 171 88
183 172 90
185 173 91
187 174 95
192 177 101
194 179 105
191 177 101
193 179 104
196 180 107
199 183 112
200 183 113
201 184 114
201 184 114
201 184 114
201 184 114
201 184 114
201 184 114
201 184 114
201 184 114
201 184 114
201 184 114
201 184 114
201 184 114
201 184 114
201 184 114
201 184 114
201 184 114
200 184 114
200 184 114
200 184 114
200 184 114
200 184 114
200 184 114
200 184 114
200 184 114
200 184 114
200 184 114
200 184 114
200 184 114
200 184 114
200 183 114
200 183 114
217 232 253
217 232 252
213 228 248
217 232 252
217 232 253
219 234 255
214 229 250
215 230 251
217 232 254
216 231 253
217 232 253
216 231 251
219 234 253
216 231 250
216 231 252
215 230 250
216 231 250
212 228 248
219 234 254
215 230 250
217 232 251
218 233 252
216 231 250
218 233 252
216 231 248
216 232 244
215 230 249
216 232 248
213 228 248
213 228 246
216 232 249
214 229 246
213 229 247
216 231 248
213 228 246
216 231 247
216 231 250
217 232 253
217 232 251
215 230 246
212 228 243
215 230 250
212 227 244
215 231 248
217 232 252
214 229 245
217 232 250
214 229 248
215 231 246
213 229 244
215 230 246
213 228 247
215 230 246
211 226 243
212 227 245
214 230 248
214 229 246
213 228 245
214 230 245
216 231 250
217 232 251
216 231 245
216 231 246
214 229 246
217 232 250
211 227 240
215 231 246
215 230 248
214 230 244
212 227 246
216 231 251
217 232 249
217 232 252
219 234 252
218 233 250
217 232 246
218 233 250
219 234 254
218 233 249
219 234 252
218 233 250
217 233 248
219 234 253
217 233 248
218 233 249
219 234 253
219 234 252
218 233 249
218 233 250
219 234 252
217 232 248
219 234 254
219 234 253
218 233 249
218 234 252
218 233 250
217 233 248
218 233 250
217 232 246
219 234 254
217 232 246
217 233 249
219 234 252
218 233 250
216 232 245
217 232 252
216 231 252
216 231 252
218 233 254
217 232 252
219 234 255
216 231 252
213 229 248
212 227 247
216 231 252
219 234 255
215 231 251
214 229 252
218 233 254
218 233 254
217 232 254
215 231 252
217 232 253
212 228 250
213 229 250
214 230 252
214 230 252
214 230 252
215 230 252
214 229 252
217 233 254
211 226 249
212 228 250
212 228 251
208 223 246
63 98 150
63 98 143
62 96 135
61 96 136
60 94 124
61 96 137
60 95 130
61 96 136
60 95 129
60 95 130
62 97 140
61 96 130
60 95 128
62 97 140
59 94 122
62 97 143
60 95 130
60 95 136
61 96 135
61 96 134
61 95 129
61 96 137
62 97 139
61 96 133
60 94 128
61 96 134
60 95 129
61 96 134
59 94 124
60 95 140
61 96 135
62 97 147
59 93 120
61 96 141
61 96 136
60 95 130
62 97 137
61 96 129
60 94 128
60 95 126
62 97 140
61 96 137
59 94 130
60 94 130
60 95 133
61 96 137
61 96 140
61 96 130
61 96 140
60 95 129
61 96 136
60 95 129
60 95 130
61 96 137
60 95 130
61 96 135
61 96 139
61 96 139
60 95 129
61 96 141
60 95 126
62 98 145
61 96 136
60 95 126
60 95 133
60 94 128
61 95 136
61 95 131
60 95 133
60 95 129
62 98 147
60 95 133
62 96 141
60 95 126
60 95 126
61 96 139
62 97 141
59 94 125
61 96 137
61 96 140
59 94 122
60 95 131
60 95 135
61 96 139
60 95 134
60 95 126
62 97 140
59 94 126
61 96 140
60 95 129
61 96 141
60 95 136
60 94 124
60 95 131
59 94 122
60 95 129
60 95 133
59 94 130
59 94 121
61 95 133
61 96 137
60 95 131
61 95 135
60 94 126
61 96 140
61 96 137
59 94 123
61 96 134
60 94 129
60 94 134
61 96 133
61 96 142
62 97 141
60 95 136
61 96 138
61 95 137
61 95 134
59 94 129
60 94 129
58 92 116
59 93 124
59 93 123
62 96 144
60 93 128
59 93 130
60 92 127
59 93 124
58 88 112
57 87 110
26 33 17
27 33 15
33 41 18
30 38 20
33 41 24
38 47 29
37 46 23
40 51 28
41 51 25
42 53 32
43 54 30
41 53 33
45 57 30
47 60 36
45 59 37
48 62 37
48 61 38
48 63 39
50 65 46
50 64 44
50 65 45
51 68 46
51 67 48
53 69 55
53 71 53
52 70 50
52 71 54
52 70 51
54 73 58
92 100 37
151 151 0
151 150 0
151 151 0
151 151 0
152 151 0
151 151 0
151 151 0
151 151 0
150 150 0
152 151 0
151 151 0
151 151 0
152 151 0
152 151 0
152 151 0
152 151 0
151 151 0
152 151 0
151 151 0
151 151 0
152 151 0
152 151 0
152 151 0
151 151 0
150 151 0
150 151 0
152 151 0
152 151 0
151 151 0
151 151 0
151 151 0
151 151 0
150 151 0
151 151 0
151 151 0
150 151 0
151 151 0
152 151 0
151 151 0
152 151 0
151 151 0
151 151 0
152 151 0
151 151 0
152 151 0
150 151 0
151 151 0
151 151 0
151 151 0
151 151 0
150 151 0
152 151 0
151 151 0
151 151 0
152 151 0
151 151 0
151 151 0
152 151 0
151 151 0
152 151 0
151 151 0
152 151 0
151 151 0
151 151 0
152 151 0
150 150 0
152 151 0
152 151 0
151 151 0
152 151 0
151 151 0
151 151 0
152 151 0
152 151 0
151 151 0
153 152 11
154 153 28
158 155 37
161 157 48
163 158 51
165 159 56
167 161 60
169 162 63
170 163 65
174 165 71
179 169 81
180 170 84
179 169 82
183 171 87
190 176 99
189 176 98
192 178 102
194 179 105
198 181 109
199 183 111
201 184 114
201 184 114
201 184 114
201 184 114
201 184 114
201 184 114
201 184 114
201 184 114
201 184 114
201 184 114
201 184 114
218 233 254
216 231 248
213 228 247
210 226 246
217 232 252
215 231 248
216 231 251
217 232 251
216 231 248
213 228 246
213 229 244
214 230 244
214 230 245
211 227 241
213 229 242
216 231 250
213 228 246
215 230 250
217 232 250
210 226 240
211 226 242
213 229 242
214 229 245
215 230 250
214 229 246
207 223 239
215 230 250
212 228 244
215 230 248
215 230 244
214 229 248
214 229 246
212 228 247
216 231 249
219 234 253
214 229 248
214 229 248
215 230 250
209 225 242
218 233 250
214 230 246
212 228 244
214 230 248
210 225 245
214 229 250
217 232 251
211 227 241
214 229 245
214 230 246
216 231 251
210 226 243
210 226 242
215 230 246
211 227 241
214 230 248
216 232 250
215 230 248
213 229 246
218 233 249
215 231 250
216 231 250
219 234 252
215 230 248
214 229 247
216 232 245
213 228 246
212 227 246
214 230 246
215 231 249
217 232 253
212 227 241
219 234 253
218 233 254
218 233 249
218 233 249
219 234 253
216 232 246
217 233 248
217 233 248
217 233 249
218 233 250
217 232 248
218 234 252
217 232 248
219 234 253
219 234 254
219 234 253
218 234 252
218 233 250
217 233 248
216 231 244
217 232 248
219 234 253
218 233 250
219 234 253
217 232 248
217 233 249
218 233 250
219 234 253
216 232 246
218 233 252
217 233 249
217 233 249
218 234 252
219 234 253
219 234 255
215 231 251
213 229 250
212 228 248
211 226 246
217 232 253
215 231 252
215 230 252
217 233 254
212 228 250
218 234 255
214 229 250
219 234 255
213 229 251
218 234 255
217 232 254
215 231 252
214 229 251
215 230 251
215 230 252
217 232 254
212 228 250
214 230 251
215 230 253
213 228 249
216 231 254
213 228 251
215 230 253
215 230 253
215 231 253
85 114 167
61 96 137
62 97 140
61 96 135
60 95 130
61 96 134
60 95 129
61 97 141
59 94 125
61 96 139
59 93 121
59 94 126
61 96 137
61 96 129
59 94 118
61 96 134
62 97 140
60 95 130
61 96 130
60 95 125
60 94 131
62 97 144
59 93 120
62 97 142
61 96 131
60 95 128
61 96 135
61 96 139
60 95 133
60 95 130
61 97 143
61 96 134
60 95 126
62 97 142
59 94 124
62 96 141
61 96 135
60 95 130
61 95 134
60 95 126
60 95 124
60 96 134
62 97 142
60 95 130
61 96 135
59 94 131
60 95 131
60 94 128
60 95 130
60 94 131
60 95 128
61 96 139
60 94 133
60 95 130
60 95 125
61 96 131
60 95 128
61 96 139
61 96 136
61 96 135
60 95 134
60 94 128
61 96 134
60 94 126
61 96 140
60 95 130
60 95 130
59 94 125
62 97 140
61 96 137
59 94 120
61 96 136
58 93 120
62 97 142
61 96 140
60 95 130
62 97 143
59 94 124
61 96 130
61 96 140
59 94 117
61 96 137
61 96 137
59 94 120
60 94 130
59 94 129
59 94 130
61 96 135
60 95 128
61 96 137
62 97 143
61 96 134
61 96 141
60 94 125
61 96 139
61 96 134
61 97 142
60 95 131
61 95 130
60 95 133
60 95 130
60 95 131
60 94 128
60 95 132
61 96 136
61 96 137
61 96 134
61 95 130
61 96 139
60 94 129
61 96 139
59 93 121
61 95 133
61 96 136
60 95 126
60 94 123
61 95 139
59 93 129
58 92 116
61 95 134
59 93 124
61 95 142
59 92 124
59 91 120
58 90 118
58 90 119
57 90 106
59 91 121
58 87 107
26 33 15
28 35 16
31 40 21
31 40 19
34 42 19
36 45 19
37 46 23
37 47 23
36 47 22
43 55 35
44 56 32
42 54 32
45 57 33
46 60 40
46 60 37
46 60 41
48 62 41
48 62 45
49 63 45
49 65 43
50 67 48
49 65 45
51 68 50
49 65 41
51 68 48
51 69 50
52 70 50
53 71 52
52 71 50
117 122 37
152 151 0
150 150 0
152 151 0
150 151 0
151 151 0
151 151 0
150 150 0
151 151 0
151 150 0
151 151 0
150 150 0
151 151 0
151 151 0
151 151 0
151 151 0
151 151 0
151 151 0
151 151 0
151 151 0
151 151 0
150 151 0
150 150 0
150 151 0
150 151 0
152 151 0
151 151 0
151 151 0
151 151 0
151 151 0
151 151 0
152 151 0
152 151 0
152 151 0
151 151 0
151 151 0
151 151 0
151 151 0
152 151 0
151 151 0
152 152 0
152 151 0
152 151 0
151 151 0
151 151 0
152 151 0
150 151 0
151 151 0
152 151 0
151 151 0
152 151 0
151 151 0
151 151 0
153 152 0
152 151 0
150 150 0
151 151 0
152 151 0
151 151 0
151 151 0
151 151 0
152 151 0
151 151 0
151 151 0
151 151 0
151 151 0
152 151 0
152 151 0
152 151 0
151 151 0
152 151 0
152 151 0
152 151 0
152 151 0
152 151 0
152 151 0
152 151 0
153 152 0
152 151 0
152 151 0
152 151 0
151 151 0
152 151 0
152 151 0
151 151 0
152 151 0
152 151 0
152 151 0
151 151 0
152 151 0
150 151 0
150 151 0
152 151 0
151 151 0
151 151 0
151 151 0
152 151 16
156 154 30
160 157 44
162 158 48
164 159 53
173 165 71
176 167 76
173 165 71
179 169 82
182 171 87
189 176 97
212 228 247
215 230 247
214 230 246
211 227 240
211 226 242
212 228 246
210 226 244
216 231 250
215 231 248
214 230 246
214 229 249
212 228 243
213 229 247
213 229 242
211 227 244
211 227 243
212 228 244
217 232 251
211 227 242
216 231 248
217 232 250
216 231 250
213 229 244
214 230 246
214 230 245
214 230 248
215 231 250
215 230 246
213 229 244
215 230 246
214 229 246
214 229 244
211 226 244
213 228 244
211 227 242
214 229 246
210 226 242
213 229 245
215 231 248
210 225 242
211 227 240
210 226 244
209 225 232
218 233 254
210 226 238
215 230 249
212 228 240
216 231 250
211 227 243
214 229 247
214 229 246
214 230 248
215 230 247
216 231 250
212 228 243
216 232 248
213 228 248
216 231 248
216 232 250
215 230 246
216 232 250
210 226 242
214 229 245
214 229 249
210 225 241
216 232 250
214 230 246
215 231 245
214 230 246
215 231 250
215 230 248
215 230 252
218 233 250
218 234 252
218 233 250
217 232 249
219 235 255
217 232 248
219 234 253
219 234 254
218 233 250
218 233 250
217 232 248
218 233 250
218 234 252
219 234 254
218 233 250
217 233 250
217 233 249
217 233 248
216 232 246
219 234 254
218 233 250
218 233 250
218 233 252
218 233 252
216 232 248
218 233 250
218 233 252
217 233 249
217 233 250
218 233 253
218 234 253
216 232 245
219 234 254
217 232 250
219 234 255
217 232 252
215 230 251
216 231 253
217 232 252
214 230 252
215 231 252
217 232 254
215 230 251
213 229 248
215 231 253
212 227 249
215 230 251
214 229 251
217 232 254
216 231 252
216 231 252
216 231 254
217 232 253
214 229 251
211 227 250
216 231 253
215 230 252
211 227 250
215 231 254
213 229 252
214 230 252
214 230 252
213 229 252
102 127 160
61 96 135
61 96 139
62 97 143
61 96 135
61 96 136
61 95 129
59 94 121
61 96 137
60 95 125
61 96 135
60 95 129
62 97 145
60 95 131
61 96 134
60 95 130
60 95 125
61 96 130
59 93 124
61 96 133
59 94 124
60 95 128
61 96 134
61 95 130
61 95 134
60 95 125
60 95 131
62 97 140
60 96 135
60 95 131
61 96 139
61 96 140
61 96 133
61 96 136
60 94 129
61 97 140
60 95 129
62 97 148
61 96 134
61 96 134
59 94 122
59 94 128
60 95 128
60 95 129
59 93 122
59 94 121
60 95 126
60 94 128
62 97 142
59 94 122
60 95 130
59 94 118
61 96 136
61 96 135
60 94 126
61 96 134
61 96 136
61 96 136
61 96 140
60 95 130
60 95 131
62 97 143
60 95 128
60 95 131
59 93 124
60 95 130
60 95 130
60 94 125
61 96 139
61 96 133
60 95 130
60 95 129
60 95 135
61 95 133
61 95 136
61 96 131
61 96 139
60 94 129
60 95 126
60 95 131
61 95 134
60 94 125
60 95 129
60 95 129
60 95 128
60 95 125
59 93 124
61 96 133
59 93 117
59 94 124
60 94 128
61 96 136
61 96 139
60 94 125
60 95 126
61 96 137
59 94 120
60 95 131
61 96 134
62 96 142
62 97 143
61 96 136
60 95 133
59 93 121
59 93 122
60 95 126
60 94 125
62 97 145
60 94 129
61 96 141
61 96 135
60 94 131
60 93 128
60 95 129
60 95 130
60 95 134
62 97 140
59 92 124
60 95 129
60 95 134
58 92 119
61 95 139
60 94 129
57 90 109
58 91 111
58 91 120
58 91 118
58 90 114
53 80 105
22 29 11
28 35 14
31 38 12
32 40 20
33 42 22
35 44 22
36 45 21
37 47 23
42 53 31
42 52 31
44 56 34
44 57 35
45 57 36
47 59 34
45 58 34
45 57 35
46 60 32
46 60 39
49 65 42
49 65 45
49 65 44
48 63 40
51 68 50
50 67 43
51 68 48
51 68 48
51 69 49
51 70 49
52 71 50
139 140 22
152 151 0
149 149 0
151 151 0
149 149 0
152 151 0
152 151 0
152 151 0
152 151 0
150 149 0
152 151 0
151 151 0
152 151 0
151 151 0
152 151 0
150 150 0
151 151 0
151 151 0
152 151 0
152 151 0
151 151 0
150 151 0
151 151 0
152 151 0
152 151 0
151 151 0
151 151 0
150 150 0
152 151 0
152 151 0
151 151 0
151 151 0
151 151 0
151 151 0
151 151 0
152 151 0
151 151 0
152 151 0
151 151 0
151 151 0
151 151 0
152 151 0
152 151 0
151 151 0
151 151 0
151 151 0
152 151 0
152 151 0
151 151 0
152 151 0
151 151 0
152 151 0
151 151 0
152 151 0
150 151 0
152 151 0
151 151 0
152 151 0
151 151 0
151 151 0
151 151 0
151 151 0
152 151 0
151 151 0
152 151 0
151 151 0
151 151 0
153 152 0
151 151 0
152 151 0
152 151 0
152 151 0
152 151 0
153 152 0
151 151 0
151 151 0
151 151 0
152 151 0
151 151 0
151 151 0
152 152 0
151 151 0
152 151 0
151 151 0
151 151 0
152 151 0
151 151 0
151 151 0
151 151 0
151 151 0
152 151 0
152 151 0
151 151 0
153 152 0
152 151 0
152 151 0
152 151 0
151 151 0
151 151 0
150 151 0
152 151 0
152 151 0
152 151 0
152 151 0
152 151 0
151 151 0
152 151 0
213 229 246
210 226 240
214 229 249
209 225 241
212 228 246
213 229 246
215 231 251
215 231 246
211 227 242
212 228 242
213 229 249
212 228 245
214 230 246
214 230 250
212 228 247
213 229 246
215 230 250
215 230 250
214 229 250
214 230 249
212 228 246
214 229 245
213 229 249
212 227 246
217 232 250
214 230 244
217 232 251
215 231 246
212 228 247
213 229 243
212 228 245
211 227 240
214 229 246
207 223 240
215 231 246
215 231 247
213 229 245
211 227 239
216 231 249
211 227 244
212 227 245
213 229 246
215 230 246
214 229 246
216 232 246
212 228 243
215 231 249
214 229 248
209 225 239
219 234 253
211 227 244
215 231 247
211 227 243
216 231 249
212 228 248
216 231 249
215 231 249
213 229 245
215 231 249
209 224 241
212 228 246
214 229 246
210 226 241
212 228 244
216 231 251
210 226 242
213 228 244
214 230 248
209 225 239
216 231 251
215 230 248
218 234 253
218 233 252
218 233 252
217 232 248
216 232 245
218 233 252
218 234 253
217 233 250
217 233 249
217 232 248
217 232 248
216 232 248
216 232 245
217 232 248
218 233 252
217 232 248
217 233 249
216 232 248
217 232 249
218 233 250
217 233 249
218 233 252
217 232 249
217 233 250
216 232 248
218 233 252
218 233 252
218 233 252
216 232 248
215 231 246
217 233 250
216 232 246
216 232 248
216 232 249
216 232 249
218 233 254
214 229 249
216 231 252
210 225 246
216 231 252
218 233 255
212 227 250
215 230 253
217 232 254
212 227 250
212 227 249
217 232 254
218 233 255
214 229 251
217 232 254
215 231 253
212 228 250
211 227 249
214 230 253
214 230 251
213 229 252
215 231 254
214 230 252
213 229 252
210 226 248
214 230 253
212 228 251
212 228 251
215 231 254
123 145 175
61 96 137
61 96 133
61 96 134
60 95 126
61 96 137
60 95 131
60 95 125
61 96 134
60 95 124
61 96 134
61 96 130
60 95 131
61 96 135
60 94 130
60 95 128
60 95 128
61 95 131
62 97 139
59 94 122
59 93 122
62 98 144
62 97 145
61 95 136
61 96 134
62 97 142
60 94 129
60 95 128
58 93 115
60 95 130
60 95 126
61 96 140
61 95 129
59 94 121
60 94 129
59 94 121
59 94 124
60 95 128
61 96 136
61 96 133
60 95 131
60 95 128
60 95 129
59 94 124
60 94 130
60 94 124
60 95 128
61 96 135
59 94 124
60 95 129
61 96 135
60 95 126
59 94 125
60 94 130
60 95 135
60 95 125
60 95 133
60 95 129
61 95 136
61 96 134
61 96 142
59 94 126
60 95 130
59 94 122
60 95 128
60 95 128
60 95 130
60 95 134
60 94 134
61 95 131
61 96 134
62 97 141
62 97 140
59 94 125
62 97 144
60 95 129
59 93 120
61 96 134
61 96 129
59 93 124
59 93 122
61 96 139
60 95 126
61 96 134
61 95 137
59 94 126
60 95 128
61 95 133
61 95 134
60 94 130
61 96 136
61 96 137
60 95 125
61 95 134
60 95 134
61 95 131
60 95 135
61 95 130
60 95 129
60 95 135
60 94 128
60 95 126
61 96 136
60 95 125
60 95 133
61 96 135
61 96 139
61 96 139
60 95 130
59 94 129
61 96 141
59 94 128
60 95 129
61 95 130
59 94 125
61 95 126
62 96 142
60 95 125
58 92 118
60 95 130
59 94 128
61 95 131
60 94 120
60 94 125
59 92 118
58 91 117
58 91 114
56 86 97
50 75 96
27 34 18
28 36 15
31 38 15
31 39 17
34 44 24
33 41 14
38 48 25
38 48 24
40 49 24
42 54 28
41 53 27
43 55 31
42 54 29
46 60 36
43 55 33
46 59 30
47 62 38
49 64 45
48 63 41
47 61 39
49 66 41
48 63 37
49 65 40
51 68 48
50 68 47
50 67 50
49 67 43
50 69 43
75 86 42
151 150 0
150 150 0
150 150 0
151 150 0
151 151 0
151 151 0
150 150 0
151 150 0
152 151 0
149 149 0
150 150 0
150 150 0
151 151 0
151 151 0
151 151 0
150 151 0
152 151 0
152 151 0
151 151 0
151 151 0
151 150 0
151 151 0
152 151 0
152 151 0
151 150 0
151 151 0
151 151 0
151 151 0
151 151 0
151 151 0
151 151 0
151 151 0
151 151 0
151 151 0
151 151 0
151 151 0
151 150 0
152 151 0
152 151 0
151 151 0
151 151 0
152 151 0
151 151 0
150 150 0
151 150 0
151 151 0
151 151 0
150 151 0
152 151 0
151 151 0
151 151 0
152 151 0
152 151 0
151 151 0
151 151 0
151 151 0
152 151 0
151 151 0
152 151 0
151 151 0
151 151 0
151 151 0
151 151 0
151 151 0
151 151 0
151 151 0
151 151 0
152 151 0
152 151 0
151 151 0
152 151 0
151 151 0
152 151 0
152 151 0
151 151 0
151 151 0
151 151 0
151 151 0
151 151 0
151 151 0
152 151 0
152 151 0
152 151 0
151 151 0
150 151 0
151 151 0
151 151 0
152 151 0
151 151 0
152 151 0
152 152 0
151 151 0
152 152 0
152 151 0
151 151 0
151 151 0
152 151 0
151 151 0
151 151 0
152 151 0
151 151 0
151 151 0
151 151 0
151 151 0
150 150 0
151 151 0
151 151 0
216 232 250
211 227 242
214 230 243
214 229 245
215 230 250
214 230 248
214 230 250
215 231 247
215 231 250
213 229 247
212 228 244
214 229 245
210 226 241
213 229 245
211 227 240
214 230 248
213 228 247
209 225 243
214 230 246
213 229 246
214 229 248
210 226 244
211 227 245
215 231 246
214 229 252
212 228 244
212 228 246
213 229 243
214 230 244
217 232 254
212 228 244
214 230 249
215 231 248
210 226 242
215 231 246
215 231 251
217 232 252
211 227 244
216 231 249
215 230 249
211 227 244
216 231 250
216 231 250
215 230 249
217 232 249
214 229 245
213 229 240
210 226 241
216 231 248
212 227 243
215 231 247
210 226 240
215 231 246
214 230 244
213 228 242
209 225 238
213 229 244
210 226 241
214 229 248
215 230 248
216 231 251
214 230 246
208 224 240
217 232 252
215 231 249
213 229 248
213 229 246
217 233 252
210 226 246
213 229 246
215 231 248
218 234 253
218 233 252
218 233 252
219 234 255
218 233 252
217 233 250
215 231 245
218 233 250
217 232 249
217 233 250
216 232 246
218 233 252
217 233 250
218 234 253
219 234 255
217 232 249
218 233 252
218 234 253
216 232 246
218 233 252
217 232 249
218 233 253
218 234 253
217 233 250
216 232 246
217 232 249
217 232 249
218 233 253
218 233 252
218 234 253
217 233 252
218 233 253
216 232 248
218 233 253
216 232 246
216 231 250
218 233 255
213 229 250
216 231 253
214 229 250
217 232 253
210 226 248
216 232 253
214 229 252
213 229 251
217 233 254
216 232 254
218 233 255
212 228 250
213 229 252
213 229 250
215 231 253
212 228 250
211 227 248
213 229 250
208 224 248
213 229 252
213 229 252
212 228 252
216 232 254
211 227 250
216 232 255
215 231 254
210 227 251
146 166 197
61 96 136
62 97 137
61 97 139
60 95 130
60 95 135
60 94 121
61 96 134
59 93 129
61 96 143
61 96 140
60 95 129
59 93 120
59 94 124
60 94 125
60 95 133
60 95 129
61 96 135
59 94 124
59 94 131
60 94 124
61 96 134
61 96 137
59 94 124
60 95 130
59 94 120
61 96 136
59 93 124
61 96 133
62 97 143
59 94 124
59 93 118
61 96 135
60 95 129
61 96 137
60 94 124
60 94 124
61 95 131
61 96 137
61 95 129
60 94 131
60 95 129
60 95 124
60 94 117
61 95 131
60 95 135
60 95 124
60 95 131
59 93 118
61 96 131
60 95 126
59 94 121
61 96 130
60 94 121
61 96 135
60 95 129
60 95 131
62 97 147
60 95 131
61 95 131
59 94 120
60 95 134
60 95 128
61 96 134
60 94 128
60 94 122
60 95 126
60 95 133
60 95 133
59 94 122
60 94 125
60 95 122
61 95 134
60 95 131
60 94 134
58 93 120
60 95 135
61 95 139
61 96 128
59 94 126
59 93 120
60 95 134
61 95 128
61 95 133
60 94 131
61 96 136
59 94 122
60 95 135
60 94 130
60 94 121
61 95 133
61 96 131
60 95 126
60 94 129
59 94 126
62 97 141
60 95 130
61 96 136
60 94 137
61 95 141
60 94 129
60 94 128
59 94 118
59 93 126
60 94 128
60 95 125
60 94 126
60 94 130
61 95 131
59 93 118
61 96 136
60 95 129
60 95 134
59 94 129
59 93 128
60 94 125
61 95 133
59 94 122
60 94 128
59 93 119
59 92 117
59 93 120
59 92 119
60 94 127
59 92 128
57 89 108
59 92 119
58 90 113
45 66 76
24 31 13
28 35 9
32 40 12
35 44 18
35 45 18
38 48 24
38 47 18
41 51 26
39 50 24
39 49 22
42 54 34
42 54 24
43 55 33
44 56 29
46 59 37
46 59 32
44 58 33
48 63 37
48 64 41
49 66 48
48 64 37
49 65 46
51 68 47
48 66 41
51 69 47
50 68 44
51 69 46
51 69 45
122 125 24
150 149 0
146 146 0
150 150 0
149 148 0
152 151 0
147 148 0
150 149 0
151 151 0
152 151 0
151 150 0
150 150 0
150 150 0
150 150 0
150 150 0
152 151 0
152 151 0
150 150 0
152 151 0
149 149 0
151 151 0
151 151 0
150 150 0
151 151 0
152 151 0
151 151 0
151 151 0
151 150 0
150 151 0
151 151 0
151 151 0
151 150 0
151 151 0
151 151 0
152 151 0
151 151 0
152 151 0
151 151 0
151 151 0
151 150 0
151 151 0
151 151 0
151 151 0
151 151 0
152 151 0
151 151 0
151 151 0
151 151 0
151 150 0
151 151 0
152 151 0
151 151 0
150 150 0
151 151 0
152 151 0
151 151 0
151 151 0
151 151 0
150 150 0
151 151 0
151 151 0
151 151 0
150 151 0
151 151 0
151 151 0
151 151 0
151 151 0
151 151 0
153 152 0
152 151 0
151 151 0
152 151 0
150 151 0
151 151 0
151 151 0
150 150 0
150 150 0
151 151 0
151 151 0
151 151 0
153 152 0
152 151 0
152 151 0
152 151 0
153 152 0
151 151 0
151 151 0
151 151 0
152 151 0
151 151 0
151 151 0
152 151 0
151 151 0
151 151 0
152 151 0
151 151 0
152 151 0
152 151 0
151 151 0
153 152 0
153 152 0
151 151 0
151 151 0
152 151 0
152 151 0
150 151 0
151 151 0
152 151 0
210 226 247
212 228 246
211 227 244
213 229 246
214 230 245
211 227 244
211 227 246
212 227 247
211 227 244
214 230 246
216 231 250
214 230 247
210 226 244
216 232 251
215 232 246
210 226 245
210 226 243
217 233 252
217 232 251
215 231 248
208 224 244
211 227 241
213 229 247
215 230 249
215 230 249
216 232 250
215 231 247
216 231 248
214 230 247
214 230 246
215 231 248
212 228 244
211 227 243
213 229 243
210 226 240
213 229 244
215 230 248
215 230 248
215 231 250
210 225 244
209 225 241
215 231 245
216 232 246
214 230 245
212 228 244
210 226 244
212 228 243
213 229 247
214 230 247
215 230 248
215 230 248
217 233 252
212 228 244
214 230 248
207 223 235
214 230 247
210 226 239
213 228 246
212 228 243
211 227 244
210 226 243
212 228 244
213 229 243
214 230 249
214 229 248
214 230 248
214 230 250
211 228 240
213 229 246
211 227 244
217 233 249
218 233 253
217 233 250
218 233 253
218 234 254
216 232 248
217 233 250
219 234 254
218 233 252
217 232 249
218 234 254
217 233 252
216 232 249
217 233 250
217 233 252
217 232 249
217 233 252
217 233 250
216 232 249
217 232 249
217 233 250
215 231 248
216 232 246
217 233 250
216 232 246
216 232 248
218 233 253
216 232 248
218 233 253
217 233 250
217 233 250
216 232 249
217 232 252
218 234 254
217 232 249
218 234 254
217 233 250
218 234 255
211 227 248
212 228 250
214 230 251
215 231 252
214 230 252
215 231 253
216 232 254
216 232 254
215 231 253
213 229 250
216 232 254
213 229 252
215 231 253
213 229 251
214 230 252
214 230 252
217 233 255
216 232 254
211 228 250
210 226 250
213 230 252
208 225 248
213 229 252
209 226 250
213 229 253
214 230 253
212 228 252
163 182 209
61 96 131
61 96 133
60 94 126
59 94 120
60 95 135
59 93 115
59 94 120
61 96 135
60 95 126
58 93 120
61 96 136
60 95 131
60 95 129
61 96 133
60 94 124
59 94 128
62 97 141
60 95 129
59 93 120
60 95 129
61 96 135
59 94 122
60 95 126
59 93 117
60 94 124
60 95 130
60 95 134
61 96 131
60 95 131
60 94 125
59 94 125
59 94 125
60 95 128
59 93 117
59 94 124
60 95 126
60 95 126
61 96 135
59 93 121
60 94 125
60 95 126
60 95 124
59 93 124
60 95 134
60 95 126
60 94 133
60 95 130
61 96 139
61 96 134
60 95 129
59 93 118
61 96 134
60 94 122
59 94 121
61 95 133
59 94 121
60 95 128
61 95 129
61 95 131
60 95 130
61 96 134
59 94 121
62 97 142
60 95 130
62 97 139
59 93 120
59 94 129
60 95 128
61 96 136
61 96 133
60 95 128
60 95 125
60 94 129
62 97 148
60 94 122
59 94 122
61 96 139
60 95 131
59 93 126
60 95 134
59 93 122
61 96 136
61 95 134
59 94 120
60 94 124
60 95 131
59 93 121
62 97 141
60 94 121
60 95 129
60 94 124
61 95 128
58 93 117
59 94 122
61 96 136
61 96 139
61 95 135
60 94 124
58 92 125
60 95 131
61 96 139
60 94 133
59 94 122
60 95 131
60 95 139
59 93 122
61 95 136
58 92 118
59 93 128
61 95 134
59 94 129
60 94 128
59 93 124
60 94 126
59 93 120
59 93 120
59 93 115
60 94 131
59 93 123
59 92 121
59 93 120
60 94 130
59 91 124
59 92 128
57 88 104
59 91 122
59 92 125
43 64 76
26 32 13
32 40 21
31 37 11
33 41 16
35 43 18
39 49 21
37 48 22
37 47 23
42 53 30
40 51 27
40 51 22
40 52 28
45 58 30
44 56 29
44 57 31
46 59 33
48 63 38
47 61 41
45 59 33
47 63 38
47 62 40
49 65 40
48 65 39
48 65 40
50 66 43
50 68 45
50 68 43
59 74 43
143 143 0
148 148 0
149 148 0
147 146 0
150 150 0
148 148 0
150 149 0
149 148 0
150 149 0
149 148 0
151 151 0
150 150 0
149 150 0
151 151 0
151 151 0
150 150 0
150 150 0
152 151 0
151 150 0
150 149 0
151 150 0
150 150 0
150 150 0
151 151 0
150 150 0
151 151 0
151 151 0
150 150 0
151 151 0
150 150 0
151 151 0
152 151 0
151 151 0
151 151 0
150 150 0
150 150 0
151 150 0
151 150 0
152 151 0
152 151 0
151 151 0
152 151 0
151 151 0
151 151 0
152 151 0
152 151 0
151 151 0
152 151 0
152 151 0
150 150 0
150 151 0
151 151 0
150 150 0
151 151 0
150 151 0
152 151 0
152 151 0
152 151 0
151 151 0
151 151 0
151 151 0
151 151 0
151 151 0
150 150 0
151 151 0
151 151 0
152 151 0
151 151 0
152 151 0
151 151 0
151 151 0
151 151 0
152 151 0
152 151 0
150 151 0
152 151 0
151 151 0
150 151 0
152 151 0
152 151 0
151 151 0
151 151 0
151 151 0
152 151 0
151 151 0
152 151 0
151 151 0
152 151 0
151 151 0
151 151 0
151 151 0
151 151 0
151 151 0
151 151 0
152 151 0
151 151 0
152 151 0
151 151 0
151 151 0
152 151 0
152 151 0
151 151 0
151 151 0
151 151 0
151 151 0
152 152 0
151 151 0
150 151 0
215 231 248
212 228 248
212 228 248
214 230 249
213 229 247
212 228 246
213 229 244
215 231 248
213 229 250
212 228 244
212 228 249
215 230 250
213 229 250
216 232 250
214 230 248
214 229 249
215 230 250
213 229 250
216 232 253
213 229 244
211 227 247
212 228 246
211 227 240
215 231 248
215 231 252
211 227 246
211 227 245
216 231 248
213 229 246
214 229 249
213 229 246
214 230 247
214 229 246
211 226 246
211 227 246
214 230 244
211 227 246
216 231 250
215 230 248
213 229 247
207 223 238
210 226 242
213 229 245
214 229 248
215 230 244
214 230 246
213 229 248
216 231 250
211 226 244
216 232 252
212 228 245
210 226 243
215 231 246
217 233 250
212 228 244
216 232 249
214 230 246
213 229 246
213 229 246
211 227 240
211 227 244
211 227 244
211 227 242
212 228 246
216 232 250
215 231 246
216 232 250
214 230 246
214 230 247
217 233 250
217 233 252
217 233 250
216 232 249
217 233 252
215 231 245
217 233 252
216 232 249
216 232 249
217 233 250
217 233 252
215 231 246
218 233 253
217 233 253
218 233 253
217 232 250
217 233 250
216 232 249
218 234 254
216 232 248
216 232 249
215 231 245
216 232 248
217 233 252
215 231 248
217 233 250
217 233 252
217 233 252
217 233 253
216 232 252
216 232 248
217 233 253
217 233 252
216 232 252
216 232 250
217 232 250
215 231 249
217 233 253
214 230 250
211 227 248
209 225 246
216 232 254
216 232 254
209 225 248
213 229 250
214 230 252
217 233 255
214 230 252
215 231 252
215 231 252
213 228 249
212 229 250
214 231 254
212 228 252
212 228 250
212 229 251
211 228 252
213 229 252
216 232 255
214 230 253
213 229 252
215 231 254
213 229 252
213 229 253
213 229 253
210 227 251
184 202 228
60 94 124
59 93 114
60 95 126
60 95 129
61 96 134
60 95 131
60 95 125
61 96 131
60 95 129
58 92 111
60 94 126
59 94 121
59 94 121
59 94 122
60 94 121
61 96 131
60 94 130
61 97 140
60 95 128
61 95 130
61 96 130
59 94 118
61 96 139
60 94 128
59 93 118
59 94 126
60 95 126
61 95 131
61 95 139
60 95 131
60 95 129
59 93 121
60 95 129
59 94 115
61 96 131
60 95 131
61 96 133
59 94 118
60 95 126
59 93 121
60 94 131
61 95 129
60 94 124
60 95 129
61 95 128
59 94 126
59 94 124
60 95 129
61 95 131
60 94 128
58 92 114
60 95 131
60 95 128
61 96 137
61 96 130
59 94 124
60 94 126
61 95 130
61 95 130
61 95 134
58 93 115
60 95 129
60 94 131
58 93 113
60 95 130
60 94 129
61 96 139
60 95 131
60 95 128
59 94 125
60 95 128
60 95 133
61 96 137
59 94 121
59 94 129
61 95 130
60 95 125
60 95 136
59 94 124
59 94 124
58 93 117
60 95 131
60 95 128
60 95 128
60 94 124
58 92 113
62 97 141
60 95 131
59 94 120
59 94 120
59 93 115
59 94 126
60 94 129
61 96 140
59 94 131
60 95 129
59 93 118
60 95 130
61 96 140
59 93 128
59 93 120
60 94 122
59 93 122
59 94 120
59 93 121
61 95 135
59 93 120
60 95 131
59 93 124
59 93 118
59 94 120
60 94 126
61 95 129
60 95 128
59 94 125
60 94 131
59 93 125
60 94 126
59 93 128
61 96 137
58 91 118
60 94 126
59 91 116
59 91 121
58 90 115
58 89 114
55 84 102
36 53 56
27 35 11
29 37 18
31 39 11
30 37 9
35 44 17
35 43 19
37 46 20
38 47 22
39 49 28
40 50 21
42 53 29
39 51 20
43 54 24
42 54 28
46 59 36
46 58 35
47 61 36
47 62 41
46 60 39
46 60 33
49 65 43
49 65 48
48 65 40
49 66 39
49 66 42
48 66 42
49 67 42
107 112 26
141 142 0
144 144 0
146 146 0
142 142 0
148 148 0
145 146 0
147 147 0
146 146 0
148 148 0
145 146 0
147 147 0
148 148 0
147 148 0
148 148 0
148 148 0
149 149 0
148 148 0
150 150 0
152 150 0
148 148 0
149 149 0
151 150 0
150 150 0
151 150 0
151 151 0
149 149 0
151 150 0
151 151 0
151 151 0
150 150 0
151 151 0
151 150 0
152 151 0
150 150 0
150 150 0
151 151 0
149 149 0
152 151 0
151 151 0
152 151 0
151 151 0
152 151 0
152 151 0
151 151 0
151 151 0
149 150 0
153 152 0
150 150 0
150 150 0
152 151 0
151 150 0
151 150 0
150 150 0
151 151 0
153 152 0
150 150 0
151 151 0
151 151 0
151 151 0
151 151 0
151 150 0
151 151 0
152 151 0
151 151 0
150 150 0
152 151 0
151 151 0
151 151 0
151 151 0
151 151 0
151 151 0
152 151 0
151 151 0
152 151 0
152 151 0
152 151 0
152 152 0
152 151 0
152 151 0
151 151 0
152 151 0
151 150 0
151 151 0
152 151 0
151 151 0
150 150 0
152 151 0
152 151 0
152 151 0
152 151 0
151 151 0
151 151 0
152 151 0
151 151 0
151 151 0
151 151 0
151 151 0
152 151 0
152 151 0
151 151 0
150 150 0
151 151 0
150 151 0
152 151 0
152 151 0
151 151 0
151 151 0
151 151 0
212 228 249
210 226 246
212 229 242
211 227 244
210 226 241
209 226 242
214 230 245
213 229 245
214 230 250
214 230 246
214 230 250
212 228 245
215 231 248
211 227 248
215 231 252
214 230 248
214 230 252
212 228 248
217 233 250
213 229 248
215 231 250
211 227 244
213 229 250
211 227 244
214 229 247
212 228 246
214 230 244
212 228 245
206 223 238
212 228 249
214 230 248
213 229 246
211 227 246
214 230 248
215 231 246
212 228 243
213 229 246
216 232 249
214 230 250
213 229 245
210 226 244
214 230 246
214 230 247
216 232 250
215 231 249
212 228 244
212 227 245
213 229 245
211 227 243
212 228 245
214 230 244
214 230 247
214 230 246
213 229 245
209 225 243
213 229 247
213 229 248
216 231 250
212 228 250
214 230 245
214 230 247
212 228 246
213 229 246
211 227 245
211 227 245
212 228 244
215 230 250
215 231 247
215 231 246
216 232 249
216 232 248
217 233 253
217 232 250
216 232 249
217 233 250
218 233 253
217 232 253
217 233 252
216 232 249
217 233 252
217 233 250
216 232 248
216 232 249
218 233 253
216 232 249
215 231 245
216 232 249
214 231 244
215 231 246
214 230 245
216 232 250
215 231 248
217 233 252
215 231 246
218 234 254
215 231 249
216 232 250
218 233 254
217 233 253
215 232 248
216 232 252
217 233 253
217 233 252
216 232 250
214 231 245
216 232 249
214 231 248
216 232 250
215 231 252
215 231 252
211 227 248
215 231 252
212 228 249
216 232 253
215 231 253
211 227 248
215 231 252
210 226 248
210 226 248
215 231 254
214 230 253
212 228 250
212 228 252
211 227 250
214 230 253
213 229 253
211 227 251
212 228 252
217 233 255
209 226 251
209 226 249
210 227 250
212 229 252
211 228 251
211 228 251
208 224 248
60 95 125
60 95 136
59 93 114
60 95 126
61 95 133
60 94 122
61 95 135
59 94 123
59 94 125
61 96 134
59 94 122
59 93 117
61 96 137
59 94 122
60 95 128
60 95 130
60 94 128
60 94 121
59 93 124
60 95 130
59 94 120
60 95 126
60 94 124
59 94 126
60 95 131
60 95 130
60 95 126
60 95 131
60 95 130
59 94 120
60 95 130
60 95 131
60 95 130
58 93 114
59 94 120
60 95 121
61 96 134
59 94 128
61 96 139
61 95 129
60 94 125
60 95 129
60 95 126
58 93 121
58 92 120
61 96 136
60 95 126
60 94 130
58 93 114
60 95 128
60 95 130
60 94 131
60 95 124
60 95 129
61 95 134
60 95 125
60 95 129
59 94 124
59 94 117
60 95 128
60 95 125
61 96 135
59 94 121
59 94 125
59 94 124
60 95 126
62 97 143
61 96 135
61 95 131
60 94 125
61 96 135
60 94 121
60 95 133
60 95 126
60 95 134
59 94 124
59 93 134
59 93 121
59 93 130
60 95 129
59 94 121
60 95 130
60 95 131
59 94 125
61 96 136
61 96 136
60 95 135
60 95 130
59 94 128
60 94 128
59 94 124
59 94 124
59 93 121
60 94 124
59 94 125
59 93 122
62 96 136
60 93 124
61 96 133
59 93 128
60 94 131
58 92 121
60 94 124
59 94 120
60 95 128
61 96 136
60 95 130
59 93 121
59 93 126
61 95 136
60 95 133
60 95 130
59 93 117
60 94 128
61 95 136
59 92 120
60 94 129
59 93 114
59 94 128
59 93 127
58 91 117
58 91 122
57 90 104
59 92 124
58 90 117
57 86 106
55 85 97
28 39 33
28 35 10
31 39 13
28 35 9
32 40 13
34 43 14
35 45 21
35 44 20
36 44 20
39 50 21
40 51 27
40 52 26
42 55 26
44 57 35
42 55 28
45 59 29
44 58 25
44 57 30
45 59 30
45 59 33
45 60 32
45 60 31
47 63 40
48 65 38
47 64 37
48 65 38
47 64 41
61 75 37
129 131 18
141 141 0
141 141 0
143 143 0
142 142 0
144 143 0
140 141 0
147 147 0
148 148 0
149 149 0
146 146 0
147 147 0
148 148 0
146 146 0
148 147 0
147 147 0
149 149 0
148 148 0
150 149 0
150 150 0
149 149 0
147 147 0
148 148 0
148 148 0
147 147 0
148 148 0
148 148 0
148 148 0
149 149 0
150 150 0
150 150 0
151 151 0
151 150 0
151 150 0
150 150 0
150 150 0
151 151 0
151 150 0
151 150 0
151 151 0
152 151 0
151 151 0
151 151 0
151 151 0
151 150 0
150 150 0
151 151 0
152 151 0
151 151 0
151 151 0
150 151 0
150 150 0
151 151 0
151 151 0
151 151 0
151 151 0
152 151 0
151 151 0
150 150 0
151 151 0
152 151 0
152 151 0
151 151 0
151 151 0
151 151 0
152 151 0
150 150 0
152 151 0
152 151 0
151 151 0
152 151 0
150 151 0
151 151 0
151 151 0
150 151 0
152 151 0
152 151 0
152 151 0
151 151 0
151 151 0
151 150 0
150 150 0
151 151 0
152 151 0
150 150 0
151 151 0
151 151 0
152 151 0
151 151 0
152 151 0
151 151 0
152 151 0
151 151 0
151 151 0
151 151 0
151 151 0
152 151 0
151 151 0
151 151 0
152 151 0
152 151 0
151 151 0
151 151 0
151 151 0
151 151 0
151 151 0
151 151 0
151 151 0
152 151 0
211 228 244
214 230 250
212 229 243
207 224 238
211 227 246
211 227 246
214 230 248
211 227 246
214 230 249
211 228 243
213 229 248
210 227 241
212 228 248
210 227 240
209 225 246
214 230 248
212 228 247
214 230 251
213 229 248
211 228 240
211 227 246
214 230 246
212 228 247
213 229 250
212 228 248
214 230 248
213 229 248
212 228 240
213 229 247
216 232 251
210 226 242
215 231 252
209 225 240
211 227 241
212 228 248
209 225 242
211 227 240
212 228 246
211 227 246
211 227 238
213 229 248
215 231 251
215 231 246
209 226 238
215 231 249
213 230 242
213 229 248
216 232 250
212 228 248
213 229 244
212 228 246
208 225 241
210 226 242
209 226 238
213 229 244
211 227 244
212 228 246
215 231 249
215 231 252
212 228 245
216 232 252
214 230 247
215 231 252
216 232 253
212 228 244
213 229 251
211 227 245
215 231 250
217 233 252
218 233 253
216 232 249
217 233 252
216 232 249
216 232 250
218 233 254
217 233 252
216 232 248
216 232 248
216 232 248
216 232 250
217 232 250
216 232 250
216 232 250
216 232 248
217 233 253
217 233 252
216 232 248
215 231 245
217 233 253
216 232 249
217 233 254
216 232 249
215 231 248
218 233 254
216 232 249
217 233 253
215 231 249
217 233 252
213 230 245
215 231 249
217 233 253
214 230 246
216 233 252
217 233 253
214 231 248
215 231 250
216 232 252
215 231 250
216 232 252
213 230 251
212 228 250
213 229 251
214 230 253
214 230 252
215 231 253
213 229 251
214 230 252
215 231 253
211 227 250
213 229 252
213 229 251
213 229 252
211 228 250
212 228 252
214 230 253
216 232 255
213 230 252
214 231 254
210 227 250
213 230 254
212 229 253
211 228 251
210 227 251
212 229 252
212 229 253
207 224 249
87 115 150
61 95 135
59 93 120
60 94 124
61 96 136
59 94 120
60 95 130
59 94 121
59 94 121
59 94 120
61 96 129
59 94 120
59 93 118
61 95 131
59 94 135
58 92 113
60 95 129
60 94 124
60 95 128
60 94 122
59 94 122
60 94 122
58 93 113
60 94 126
60 94 124
60 95 121
60 95 130
59 93 113
60 95 133
61 96 131
59 94 120
58 93 115
61 96 130
59 93 122
59 94 122
60 95 133
61 95 128
61 96 137
59 94 118
60 94 124
59 94 124
60 95 128
59 94 117
59 93 121
59 93 115
60 94 126
60 94 124
59 93 118
61 95 137
59 94 120
60 95 135
60 95 131
59 94 120
60 95 125
61 95 133
60 94 125
60 95 126
61 96 133
60 94 126
61 95 128
61 96 139
58 93 113
60 95 131
58 93 114
59 93 121
59 93 121
60 95 129
60 95 125
62 97 137
60 95 128
60 94 118
59 93 121
60 95 126
58 92 110
59 94 122
61 96 130
61 96 136
60 95 130
59 94 124
60 94 124
61 95 129
58 93 113
60 94 126
59 94 124
60 94 129
60 95 130
60 94 118
61 96 133
61 96 135
59 93 122
60 95 130
61 96 135
61 96 136
59 94 122
59 94 125
61 95 139
59 94 125
60 95 126
59 94 124
58 93 118
59 93 121
60 95 124
59 94 124
59 94 121
59 94 122
60 95 129
60 94 122
60 95 126
59 93 115
58 91 115
59 93 120
59 93 128
58 92 108
59 93 117
59 93 117
58 93 115
59 94 125
59 93 119
58 92 113
60 94 124
59 92 125
59 92 117
58 91 116
58 91 106
58 91 115
57 89 109
50 76 77
27 34 9
29 37 6
26 33 10
31 40 10
30 38 5
32 41 12
35 45 10
35 44 9
37 47 21
39 49 21
39 50 24
39 50 19
41 53 21
41 52 29
42 55 27
43 57 28
44 56 27
46 61 31
45 60 35
47 62 38
47 64 35
47 63 34
47 64 38
47 64 34
48 65 39
46 63 32
47 64 38
119 121 0
130 132 0
137 137 0
138 139 0
137 138 0
137 138 0
136 137 0
139 140 0
144 144 0
143 143 0
143 143 0
141 141 0
145 146 0
149 149 0
145 145 0
145 145 0
144 144 0
148 148 0
146 146 0
143 144 0
150 150 0
148 148 0
149 149 0
145 146 0
149 149 0
150 150 0
148 148 0
148 149 0
150 149 0
150 150 0
151 150 0
149 149 0
150 150 0
149 149 0
150 150 0
147 148 0
149 149 0
151 150 0
151 150 0
149 148 0
151 150 0
151 150 0
150 150 0
150 150 0
151 151 0
151 151 0
150 150 0
150 150 0
152 151 0
151 151 0
151 151 0
150 150 0
152 151 0
149 149 0
151 150 0
151 150 0
149 150 0
152 151 0
151 151 0
151 150 0
151 151 0
151 151 0
151 151 0
151 151 0
151 151 0
151 151 0
150 151 0
151 151 0
151 151 0
151 150 0
151 151 0
151 151 0
152 151 0
151 151 0
151 151 0
151 151 0
151 151 0
151 151 0
150 151 0
152 151 0
152 152 0
150 151 0
151 151 0
152 151 0
151 151 0
151 150 0
151 151 0
151 151 0
151 151 0
151 151 0
151 151 0
151 151 0
150 151 0
152 151 0
151 151 0
151 151 0
151 151 0
151 151 0
151 151 0
151 151 0
151 151 0
151 151 0
151 151 0
150 151 0
152 151 0
152 151 0
151 151 0
152 151 0
151 151 0
151 151 0
213 229 245
211 227 246
212 229 247
207 223 238
215 231 251
209 226 242
212 228 248
210 227 247
212 228 248
213 229 246
214 230 249
213 229 246
211 228 248
212 228 249
212 228 246
211 227 244
212 228 248
211 227 248
214 230 247
209 226 239
214 230 248
211 228 244
210 227 244
215 231 252
212 228 244
213 230 243
214 230 249
212 228 246
213 229 250
209 226 244
211 228 242
213 228 250
212 228 246
209 225 242
211 227 242
211 228 244
207 223 239
215 231 248
210 226 245
211 227 242
212 228 248
210 227 242
212 228 246
213 229 249
209 225 240
215 231 252
209 226 241
215 231 250
208 225 241
210 226 248
212 228 248
212 228 246
213 229 250
214 230 248
212 228 242
213 229 248
213 229 245
216 232 250
216 231 252
215 230 250
215 231 246
213 229 246
212 228 243
213 229 252
214 230 247
212 228 247
215 231 248
216 232 249
216 232 250
217 233 252
217 233 252
217 233 252
216 232 250
214 231 245
216 232 249
215 232 248
216 232 249
217 233 252
217 233 252
216 232 252
216 232 250
215 231 246
217 233 252
216 232 250
215 231 248
215 232 248
217 233 255
216 232 250
216 233 252
215 231 250
217 233 254
216 232 250
215 232 249
216 232 250
216 232 252
217 233 254
217 233 254
216 232 250
217 233 253
216 232 250
216 232 250
217 233 254
215 231 250
215 232 252
212 229 245
214 230 249
216 232 252
213 229 248
216 232 254
212 228 248
216 232 254
215 231 253
214 230 252
213 229 251
208 224 247
211 227 249
211 227 250
213 229 251
215 231 253
213 230 252
212 228 250
212 229 252
212 229 251
209 226 250
211 228 251
211 228 251
213 230 253
215 232 255
212 229 252
213 230 254
208 225 248
208 225 249
209 226 251
212 229 254
209 226 250
210 227 252
147 167 194
58 92 114
59 93 114
61 95 130
59 93 111
60 94 121
59 94 120
61 95 128
59 94 124
58 92 102
59 93 111
60 94 121
59 93 121
59 93 121
60 95 128
61 96 139
59 94 122
60 95 128
60 95 129
59 94 124
60 95 133
59 94 121
61 95 126
60 95 129
60 95 134
60 95 133
59 93 117
59 94 113
60 95 129
59 94 120
61 95 129
60 95 128
59 93 122
60 95 134
61 96 133
59 94 120
58 93 118
60 95 130
59 94 115
59 93 111
60 94 130
60 95 126
59 94 121
60 94 126
61 96 131
59 94 121
59 94 121
60 95 133
60 95 126
60 95 128
59 94 118
60 95 126
59 94 121
59 94 115
60 94 124
60 95 125
60 94 121
59 94 121
61 96 136
59 93 118
59 94 128
59 93 113
59 94 131
58 93 113
60 94 124
60 95 126
59 93 118
61 96 137
59 94 133
58 93 120
59 93 117
59 94 122
62 97 143
58 93 118
60 95 128
60 94 129
61 96 136
60 95 129
60 95 130
60 95 128
61 96 130
60 95 125
60 95 130
59 93 115
61 96 135
58 93 118
61 96 140
60 94 122
60 95 130
59 93 113
59 94 121
60 95 128
61 95 130
60 95 129
61 95 135
60 95 129
59 94 125
60 94 133
59 93 122
59 93 122
59 93 118
58 92 114
60 94 122
60 94 122
59 94 121
61 95 129
60 94 126
59 93 118
59 92 121
60 95 125
59 93 120
60 94 126
61 96 134
59 93 115
57 90 104
60 94 128
59 93 121
59 93 119
59 93 121
60 94 124
59 93 124
59 91 118
58 92 115
57 89 115
57 88 104
57 88 109
48 72 79
27 34 7
26 33 8
28 35 12
29 36 10
30 38 9
34 43 17
36 44 13
36 46 18
38 47 17
36 47 19
38 48 19
40 51 25
39 51 23
41 52 26
43 56 27
42 54 30
44 58 29
43 56 28
43 57 29
45 60 30
48 64 39
44 59 30
47 63 33
46 63 30
46 62 36
47 64 32
82 91 22
125 126 0
128 129 0
127 129 0
130 131 0
131 132 0
136 137 0
135 136 0
140 141 0
138 139 0
141 143 0
138 139 0
143 143 0
143 143 0
145 144 0
144 144 0
146 146 0
146 147 0
143 143 0
145 145 0
145 145 0
149 149 0
148 147 0
148 148 0
145 146 0
148 148 0
149 149 0
148 148 0
151 151 0
149 149 0
149 149 0
151 150 0
149 149 0
150 150 0
151 151 0
151 151 0
150 150 0
151 151 0
150 150 0
150 150 0
150 150 0
150 150 0
150 150 0
150 150 0
150 150 0
150 150 0
150 149 0
150 150 0
152 151 0
150 150 0
151 150 0
150 150 0
151 151 0
152 151 0
150 150 0
151 151 0
151 151 0
151 151 0
151 151 0
151 151 0
151 151 0
150 150 0
150 149 0
150 150 0
150 150 0
151 151 0
149 149 0
151 150 0
151 151 0
151 150 0
151 150 0
150 151 0
152 151 0
151 151 0
151 151 0
151 151 0
151 151 0
152 151 0
150 150 0
152 151 0
151 151 0
151 150 0
152 151 0
151 151 0
151 151 0
151 151 0
151 151 0
151 151 0
152 151 0
152 151 0
152 151 0
151 151 0
151 150 0
152 151 0
150 151 0
151 151 0
152 151 0
151 151 0
152 151 0
151 151 0
150 150 0
151 151 0
152 151 0
152 151 0
151 151 0
151 151 0
151 151 0
153 152 0
151 151 0
152 151 0
152 151 0
210 226 243
212 229 248
213 230 247
215 231 248
214 230 247
213 229 246
213 229 252
209 225 244
212 229 243
213 229 246
216 232 249
213 230 250
210 226 242
214 230 250
213 229 248
214 230 251
211 228 248
214 231 247
211 227 248
212 228 248
211 227 244
211 227 245
215 231 248
214 230 247
211 227 243
214 231 250
214 230 251
214 231 247
211 227 247
210 226 247
210 226 242
214 230 249
212 229 247
213 230 246
216 232 254
212 228 246
208 225 240
214 230 248
215 231 251
211 227 248
210 226 246
215 231 251
210 227 242
213 229 248
215 231 248
212 228 246
213 229 247
214 230 249
214 230 246
215 230 251
216 232 250
215 231 250
207 223 242
213 229 248
213 229 246
214 230 248
212 228 247
212 229 244
214 230 248
213 229 249
213 229 247
213 229 248
212 229 246
211 228 245
212 229 244
215 231 248
216 232 250
216 232 252
215 232 248
216 232 249
215 231 249
217 233 252
216 232 249
217 233 253
215 231 248
215 231 246
216 232 250
217 233 253
215 232 249
215 231 246
214 231 246
215 232 249
216 232 250
212 229 241
216 232 250
216 232 252
215 231 250
216 232 252
216 232 250
216 232 250
214 231 248
215 231 249
215 232 250
216 232 250
215 231 250
214 231 248
214 230 249
215 232 252
216 232 253
215 232 252
217 233 254
214 230 246
213 229 249
214 230 248
213 229 249
213 230 250
213 229 250
215 231 252
216 232 253
214 231 253
212 229 249
217 233 255
210 227 249
215 231 253
212 228 250
208 225 248
208 225 246
212 229 251
213 230 254
209 226 248
214 231 254
213 230 252
209 226 249
214 230 253
212 229 251
213 229 253
209 226 250
214 230 254
208 225 249
208 225 250
214 231 255
213 230 254
209 226 252
210 227 250
208 226 250
207 225 250
167 186 214
60 95 129
60 95 133
59 93 114
60 94 130
59 93 118
60 95 124
60 95 129
58 93 117
60 94 126
60 94 120
61 95 135
59 94 126
59 93 122
59 93 124
60 95 133
59 94 124
59 94 118
60 94 126
59 94 122
60 95 124
58 93 115
60 94 124
59 93 118
61 96 130
59 93 113
60 95 126
58 92 115
62 96 134
59 94 115
59 94 120
59 94 125
61 95 134
58 93 110
60 95 126
60 94 126
60 94 125
60 95 128
60 94 128
58 93 124
61 95 129
60 94 122
58 93 115
60 95 125
59 94 117
60 95 130
59 94 131
58 93 114
61 95 126
60 95 129
61 96 133
59 93 117
60 94 125
60 95 125
60 94 125
60 94 125
60 95 128
60 95 130
61 95 128
59 93 118
60 95 125
60 95 124
59 94 124
59 94 128
60 95 124
60 95 126
59 94 122
58 93 110
59 94 122
58 93 115
58 93 118
61 96 139
59 94 120
61 95 135
59 93 113
60 95 130
61 96 131
60 94 124
60 95 126
59 94 121
60 94 125
59 94 124
59 94 121
59 93 115
58 92 115
60 95 131
60 94 124
61 96 135
58 92 114
61 96 133
57 91 108
60 95 128
60 95 126
59 93 118
60 94 133
60 94 125
60 95 129
61 95 128
60 95 128
60 95 128
60 94 126
60 95 131
58 92 118
61 96 137
60 94 124
59 94 125
58 93 114
59 93 124
60 94 128
60 94 126
58 93 124
59 94 123
60 93 124
57 91 110
60 95 131
59 93 121
57 91 110
59 92 112
58 92 116
61 95 131
59 93 120
58 90 107
58 91 113
57 89 111
57 89 114
56 86 103
40 58 65
28 35 9
29 37 3
30 39 19
33 41 18
33 43 6
32 40 15
34 42 20
36 45 22
37 47 19
38 48 18
40 50 18
40 51 24
42 55 25
41 53 27
40 52 21
42 55 27
43 58 29
44 57 31
43 57 30
45 60 26
46 61 35
44 60 35
45 61 29
46 63 38
45 62 35
68 77 29
108 110 8
112 114 0
117 119 0
117 119 0
128 130 0
124 126 0
133 134 0
136 137 0
143 143 0
138 139 0
139 140 0
139 139 0
139 140 0
143 143 0
140 141 0
141 141 0
139 139 0
143 144 0
147 147 0
142 143 0
144 145 0
144 145 0
145 145 0
148 148 0
148 148 0
148 148 0
149 149 0
148 149 0
148 148 0
148 148 0
149 148 0
148 148 0
150 150 0
148 148 0
149 148 0
148 149 0
149 149 0
151 151 0
147 147 0
150 150 0
151 150 0
151 150 0
151 150 0
150 150 0
148 149 0
152 151 0
151 150 0
151 150 0
150 150 0
151 151 0
150 149 0
150 150 0
150 150 0
151 150 0
151 150 0
150 150 0
150 150 0
151 151 0
151 150 0
152 151 0
151 150 0
151 151 0
151 151 0
151 151 0
150 150 0
151 151 0
151 150 0
151 151 0
150 150 0
151 150 0
151 151 0
151 151 0
152 151 0
152 151 0
151 151 0
152 151 0
152 151 0
150 151 0
151 151 0
149 150 0
151 150 0
150 150 0
151 151 0
151 150 0
152 151 0
151 151 0
151 151 0
152 151 0
151 151 0
151 150 0
151 151 0
150 150 0
152 151 0
152 152 0
151 151 0
152 151 0
152 151 0
151 151 0
152 151 0
152 151 0
152 151 0
152 151 0
151 151 0
152 151 0
151 151 0
152 151 0
152 151 0
152 151 0
151 151 0
152 151 0
151 151 0
213 229 251
212 229 248
214 230 250
212 228 246
210 227 240
212 228 248
214 230 250
214 230 248
211 228 242
213 229 248
210 226 243
214 230 250
214 230 250
208 224 242
212 228 248
214 231 250
213 230 247
211 227 246
214 230 249
210 226 245
213 230 248
208 224 241
213 229 248
212 229 246
212 229 246
212 229 243
213 229 250
211 227 248
210 226 245
211 227 244
211 227 245
215 231 253
214 230 252
214 230 247
215 231 248
210 226 243
212 229 248
208 225 240
215 231 252
210 227 241
211 227 245
209 226 241
216 232 249
212 228 244
212 229 248
208 225 241
213 229 249
204 221 238
211 228 248
209 226 242
208 224 238
213 230 246
213 229 247
211 227 247
211 228 244
212 229 247
211 227 246
211 227 244
213 229 249
210 226 244
215 231 252
214 230 248
211 227 244
215 232 251
217 233 253
213 229 242
216 232 252
217 233 253
216 232 250
217 233 254
217 233 253
217 233 254
216 232 252
217 233 253
217 233 253
217 233 254
214 231 248
214 231 246
217 233 255
216 233 253
216 232 252
217 233 254
214 231 245
215 232 249
215 232 249
215 231 250
215 231 248
215 232 249
216 232 252
216 232 252
213 230 245
216 233 253
214 231 248
214 231 248
215 231 250
215 231 252
215 231 250
215 231 249
214 231 248
215 231 252
213 230 246
213 230 246
216 232 252
213 229 246
214 231 249
214 231 249
211 228 245
213 230 249
214 231 250
213 229 250
214 230 250
213 229 249
212 229 251
213 230 254
213 230 252
207 224 245
211 228 251
211 228 250
213 230 253
213 230 253
213 230 252
207 224 248
212 229 252
211 228 252
211 228 251
214 231 254
212 229 253
208 225 250
209 226 250
214 231 254
213 230 254
210 228 252
212 230 254
209 227 251
205 223 248
208 226 251
199 217 243
59 93 120
61 95 134
60 94 121
59 93 121
59 94 114
59 93 121
59 93 118
60 94 117
59 93 117
60 95 125
60 94 128
59 94 122
60 95 124
59 93 117
58 93 111
59 94 120
59 94 120
58 93 114
60 95 136
59 94 122
60 94 120
59 94 122
60 94 131
61 96 139
58 93 115
58 93 113
58 93 114
60 95 124
59 94 124
60 94 122
60 94 128
59 94 126
58 93 114
59 93 121
58 92 113
58 93 124
60 95 131
59 94 121
58 92 111
61 96 133
61 96 134
61 96 134
60 94 122
60 94 126
60 94 122
60 95 130
60 94 122
60 94 128
59 93 122
59 94 128
59 94 125
59 94 128
58 93 120
59 94 122
60 94 121
59 93 122
60 94 122
60 95 126
60 94 125
61 95 133
60 94 122
59 93 121
60 95 126
60 95 129
59 93 125
59 94 125
59 94 117
60 95 131
60 94 125
59 93 118
59 93 118
59 93 117
59 94 120
60 94 128
60 94 120
61 95 131
60 94 121
61 96 140
59 93 118
61 96 137
59 94 128
60 94 128
60 95 128
58 92 111
60 94 125
58 92 110
60 95 130
59 93 121
60 95 130
59 93 118
60 94 125
60 94 125
60 94 128
59 93 120
61 95 135
60 94 125
59 93 126
60 95 130
58 92 117
59 94 125
59 93 114
61 95 136
61 96 134
59 93 115
59 93 124
59 93 114
59 93 120
60 94 126
58 92 109
58 92 116
59 93 124
59 93 120
59 92 112
61 95 135
59 93 118
59 93 124
58 92 117
57 89 109
59 93 115
57 90 99
58 91 108
58 91 117
58 90 112
58 89 110
58 88 108
36 49 48
30 38 8
30 37 6
30 38 3
28 35 0
31 38 0
30 38 11
36 46 15
33 42 15
36 46 15
36 45 19
40 52 25
41 52 24
40 52 19
40 52 16
39 50 18
42 55 25
43 56 29
42 57 24
44 58 28
43 57 30
44 59 30
44 60 30
47 64 39
43 59 29
53 65 25
99 102 0
100 103 0
109 112 0
119 121 0
112 114 0
114 116 0
116 118 0
123 125 0
125 127 0
134 135 0
131 132 0
140 141 0
138 138 0
140 141 0
141 142 0
140 141 0
139 139 0
139 140 0
138 138 0
144 144 0
141 142 0
144 144 0
144 143 0
142 143 0
143 143 0
148 148 0
147 147 0
144 144 0
146 146 0
145 146 0
147 147 0
146 146 0
149 149 0
149 148 0
146 146 0
146 147 0
150 150 0
145 146 0
148 148 0
148 148 0
150 150 0
150 150 0
146 146 0
147 147 0
149 148 0
147 147 0
149 149 0
150 150 0
151 150 0
150 150 0
150 150 0
150 150 0
149 149 0
151 150 0
149 149 0
151 151 0
150 150 0
150 150 0
148 148 0
151 151 0
150 150 0
151 151 0
151 150 0
151 151 0
150 150 0
151 150 0
151 150 0
151 151 0
151 150 0
150 150 0
150 150 0
151 151 0
151 151 0
151 150 0
150 150 0
150 150 0
151 151 0
150 151 0
151 150 0
150 150 0
152 151 0
151 150 0
151 150 0
151 151 0
150 150 0
151 151 0
151 151 0
151 151 0
152 151 0
152 152 0
151 150 0
152 151 0
151 151 0
151 151 0
151 151 0
152 151 0
152 151 0
151 151 0
151 150 0
152 151 0
151 150 0
152 151 0
152 151 0
152 151 0
151 150 0
150 150 0
151 151 0
152 151 0
152 151 0
152 151 0
153 152 0
152 151 0
213 229 250
215 231 250
215 231 250
211 228 248
211 227 248
209 226 244
213 229 250
210 227 245
214 230 253
209 226 238
211 227 248
210 227 244
210 227 245
212 229 246
211 228 247
214 231 252
213 230 248
210 227 242
213 229 246
214 230 249
211 227 247
211 228 244
212 228 247
211 228 244
209 226 244
210 227 238
211 228 246
214 231 245
215 231 251
211 228 246
210 227 247
211 228 246
214 231 252
213 229 248
207 224 242
214 231 248
209 226 246
215 231 250
207 223 241
214 230 250
213 229 250
207 224 242
214 230 249
212 228 250
216 232 253
215 232 252
213 229 248
214 230 248
211 227 248
213 229 249
216 232 252
215 231 253
208 224 243
212 228 251
216 232 250
214 230 251
214 230 249
213 229 246
212 229 247
212 228 247
212 229 246
212 228 249
214 230 250
215 231 249
215 232 249
217 233 255
215 231 249
213 230 244
215 232 250
216 232 250
217 233 255
215 231 250
215 231 248
215 231 248
217 233 255
213 230 246
214 231 249
215 231 249
216 233 253
214 230 246
214 231 246
214 231 246
216 232 252
215 231 249
216 232 252
216 232 252
214 231 248
214 231 249
214 231 248
214 231 249
216 232 252
215 232 250
215 232 250
214 231 249
216 233 253
215 231 250
214 231 249
214 231 250
212 229 248
215 232 252
212 229 248
217 233 255
214 230 250
214 230 248
215 232 252
213 230 249
214 230 252
210 226 246
213 230 249
208 225 242
211 228 248
207 224 245
213 230 252
210 226 248
215 231 255
213 230 253
212 228 251
208 224 246
212 229 251
210 227 250
213 229 253
214 231 253
213 230 254
214 231 255
209 226 250
213 230 254
213 230 254
212 229 253
207 225 250
209 227 251
211 229 254
205 222 246
210 228 253
208 225 250
206 224 249
208 226 250
209 227 251
96 122 152
59 94 121
59 93 121
61 96 135
58 93 110
60 94 126
61 95 133
60 95 126
59 93 120
58 92 113
59 93 120
61 95 128
58 91 115
59 94 126
59 93 118
59 94 117
59 94 124
60 95 124
58 92 115
58 92 117
58 93 124
59 93 111
59 93 113
59 94 122
59 94 125
59 94 118
60 95 131
60 95 129
58 93 107
60 94 117
60 94 128
58 92 114
59 93 120
59 94 121
59 93 118
60 95 133
60 94 124
60 95 129
58 93 115
59 93 118
60 95 128
60 94 122
60 94 122
59 93 120
59 94 118
59 94 125
59 94 121
60 95 129
60 95 125
59 94 118
59 93 118
59 93 126
60 94 125
59 93 117
60 95 128
58 92 108
60 95 136
60 94 120
59 94 120
60 94 131
61 96 133
61 95 129
61 95 130
60 95 128
59 93 115
59 94 118
59 93 115
58 93 110
60 95 130
58 92 114
60 95 126
58 93 111
59 94 124
60 95 129
60 95 126
60 94 125
60 94 128
59 94 120
59 93 121
59 93 124
58 92 103
60 94 124
59 94 129
59 94 118
59 93 114
59 93 122
61 96 135
60 94 122
59 93 122
60 95 130
60 94 126
59 93 121
60 94 129
59 94 126
60 95 130
59 94 121
60 95 130
58 92 117
59 94 128
58 93 122
59 93 114
59 94 120
58 92 118
59 93 122
59 92 122
58 92 118
59 93 121
58 92 115
59 93 120
58 92 113
59 94 129
59 93 120
59 93 114
60 94 126
59 93 123
58 92 117
57 90 117
59 93 124
59 92 120
59 92 122
58 90 109
59 93 113
57 88 112
58 90 117
63 89 96
38 45 8
29 37 0
30 38 2
28 35 8
30 38 2
35 44 12
31 40 10
35 45 11
35 45 9
37 48 14
39 51 18
38 49 20
37 48 15
38 49 17
37 49 16
39 50 19
41 54 23
40 52 20
42 57 25
44 58 31
43 56 31
44 60 31
42 57 30
41 56 26
55 66 25
90 93 8
94 97 0
101 104 0
102 104 0
113 116 0
114 116 0
122 123 0
112 114 0
130 131 0
116 119 0
127 129 0
129 131 0
129 130 0
137 137 0
133 134 0
137 137 0
138 139 0
137 138 0
142 143 0
141 141 0
140 140 0
141 142 0
142 142 0
141 141 0
142 142 0
145 144 0
145 145 0
147 148 0
144 144 0
145 146 0
146 146 0
144 144 0
145 145 0
147 147 0
146 146 0
146 146 0
150 149 0
144 145 0
147 147 0
149 149 0
148 148 0
149 150 0
148 148 0
149 149 0
151 149 0
149 149 0
149 149 0
151 150 0
149 149 0
150 149 0
150 150 0
149 149 0
151 151 0
152 151 0
149 149 0
149 148 0
150 150 0
151 151 0
150 149 0
149 150 0
150 150 0
150 151 0
150 150 0
150 150 0
151 151 0
151 151 0
151 151 0
151 151 0
151 151 0
151 150 0
150 150 0
150 150 0
150 150 0
151 150 0
151 150 0
151 150 0
151 151 0
149 149 0
151 151 0
151 151 0
151 150 0
151 151 0
152 151 0
151 151 0
151 150 0
151 150 0
152 151 0
151 151 0
151 151 0
151 150 0
151 151 0
151 151 0
150 150 0
152 151 0
151 151 0
151 151 0
150 150 0
152 151 0
152 151 0
151 151 0
152 151 0
151 151 0
151 151 0
151 151 0
151 151 0
152 151 0
151 151 0
152 151 0
151 150 0
151 151 0
152 151 0
151 151 0
151 151 0
215 231 251
210 226 245
212 229 250
209 226 245
208 225 244
209 226 242
210 226 245
213 229 248
212 229 250
207 224 246
212 228 247
214 230 250
209 226 244
214 231 250
207 224 239
212 228 248
211 228 245
214 231 248
213 230 248
213 230 248
211 228 246
213 229 250
213 230 251
212 229 244
213 230 246
214 230 252
207 224 238
210 226 242
213 230 250
209 225 244
210 227 243
213 230 250
209 225 244
213 230 247
213 230 246
209 226 240
209 226 236
214 230 248
211 228 246
212 228 249
210 227 244
213 230 250
213 229 253
210 226 248
213 229 248
210 227 247
209 226 239
212 229 249
211 228 246
209 226 242
213 229 246
213 230 248
210 227 248
211 228 249
214 230 250
215 231 251
212 228 247
213 229 246
211 228 243
212 229 247
215 231 250
213 230 242
216 233 254
216 232 250
216 232 252
215 231 249
213 230 245
214 231 248
214 231 246
214 231 249
215 231 249
214 231 246
216 232 253
216 232 252
214 231 249
214 231 249
216 232 253
216 232 252
215 231 249
215 232 250
215 231 249
215 232 252
214 231 246
215 231 249
215 232 252
217 233 254
215 231 249
214 231 250
215 232 250
213 229 248
215 232 250
214 230 248
215 231 249
216 233 254
214 231 249
214 231 249
214 231 250
213 230 249
210 227 244
214 231 249
215 232 253
213 230 249
213 229 248
215 232 252
214 231 253
214 231 250
211 228 246
212 228 249
213 229 249
212 229 246
212 228 249
212 228 248
213 230 252
210 227 248
214 230 253
212 229 252
207 224 246
213 230 253
206 223 246
211 228 251
211 228 250
213 230 253
211 228 252
211 229 253
209 227 250
213 230 253
213 231 255
209 226 250
212 229 254
214 231 255
211 229 254
206 224 250
211 229 254
206 224 248
200 219 242
209 227 251
207 225 248
142 163 188
59 93 118
59 93 121
60 95 130
60 94 126
59 93 120
59 93 118
60 94 126
59 93 124
59 94 125
58 92 122
58 92 117
58 92 110
59 93 124
57 92 97
58 92 111
59 94 120
59 93 124
60 94 124
59 93 118
58 93 115
59 93 122
60 94 118
59 94 128
60 95 125
60 95 128
59 93 120
59 94 122
59 94 120
60 94 128
60 94 120
58 93 120
58 92 105
59 93 122
59 93 113
61 95 130
59 94 118
61 95 136
59 94 117
60 95 130
60 95 131
59 94 124
60 95 126
60 95 122
59 93 115
60 95 128
59 93 117
60 95 128
60 95 130
61 95 129
60 95 125
60 95 126
60 94 118
59 94 121
58 92 118
59 94 125
59 94 125
59 93 122
58 92 122
57 92 103
61 96 131
61 95 133
59 93 121
59 93 114
58 91 111
59 93 120
59 94 122
60 95 126
60 95 130
58 92 114
60 95 130
58 92 117
58 93 114
61 96 136
57 92 100
61 96 136
60 94 122
59 94 131
61 95 133
59 93 121
59 94 122
59 94 117
61 95 129
59 93 115
59 94 126
58 93 115
59 93 122
58 92 110
59 93 121
60 95 126
59 94 129
59 94 122
59 93 121
58 92 110
57 91 110
57 90 115
60 95 130
58 92 118
59 93 126
58 93 120
59 94 115
60 94 128
60 95 130
59 93 118
59 94 124
60 95 128
58 92 114
59 93 121
58 93 113
60 94 128
58 92 117
58 91 108
58 92 105
58 91 113
57 90 110
59 92 117
59 91 123
58 91 109
58 90 113
58 90 116
58 90 109
58 91 110
57 89 112
57 89 109
87 100 78
111 112 0
54 61 8
33 42 0
31 40 8
27 35 11
32 39 11
31 39 3
32 40 12
35 45 0
38 47 15
36 45 19
39 49 19
39 51 18
37 49 23
36 47 14
40 53 26
41 54 24
39 51 21
42 55 21
40 54 23
41 55 21
43 59 27
41 56 19
50 59 0
82 85 0
83 86 0
88 92 0
87 91 0
101 104 0
106 108 0
111 113 0
111 113 0
118 119 0
120 123 0
127 128 0
126 128 0
135 135 0
126 127 0
126 128 0
133 135 0
129 131 0
138 138 0
135 136 0
136 137 0
135 136 0
137 138 0
144 144 0
143 143 0
139 140 0
140 140 0
142 142 0
140 141 0
147 146 0
146 146 0
143 143 0
144 145 0
144 145 0
146 146 0
146 147 0
146 146 0
147 146 0
145 144 0
146 146 0
149 149 0
149 149 0
147 147 0
149 149 0
148 147 0
150 150 0
149 149 0
149 148 0
149 149 0
150 150 0
151 150 0
150 150 0
151 150 0
149 149 0
148 148 0
151 150 0
151 151 0
150 150 0
148 148 0
149 149 0
150 149 0
150 149 0
149 149 0
149 148 0
150 150 0
150 149 0
150 149 0
150 150 0
152 151 0
151 150 0
151 150 0
150 149 0
151 151 0
151 151 0
149 148 0
151 150 0
152 151 0
151 150 0
151 150 0
151 150 0
151 151 0
152 151 0
151 151 0
151 150 0
150 150 0
151 150 0
151 151 0
150 151 0
152 151 0
151 151 0
151 151 0
152 151 0
151 150 0
152 151 0
150 150 0
151 151 0
152 151 0
151 151 0
150 150 0
151 150 0
152 151 0
151 150 0
151 151 0
152 151 0
151 150 0
152 151 0
151 151 0
151 150 0
151 151 0
152 151 0
151 150 0
151 151 0
151 151 0
152 151 0
151 150 0
212 229 248
209 226 244
208 225 246
213 230 250
209 226 242
208 225 242
212 229 248
207 224 244
211 228 248
213 229 251
209 226 245
212 229 247
214 230 252
212 229 248
206 223 242
211 228 249
208 225 243
211 228 246
210 227 241
212 229 248
211 227 246
210 227 242
211 227 246
213 229 247
213 230 248
212 228 247
210 227 246
211 228 247
209 226 245
211 227 247
212 229 246
215 232 250
213 229 250
211 227 248
210 227 245
210 226 244
210 227 245
209 226 244
208 225 242
212 229 247
208 225 243
210 227 246
209 226 245
214 230 250
208 225 241
212 228 249
214 230 250
207 224 243
214 230 247
209 226 243
210 227 248
209 226 248
212 229 246
211 227 248
209 226 248
215 232 252
211 228 244
215 231 254
213 229 247
213 229 248
215 231 249
216 232 253
216 232 253
216 232 253
215 232 250
215 231 249
214 231 249
214 231 249
215 232 250
213 230 245
215 232 252
216 233 254
214 231 246
214 231 249
216 232 253
215 231 249
215 232 250
215 232 250
214 231 248
213 229 246
215 232 250
214 231 249
213 230 248
212 229 244
213 230 245
216 232 253
214 231 249
215 232 250
214 231 249
217 233 255
216 232 254
215 232 252
215 232 253
213 230 248
216 232 253
213 230 249
215 232 253
213 230 249
212 229 246
216 233 255
216 232 254
215 231 252
215 232 253
213 229 248
215 232 254
213 230 250
212 229 249
213 229 249
214 231 250
215 232 253
211 227 249
213 230 252
212 229 250
213 230 253
210 226 248
213 230 254
210 227 250
208 225 248
207 225 248
211 228 251
213 230 254
212 230 253
214 232 255
209 227 251
210 227 250
207 225 250
210 228 251
210 227 251
208 226 250
210 228 253
205 223 248
208 226 249
208 226 250
205 224 247
207 226 249
205 223 242
210 228 252
180 199 214
59 93 118
58 92 105
59 93 124
59 94 115
59 93 117
58 92 124
59 93 120
60 95 124
59 93 124
60 94 124
59 93 115
59 93 118
58 92 108
60 95 125
59 94 120
59 94 118
59 93 111
59 93 113
59 93 118
58 92 113
59 93 114
60 94 118
61 95 135
58 92 120
59 93 111
60 94 121
60 94 118
59 93 120
59 93 120
59 94 121
59 94 118
59 93 117
59 93 120
59 94 120
59 93 122
58 92 107
59 93 124
59 94 121
58 93 110
58 92 113
60 94 121
58 92 114
59 93 113
59 94 121
59 93 120
60 95 126
57 91 111
60 94 122
60 95 128
58 93 118
58 92 111
61 96 137
58 93 108
59 94 118
60 95 125
59 93 124
60 95 126
58 93 111
61 95 131
59 94 122
57 91 115
58 92 105
58 93 110
59 93 117
60 95 121
60 94 129
60 94 126
59 94 125
61 96 134
59 94 122
59 93 114
59 93 118
59 93 115
59 94 117
59 93 121
58 92 110
60 95 130
58 93 111
60 94 125
59 93 122
59 93 120
59 94 122
59 93 117
58 93 120
60 95 133
58 92 115
60 94 130
58 93 113
59 93 124
59 93 115
59 93 118
58 92 110
58 92 111
60 94 124
60 94 125
59 93 128
60 94 128
58 92 111
59 93 122
59 93 120
59 93 118
60 95 136
58 91 111
59 93 130
60 94 124
58 92 114
58 92 125
59 94 124
60 94 129
59 93 121
61 95 136
58 92 117
58 91 113
60 94 121
59 93 118
59 93 119
58 91 115
57 90 105
57 90 110
58 90 109
57 90 107
57 88 111
54 83 97
113 120 54
122 122 0
108 109 0
66 71 8
36 44 11
34 42 12
30 38 8
31 40 4
32 40 12
36 45 14
34 43 8
34 44 14
35 45 14
38 49 18
38 50 20
38 50 19
38 50 26
40 53 23
39 52 22
36 48 19
39 52 21
38 51 21
40 52 16
60 64 16
63 68 0
65 69 0
81 84 0
83 87 0
83 87 0
99 101 0
97 99 0
112 114 0
119 120 0
122 123 0
110 112 0
120 122 0
112 113 0
134 134 0
134 134 0
130 130 0
129 130 0
133 134 0
130 131 0
133 134 0
140 139 0
136 137 0
143 143 0
141 141 0
137 138 0
138 137 0
142 142 0
139 140 0
142 142 0
145 146 0
146 146 0
145 144 0
146 146 0
143 143 0
148 148 0
147 147 0
146 147 0
148 147 0
149 149 0
148 148 0
148 147 0
148 146 0
150 149 0
149 149 0
149 149 0
149 149 0
148 147 0
151 150 0
147 146 0
148 147 0
148 148 0
146 145 0
151 150 0
146 146 0
148 147 0
149 149 0
150 149 0
148 148 0
151 150 0
151 151 0
150 150 0
150 150 0
150 149 0
149 148 0
150 149 0
151 151 0
151 150 0
151 150 0
150 150 0
149 149 0
151 150 0
150 150 0
151 150 0
150 150 0
149 149 0
150 149 0
151 150 0
151 151 0
149 149 0
151 151 0
151 151 0
151 150 0
151 150 0
151 151 0
150 150 0
151 150 0
150 150 0
151 151 0
151 151 0
151 150 0
151 150 0
150 149 0
151 150 0
151 150 0
151 150 0
152 151 0
151 151 0
150 150 0
151 151 0
151 150 0
151 151 0
152 151 0
151 151 0
151 150 0
151 151 0
152 151 0
150 150 0
151 150 0
150 150 0
151 151 0
151 151 0
152 151 0
151 150 0
151 151 0
152 151 0
212 229 244
212 229 250
210 227 246
208 225 244
210 227 244
212 228 250
211 228 246
205 223 240
209 226 244
211 228 245
211 228 246
210 227 246
207 224 242
210 227 242
211 228 244
213 230 248
212 229 252
211 228 249
211 228 244
210 227 243
212 229 248
206 223 240
210 227 244
208 225 242
214 231 252
214 231 250
213 229 250
208 225 246
209 226 245
214 231 252
213 230 252
211 228 248
210 227 241
212 229 248
212 229 249
208 225 244
213 230 245
208 225 242
210 227 247
212 229 246
208 225 246
210 227 248
211 228 248
214 231 250
210 227 244
212 229 250
210 227 243
214 230 251
213 229 248
209 226 244
212 229 250
212 228 246
208 225 243
211 228 248
213 230 249
210 227 249
212 229 250
213 230 249
215 231 249
216 232 253
215 232 250
215 232 252
214 231 248
215 231 249
215 231 250
216 232 253
216 232 253
215 232 252
215 232 250
215 231 252
214 231 248
215 232 252
216 232 253
216 232 253
214 231 249
216 232 253
214 231 246
214 231 246
213 230 246
215 232 252
215 231 252
215 232 253
216 232 254
214 231 253
214 231 250
214 231 253
214 230 252
213 230 246
214 231 250
211 228 246
215 232 252
215 232 252
213 230 248
213 230 250
214 231 250
213 230 249
215 232 252
213 230 248
214 231 249
213 230 250
215 232 252
213 230 249
213 230 249
214 231 252
210 227 248
214 231 252
215 232 253
214 231 254
210 227 249
212 229 252
213 230 252
212 229 252
212 229 250
213 230 252
211 228 250
211 228 252
212 228 252
211 228 252
206 223 245
213 231 254
209 226 249
211 228 252
210 227 252
211 228 252
207 224 248
211 228 253
208 226 250
209 227 252
207 225 249
208 227 251
206 225 248
208 226 251
210 228 252
207 226 248
209 228 252
209 228 252
208 227 250
206 226 244
79 108 125
59 94 115
57 91 105
60 95 125
58 92 111
58 92 120
58 92 115
59 94 118
57 91 111
58 92 111
59 94 115
58 93 111
58 92 111
58 92 113
60 94 120
60 94 125
59 93 113
57 91 110
59 93 113
59 94 115
58 93 118
58 92 115
59 94 115
59 93 114
60 95 126
59 94 126
60 95 130
60 95 130
59 94 122
58 93 111
59 94 121
59 94 120
58 93 115
57 91 105
58 93 111
59 93 115
60 94 121
58 92 115
58 92 111
60 94 128
59 94 117
59 93 115
58 93 113
59 94 122
60 94 124
58 92 107
59 93 114
58 93 117
58 92 107
60 95 128
60 94 124
59 94 118
58 92 115
58 93 110
59 94 120
59 93 117
60 94 125
60 95 128
60 95 128
61 96 135
59 94 126
59 93 117
59 94 122
61 96 140
58 92 115
59 94 120
60 95 129
59 94 111
59 94 117
60 94 126
61 95 131
59 94 118
60 95 125
59 93 121
60 94 125
58 93 113
58 92 110
59 93 115
60 94 121
60 94 121
60 94 121
59 94 118
60 94 126
59 94 126
60 95 129
58 92 114
59 93 122
59 94 114
58 93 113
60 94 124
59 93 114
57 91 100
61 96 135
58 93 118
59 94 126
59 94 125
58 92 114
59 93 117
60 95 131
59 93 117
59 93 120
59 93 115
60 95 129
59 93 115
59 93 118
60 94 121
59 93 114
58 93 118
59 93 121
57 90 110
57 90 107
59 93 117
58 91 121
57 91 103
59 92 120
56 89 98
58 91 113
58 92 117
58 91 111
57 89 109
55 87 103
56 85 101
62 89 91
123 124 0
117 119 0
107 108 0
104 106 0
78 82 8
60 66 8
40 46 11
32 39 0
34 43 12
34 44 5
29 38 2
36 46 8
32 42 8
33 43 12
38 50 22
35 46 16
38 49 20
39 52 21
38 51 19
35 48 11
46 54 16
36 43 11
59 58 0
67 68 0
75 77 0
61 65 0
70 73 0
91 94 0
89 92 0
91 92 0
96 98 0
112 115 0
113 114 0
110 113 0
109 111 0
119 120 0
115 118 0
122 123 0
120 121 0
127 128 0
125 127 0
132 133 0
136 137 0
133 134 0
136 136 0
139 140 0
136 136 0
137 138 0
140 140 0
140 139 0
140 140 0
139 140 0
140 140 0
142 143 0
147 147 0
142 143 0
143 143 0
147 147 0
143 143 0
144 144 0
143 143 0
145 144 0
145 146 0
147 147 0
146 146 0
147 145 0
149 149 0
149 148 0
148 148 0
145 145 0
149 149 0
148 148 0
149 149 0
150 149 0
149 149 0
150 149 0
151 150 0
147 147 0
150 149 0
147 147 0
149 148 0
150 150 0
150 149 0
151 149 0
149 148 0
149 148 0
149 149 0
149 149 0
150 150 0
151 151 0
152 151 0
150 149 0
150 150 0
150 150 0
148 148 0
150 150 0
151 151 0
149 148 0
151 151 0
152 151 0
151 150 0
151 151 0
151 150 0
150 150 0
150 150 0
151 151 0
152 151 0
151 151 0
150 150 0
152 151 0
152 151 0
151 150 0
150 150 0
152 151 0
150 150 0
151 151 0
151 151 0
151 151 0
151 150 0
151 151 0
152 151 0
151 151 0
151 151 0
151 151 0
151 151 0
152 151 0
151 151 0
150 149 0
151 151 0
151 150 0
151 151 0
151 151 0
150 150 0
151 151 0
152 151 0
152 151 0
152 151 0
152 151 0
150 150 0
211 228 247
212 229 248
211 228 247
210 227 244
209 227 245
211 228 247
213 230 250
210 227 246
212 229 253
211 228 247
209 226 246
213 230 250
212 229 244
208 225 243
208 225 245
211 228 246
210 227 247
211 228 251
212 229 246
210 227 250
211 228 247
211 228 249
212 229 247
208 225 244
209 226 244
211 228 248
213 230 250
211 227 247
211 228 248
206 224 239
215 232 252
211 228 247
211 227 247
210 227 246
212 228 248
208 225 244
212 229 251
208 225 242
209 226 248
211 228 242
212 228 250
208 225 244
211 228 246
210 227 246
210 227 242
210 227 242
214 231 251
211 228 246
212 229 248
210 227 246
210 227 244
210 227 246
209 226 242
212 229 248
211 228 249
213 229 249
214 231 249
215 232 252
215 232 252
214 231 249
214 231 246
215 231 250
215 231 250
213 230 246
215 232 252
215 231 250
214 231 250
216 232 254
214 231 249
214 231 250
216 232 254
214 231 252
214 231 250
214 231 250
215 232 252
215 232 252
215 232 254
212 230 244
213 230 248
215 231 253
215 232 254
213 231 249
216 232 253
216 232 254
214 231 250
213 230 248
215 231 252
215 232 253
212 229 250
213 230 248
214 230 250
214 231 250
214 231 253
214 231 253
213 230 248
213 230 250
212 229 250
213 230 250
212 229 245
211 229 246
212 229 249
213 230 248
213 230 253
214 231 252
213 230 250
214 231 252
211 228 249
211 228 250
212 229 252
212 229 250
212 229 252
211 228 250
212 228 252
213 230 253
211 228 252
212 230 253
206 223 245
211 228 252
210 227 250
211 228 252
211 228 250
208 226 249
210 228 252
208 226 250
211 229 254
210 228 253
208 226 250
208 226 249
208 227 250
204 222 246
208 226 250
208 227 252
209 228 253
210 229 254
208 227 252
206 225 248
207 227 249
204 224 240
139 161 181
57 91 100
58 92 108
59 93 118
58 92 108
59 93 118
59 93 111
57 91 107
59 94 120
60 94 121
58 93 118
58 92 114
59 93 121
59 94 120
57 91 110
57 91 95
58 92 118
59 94 118
59 93 117
60 94 126
59 93 115
60 94 122
57 92 103
59 93 120
59 94 121
59 94 118
59 94 121
59 93 118
59 94 118
58 93 110
58 92 113
60 94 124
59 93 113
59 93 114
57 91 114
58 92 108
59 94 120
58 93 111
58 93 108
60 94 124
59 94 126
60 94 125
58 93 107
59 94 117
58 92 120
59 93 115
59 93 120
57 91 113
56 90 95
59 93 121
59 93 120
59 93 115
58 93 120
59 93 125
58 92 117
58 93 113
58 92 107
58 92 111
60 94 126
60 94 125
57 91 103
60 94 118
58 93 113
61 95 129
58 92 115
59 94 126
59 94 121
59 93 118
59 93 118
59 93 117
59 94 120
58 92 111
59 93 117
59 93 117
59 93 118
59 93 117
58 93 120
59 93 118
61 95 135
60 95 129
60 94 122
57 91 110
60 95 122
58 92 114
61 96 136
59 93 118
60 94 130
57 91 107
59 93 122
60 94 125
60 94 121
60 95 129
57 91 110
58 92 118
58 92 117
59 93 117
58 92 114
58 92 110
58 92 121
57 91 107
58 92 114
60 94 123
59 94 122
57 91 99
59 93 118
59 93 111
58 91 111
58 92 114
57 91 108
58 92 111
58 92 114
58 91 111
59 93 123
58 91 110
58 91 107
58 92 116
57 90 114
57 90 108
58 91 117
56 88 108
56 88 114
55 86 93
93 105 69
125 127 0
122 122 0
110 112 0
114 113 0
96 98 0
88 89 0
81 80 0
57 60 0
36 43 0
42 47 0
31 41 14
33 43 8
34 45 16
34 44 16
34 45 18
33 43 19
32 43 14
35 44 0
35 42 12
37 41 0
47 47 0
41 43 0
59 60 0
63 66 0
65 68 0
67 70 0
78 82 0
87 90 0
93 95 0
97 99 0
99 101 0
108 108 0
110 111 0
114 116 0
113 114 0
112 115 0
120 122 0
119 120 0
125 127 0
124 125 0
123 125 0
130 130 0
128 129 0
135 136 0
135 135 0
135 136 0
134 135 0
139 139 0
135 136 0
137 138 0
140 141 0
134 134 0
141 140 0
142 141 0
143 143 0
141 139 0
144 144 0
145 145 0
142 142 0
139 140 0
144 144 0
145 146 0
148 147 0
147 147 0
146 146 0
149 147 0
146 145 0
146 146 0
148 147 0
148 146 0
145 145 0
147 147 0
149 148 0
148 147 0
151 150 0
151 150 0
143 143 0
147 147 0
151 151 0
151 150 0
149 148 0
148 147 0
150 150 0
147 148 0
149 149 0
150 150 0
150 149 0
150 150 0
149 148 0
150 150 0
149 149 0
149 150 0
149 149 0
149 148 0
150 150 0
151 150 0
149 149 0
151 151 0
151 150 0
150 149 0
149 150 0
152 151 0
151 150 0
151 150 0
150 149 0
151 150 0
151 150 0
152 151 0
150 150 0
149 148 0
152 151 0
150 150 0
150 150 0
151 150 0
151 150 0
152 151 0
151 151 0
150 150 0
149 149 0
152 152 0
151 150 0
151 150 0
150 150 0
150 150 0
152 150 0
151 151 0
151 151 0
152 151 0
150 150 0
151 151 0
151 151 0
151 151 0
151 150 0
151 150 0
151 151 0
150 150 0
151 150 0
151 151 0
152 151 0
212 229 247
209 227 243
207 224 245
211 228 245
211 228 249
212 230 245
210 227 250
208 226 244
211 228 248
212 229 248
210 228 249
211 228 250
213 230 252
212 229 250
209 226 246
210 227 246
207 225 244
210 227 244
210 226 249
211 228 249
210 228 246
212 229 246
209 227 245
213 230 250
213 231 248
213 230 247
209 226 248
209 226 245
212 229 246
210 227 245
214 231 251
208 226 246
212 229 248
213 230 252
207 224 245
210 227 246
214 231 252
212 229 246
211 228 249
210 227 248
208 226 246
210 227 246
213 230 250
211 228 248
209 226 246
215 231 250
210 227 246
212 228 250
213 230 249
212 228 248
215 232 253
208 225 244
211 228 247
213 230 252
215 231 250
214 231 250
213 230 248
214 231 250
214 231 249
214 231 252
214 231 250
215 232 252
213 230 248
213 230 246
213 230 248
214 231 249
215 232 253
215 232 252
214 231 250
213 230 245
212 229 244
215 232 252
214 231 249
214 231 250
214 231 250
214 231 252
215 232 253
214 231 250
215 232 253
213 231 249
214 231 249
213 230 248
213 230 248
214 230 250
214 230 250
213 230 248
211 228 246
214 231 250
215 232 254
214 231 250
213 231 249
213 230 250
214 231 252
213 230 250
214 231 249
213 230 252
213 230 248
214 231 252
211 228 249
211 228 246
213 230 249
212 229 250
215 232 254
210 227 248
212 229 249
209 226 248
211 228 249
213 230 252
211 228 249
212 229 250
211 228 249
208 225 244
209 226 248
206 223 242
214 231 253
212 229 252
206 223 246
206 223 245
206 223 245
206 223 246
208 225 249
207 225 249
204 221 244
209 226 250
208 226 250
207 225 248
209 227 250
207 225 249
207 225 249
208 226 250
202 220 242
203 221 245
205 224 245
206 225 248
206 226 246
208 228 252
204 223 245
206 226 245
177 197 210
60 94 122
58 92 117
59 93 114
58 93 110
59 94 121
57 91 113
60 94 128
59 93 115
58 93 110
59 94 128
60 94 124
60 94 118
58 91 114
58 92 108
58 92 110
58 92 117
59 93 108
59 93 110
59 94 121
60 94 122
59 93 120
60 94 124
60 95 126
57 91 100
60 95 128
59 93 117
59 93 108
58 92 110
59 93 118
56 89 105
58 92 110
58 93 108
58 92 108
59 94 118
59 93 115
59 93 120
57 92 113
58 92 115
58 92 107
58 93 113
59 94 121
59 93 118
60 95 122
59 93 115
58 92 117
59 93 118
59 94 121
58 93 108
59 93 118
59 93 120
60 94 124
59 93 114
58 93 113
58 92 108
60 95 126
58 92 110
58 92 115
57 91 103
59 93 115
59 93 117
59 93 118
58 92 110
58 92 105
59 94 121
58 92 108
58 92 105
57 91 108
59 94 126
57 91 113
58 92 113
61 96 137
59 93 115
56 90 102
59 93 114
60 94 122
59 93 114
59 93 118
59 93 122
60 94 126
57 91 105
58 92 113
61 95 133
57 91 102
59 94 118
58 92 108
59 93 124
58 92 114
59 94 118
57 91 100
57 91 110
58 92 107
58 93 115
57 92 108
59 94 118
59 94 121
59 93 115
59 94 122
59 93 122
58 92 114
57 91 111
58 92 113
57 91 108
58 92 115
58 92 103
56 90 100
58 92 117
58 92 111
59 94 120
58 91 113
58 91 116
60 94 118
58 92 111
56 89 102
56 89 104
58 92 113
57 90 110
56 89 103
56 88 104
57 89 106
56 87 103
56 87 105
113 117 51
132 131 0
129 128 0
114 114 0
108 107 0
102 104 0
90 92 0
86 87 0
74 74 0
60 61 0
60 60 0
33 35 0
45 46 0
37 38 8
45 46 0
37 40 0
29 29 0
41 41 0
50 50 0
55 56 0
43 43 0
47 50 0
54 56 0
57 60 0
69 72 0
80 81 0
80 82 0
84 85 0
91 92 0
90 91 0
92 93 0
98 100 0
99 101 0
100 103 0
107 109 0
116 116 0
124 124 0
118 120 0
115 118 0
124 125 0
119 120 0
130 129 0
129 130 0
134 135 0
136 136 0
132 133 0
130 131 0
137 138 0
133 133 0
138 137 0
141 141 0
140 140 0
138 138 0
143 142 0
144 143 0
136 137 0
138 139 0
142 142 0
143 144 0
145 145 0
143 143 0
142 142 0
145 145 0
148 148 0
144 144 0
149 148 0
145 145 0
144 144 0
146 146 0
148 148 0
147 146 0
144 144 0
146 145 0
148 148 0
147 147 0
150 149 0
148 148 0
147 147 0
149 149 0
147 147 0
148 148 0
149 148 0
148 148 0
150 149 0
149 148 0
148 147 0
148 148 0
149 149 0
150 149 0
150 149 0
151 150 0
149 148 0
149 147 0
151 151 0
150 148 0
150 150 0
151 150 0
151 150 0
148 148 0
151 151 0
151 150 0
150 149 0
151 150 0
151 151 0
151 150 0
148 148 0
150 150 0
149 149 0
150 149 0
148 149 0
150 149 0
150 149 0
150 150 0
151 150 0
151 150 0
151 150 0
151 151 0
151 151 0
150 149 0
150 150 0
151 150 0
151 150 0
150 150 0
151 151 0
150 150 0
151 151 0
149 149 0
151 150 0
150 150 0
150 150 0
151 150 0
152 151 0
151 151 0
151 150 0
151 151 0
150 150 0
150 151 0
152 151 0
151 151 0
152 151 0
207 225 244
211 228 247
211 229 246
208 226 244
213 230 252
210 227 248
212 229 249
215 232 253
210 228 240
212 230 248
208 226 244
212 229 249
211 228 250
207 224 242
209 227 245
211 228 248
213 230 248
210 227 246
207 225 244
210 228 245
210 227 247
206 224 245
208 225 248
208 226 244
211 228 248
208 225 244
211 228 248
213 230 250
209 226 244
214 231 252
209 226 245
212 229 252
211 228 244
211 228 247
209 226 249
209 226 245
213 230 252
212 229 251
208 226 244
212 229 250
212 228 251
211 228 246
211 228 246
213 229 250
210 227 246
212 229 251
211 228 250
210 227 246
208 225 248
208 225 246
213 230 246
213 230 250
214 231 252
214 231 250
213 230 250
214 231 249
214 231 250
214 231 250
213 230 250
213 230 248
215 232 254
212 229 245
212 229 242
214 231 250
213 230 246
215 232 252
213 230 246
215 232 253
216 232 255
212 230 245
214 231 252
213 230 250
214 231 249
214 231 250
215 232 253
212 230 248
214 231 252
213 230 250
213 230 249
215 232 254
215 232 254
213 230 248
214 231 252
212 229 245
215 232 254
215 232 253
213 230 249
214 231 252
215 232 254
214 231 250
213 230 253
212 229 250
213 230 250
213 231 250
214 231 253
209 226 244
212 229 246
214 231 252
212 229 250
212 230 249
210 227 248
213 230 250
212 230 250
214 231 253
213 231 253
211 228 250
213 231 254
211 228 252
210 227 249
212 229 253
205 222 241
210 228 250
209 227 249
211 228 250
212 229 253
210 228 250
208 225 248
207 224 246
210 228 252
208 225 249
211 229 253
210 229 253
209 227 250
210 228 253
204 222 244
208 226 249
210 228 253
205 223 246
209 228 252
205 223 248
205 224 245
207 226 249
204 223 243
205 225 246
198 217 236
202 222 237
202 222 238
203 224 238
200 221 233
94 120 137
58 92 107
58 92 110
57 90 97
57 91 102
57 91 110
59 93 111
57 91 95
59 93 111
59 94 114
58 93 111
58 91 108
58 93 113
59 94 118
57 92 105
59 93 122
58 93 111
57 92 103
60 94 126
58 92 114
59 93 120
60 94 122
58 92 107
59 93 115
58 92 110
60 94 129
59 93 110
57 92 107
57 91 107
58 92 111
59 93 120
58 93 117
58 93 110
59 93 113
59 93 113
58 92 107
58 92 105
59 93 115
59 93 122
58 92 115
58 92 115
59 93 118
60 94 120
57 91 114
58 92 115
61 95 128
58 92 107
58 92 105
58 92 110
58 93 113
58 91 102
58 93 113
59 94 122
58 93 115
58 93 114
60 95 125
59 94 120
59 93 114
58 92 113
59 93 113
58 92 110
59 93 118
59 93 118
58 92 114
60 95 130
59 93 117
57 91 105
59 93 114
57 92 107
59 93 115
59 93 117
59 93 120
59 93 121
59 94 118
58 92 113
59 94 115
57 91 107
58 92 108
58 92 115
59 94 122
57 91 99
58 92 115
58 92 108
58 92 115
58 92 118
60 94 125
61 95 134
59 93 125
59 93 121
59 93 114
58 92 108
60 94 129
58 92 108
59 94 125
58 93 108
60 95 126
58 92 114
59 92 118
57 92 107
58 92 107
57 91 105
58 92 114
58 91 105
57 90 105
58 91 117
59 93 122
58 91 114
57 90 105
58 92 117
59 92 120
58 92 110
57 91 103
57 90 104
57 91 107
57 89 107
59 92 118
57 89 106
56 88 104
57 89 109
56 86 102
71 93 95
139 139 0
130 130 0
126 125 0
120 118 0
108 106 0
100 101 0
101 102 0
83 83 0
80 78 0
76 77 0
67 67 0
52 53 0
65 61 0
41 42 0
44 45 0
52 52 0
53 52 0
49 47 0
56 54 0
61 60 0
60 61 0
58 59 0
60 61 0
58 61 0
76 77 0
73 76 0
88 89 0
80 82 0
75 77 0
95 96 0
97 99 0
108 108 0
107 109 0
106 108 0
106 106 0
113 114 0
117 117 0
119 120 0
121 121 0
122 125 0
121 123 0
121 123 0
129 129 0
131 132 0
123 124 0
135 135 0
124 126 0
135 135 0
135 135 0
139 139 0
138 137 0
140 140 0
139 138 0
142 143 0
140 141 0
139 140 0
144 144 0
141 142 0
141 141 0
139 140 0
145 144 0
144 144 0
145 145 0
142 142 0
146 146 0
145 145 0
145 145 0
147 147 0
143 142 0
143 142 0
146 146 0
146 145 0
147 146 0
148 148 0
149 148 0
149 146 0
149 148 0
148 147 0
145 145 0
146 145 0
149 148 0
150 149 0
149 148 0
147 147 0
150 149 0
149 148 0
148 147 0
150 148 0
149 148 0
149 148 0
149 149 0
150 149 0
147 147 0
151 149 0
148 147 0
150 150 0
147 146 0
149 149 0
150 150 0
150 150 0
149 148 0
149 148 0
150 149 0
150 149 0
151 149 0
151 149 0
149 149 0
149 148 0
148 148 0
150 150 0
152 151 0
151 150 0
152 151 0
150 150 0
150 150 0
151 150 0
151 150 0
151 150 0
151 149 0
151 151 0
151 150 0
152 151 0
150 150 0
149 148 0
151 150 0
151 150 0
151 150 0
150 150 0
151 150 0
152 151 0
149 149 0
151 150 0
152 151 0
151 150 0
150 150 0
152 150 0
151 151 0
150 150 0
151 151 0
151 150 0
209 226 246
208 226 248
204 222 243
210 228 245
208 226 243
210 228 248
210 228 248
209 227 244
208 225 246
210 227 244
211 229 248
212 229 247
208 225 248
209 227 246
209 226 244
212 229 250
209 226 245
208 226 242
213 230 252
213 230 253
209 227 246
210 227 246
214 231 254
214 231 252
211 228 251
212 229 248
210 227 248
211 228 246
210 227 248
212 229 246
212 229 249
207 224 246
210 228 242
208 225 246
209 226 246
211 228 248
212 229 252
211 228 245
212 229 249
211 228 248
209 226 248
211 228 249
210 228 246
207 225 241
211 228 248
211 228 245
213 230 246
215 231 255
213 230 246
213 231 249
213 230 248
213 231 249
213 230 248
212 229 244
213 230 249
214 231 250
213 230 248
213 230 248
213 230 245
212 229 244
213 230 249
215 232 254
215 231 252
213 230 248
215 232 254
215 232 253
213 231 249
213 231 249
213 230 248
215 232 253
212 230 246
214 231 252
214 231 252
214 231 253
214 231 252
213 230 249
214 231 252
213 231 250
213 230 250
214 231 252
213 230 250
213 231 252
215 232 254
213 230 249
213 230 249
215 232 254
214 231 253
213 230 252
213 231 250
213 230 252
214 231 252
213 230 250
213 230 249
213 230 249
213 230 253
214 231 253
213 230 249
210 228 246
209 227 245
213 230 250
212 229 252
209 227 248
210 228 246
209 227 244
213 230 250
213 230 253
210 227 248
212 230 252
210 227 248
211 228 252
212 230 252
211 229 252
210 227 249
209 227 249
211 228 252
211 229 253
209 226 248
210 228 250
211 228 253
206 224 246
212 230 254
207 225 248
209 228 250
209 228 252
211 229 254
209 228 253
208 227 248
207 225 250
202 220 240
206 226 248
204 223 245
206 225 248
204 223 248
205 225 246
202 222 240
202 222 244
197 218 237
199 220 236
197 219 226
152 175 192
59 93 113
59 93 113
57 90 103
59 94 120
59 94 117
59 93 125
59 94 114
60 94 122
58 92 105
58 92 113
58 92 113
58 92 107
59 93 111
59 94 115
59 94 121
58 92 107
60 94 122
59 93 120
57 91 103
59 93 120
59 93 118
60 95 129
57 91 100
58 92 107
60 94 122
59 93 121
58 92 114
60 95 124
57 91 102
60 94 133
58 92 103
60 94 124
59 93 117
58 92 105
57 91 111
57 92 111
58 93 114
60 95 121
59 93 114
58 93 110
59 93 124
59 93 115
60 94 117
59 93 121
59 92 120
59 94 122
59 93 121
58 92 113
58 93 115
59 93 124
59 93 125
58 92 102
59 93 114
59 94 124
60 94 130
59 94 121
57 91 103
59 93 111
59 93 121
57 91 107
60 94 128
58 92 105
58 92 111
58 92 107
59 94 121
61 96 137
58 92 108
59 93 118
59 93 118
57 91 115
59 93 124
58 92 110
59 94 124
57 91 108
61 96 136
58 92 110
57 91 107
58 93 113
59 93 117
60 95 125
59 93 115
57 91 114
59 94 118
59 94 118
57 91 103
59 93 120
60 94 125
58 92 107
57 91 105
58 92 114
58 92 111
58 92 113
58 93 115
56 89 94
58 92 107
57 91 105
57 90 105
59 94 117
58 91 113
57 91 100
58 92 111
59 93 125
57 90 114
57 91 100
58 92 111
57 90 107
57 91 103
56 89 102
57 90 113
58 92 113
57 90 111
56 89 94
58 91 116
58 91 110
57 90 115
56 89 102
56 88 95
56 88 102
54 84 98
105 113 46
132 132 0
127 126 0
126 125 0
118 118 0
115 115 0
110 109 0
96 95 0
86 87 0
87 87 0
81 81 0
62 64 0
76 74 0
70 68 0
54 55 0
58 57 0
52 52 0
59 58 0
52 51 0
58 59 0
58 58 0
57 59 0
66 66 0
66 66 0
67 69 0
74 75 0
73 76 0
91 92 0
89 91 0
87 88 0
96 97 0
104 104 0
100 101 0
108 107 0
103 103 0
109 110 0
112 113 0
114 115 0
103 106 0
112 113 0
121 121 0
129 129 0
119 118 0
124 125 0
135 133 0
139 139 0
125 127 0
135 135 0
137 136 0
138 138 0
131 132 0
136 136 0
134 134 0
136 135 0
137 137 0
143 143 0
143 142 0
140 140 0
139 139 0
143 143 0
140 140 0
138 138 0
140 139 0
144 143 0
141 141 0
145 144 0
145 143 0
145 144 0
143 144 0
144 144 0
147 146 0
144 144 0
146 146 0
146 145 0
150 149 0
147 146 0
148 147 0
149 148 0
146 145 0
147 147 0
145 145 0
147 147 0
149 147 0
147 147 0
147 145 0
148 147 0
148 147 0
148 148 0
148 147 0
148 147 0
149 149 0
151 150 0
148 147 0
150 150 0
147 146 0
149 148 0
148 147 0
150 150 0
149 147 0
149 148 0
150 150 0
149 149 0
149 148 0
151 150 0
149 149 0
150 148 0
151 149 0
150 149 0
151 150 0
151 150 0
151 150 0
151 150 0
150 149 0
150 149 0
150 149 0
149 149 0
150 151 0
149 149 0
151 150 0
151 151 0
151 151 0
151 150 0
149 148 0
150 149 0
151 151 0
149 149 0
150 149 0
151 151 0
151 151 0
151 150 0
150 150 0
151 151 0
152 151 0
151 150 0
150 150 0
151 151 0
151 150 0
150 150 0
151 151 0
151 151 0
150 150 0
207 224 248
209 227 247
210 228 244
211 228 247
209 227 244
212 230 248
209 226 248
210 227 247
203 221 240
206 224 244
211 228 251
211 229 246
206 223 242
208 226 243
207 225 241
211 228 247
211 228 249
213 230 250
213 230 252
209 227 248
212 230 246
214 231 254
207 225 244
211 229 248
209 226 243
210 228 247
209 226 248
213 230 252
210 227 248
205 222 242
209 226 247
212 229 250
214 231 252
207 224 245
209 226 248
212 229 249
209 226 241
212 229 250
212 229 249
211 228 246
207 224 243
213 230 251
210 227 246
211 229 248
214 231 252
214 232 253
214 231 250
213 230 248
213 230 248
214 231 252
213 231 249
213 231 249
213 230 249
213 230 246
214 231 253
214 231 252
212 229 245
212 230 246
214 231 250
215 232 254
214 231 250
214 231 253
215 232 254
214 231 250
212 230 249
213 230 249
214 231 253
214 231 253
212 230 252
213 231 250
214 231 252
214 231 253
214 232 254
212 230 246
214 231 252
211 229 246
214 231 252
212 229 246
214 231 253
214 231 253
214 231 252
214 231 253
213 230 249
211 228 248
212 229 246
215 232 254
214 231 254
209 227 242
212 229 249
211 229 245
212 229 250
214 231 252
212 230 250
210 228 246
212 230 252
211 228 248
212 230 253
212 230 250
212 229 249
211 228 250
210 228 246
212 230 253
211 228 250
209 227 246
209 227 248
209 227 248
211 228 249
211 229 250
210 228 248
210 227 249
207 225 246
211 229 252
211 229 249
211 229 252
208 226 249
208 226 248
205 223 245
208 227 249
210 228 252
210 228 252
210 228 253
210 228 253
209 228 253
208 227 250
205 223 248
207 225 249
206 225 250
209 228 250
206 225 250
208 228 253
204 224 246
206 225 246
201 221 242
198 218 241
205 225 248
201 222 245
199 220 242
198 219 228
196 218 217
185 208 205
65 98 111
56 90 108
58 92 111
58 91 100
56 90 99
58 92 114
57 91 110
58 92 111
59 93 113
58 92 114
58 92 107
59 93 111
59 93 120
57 91 103
58 92 108
58 93 108
58 92 102
59 94 111
59 93 120
59 93 111
60 95 124
58 91 113
60 94 120
59 93 120
60 94 120
58 93 117
58 92 105
59 93 108
59 93 117
58 92 111
59 93 117
58 92 100
59 93 113
59 94 120
60 94 114
58 92 118
59 93 111
58 93 114
59 93 110
58 92 113
58 92 115
57 91 110
59 93 120
58 92 111
58 92 105
58 92 120
59 93 120
57 91 103
59 93 115
58 92 105
60 94 122
58 92 117
58 92 105
59 94 117
58 92 113
58 92 103
59 94 113
59 94 118
58 91 111
59 94 121
58 92 111
58 92 121
59 94 115
60 95 130
59 93 118
59 93 122
57 92 103
59 93 117
58 92 107
59 93 120
59 94 124
58 93 111
60 95 128
59 93 124
58 91 115
58 93 110
57 91 110
59 93 115
58 92 118
57 91 113
59 93 113
58 92 114
59 92 113
60 95 128
57 90 102
58 93 120
57 91 103
59 93 118
58 92 108
57 91 108
56 89 97
58 92 113
57 90 111
57 90 104
57 91 105
58 91 108
57 91 99
58 91 114
57 91 103
58 92 114
57 91 105
59 93 120
56 90 103
59 94 121
57 91 102
56 90 97
57 90 105
58 91 112
57 90 115
57 90 106
57 90 102
58 91 110
56 88 100
56 88 97
56 89 100
57 89 108
57 89 110
58 89 107
58 87 93
136 135 36
138 136 0
130 127 0
125 125 0
122 120 0
106 107 0
103 104 0
110 110 0
97 95 0
87 86 0
88 86 0
80 79 0
65 66 0
65 64 0
70 69 0
74 71 0
50 52 0
76 74 0
63 62 0
63 62 0
67 68 0
74 74 0
68 69 0
73 73 0
76 77 0
78 78 0
73 74 0
97 96 0
88 91 0
96 95 0
96 97 0
98 99 0
111 110 0
104 104 0
109 108 0
108 110 0
110 110 0
121 121 0
121 120 0
120 120 0
120 120 0
116 118 0
122 122 0
131 132 0
132 132 0
125 125 0
134 133 0
131 131 0
128 129 0
132 132 0
132 131 0
134 132 0
136 134 0
133 134 0
135 135 0
134 133 0
143 141 0
134 134 0
142 141 0
143 143 0
142 142 0
144 143 0
144 142 0
145 144 0
144 143 0
141 141 0
146 145 0
147 146 0
146 146 0
145 144 0
147 146 0
146 145 0
142 142 0
147 146 0
142 143 0
148 147 0
149 146 0
146 146 0
149 148 0
148 147 0
145 144 0
148 147 0
150 149 0
146 146 0
146 145 0
147 146 0
147 146 0
147 147 0
148 147 0
149 149 0
149 148 0
146 145 0
147 146 0
149 148 0
149 149 0
150 149 0
149 148 0
149 149 0
150 150 0
149 148 0
149 149 0
149 149 0
151 150 0
149 148 0
148 148 0
150 149 0
150 149 0
151 150 0
149 148 0
150 149 0
151 150 0
149 149 0
150 149 0
151 149 0
150 149 0
150 149 0
150 150 0
151 150 0
150 150 0
151 149 0
151 150 0
150 149 0
150 150 0
149 149 0
152 151 0
151 149 0
150 149 0
150 150 0
151 150 0
151 151 0
151 150 0
152 150 0
152 151 0
151 150 0
151 150 0
151 150 0
152 150 0
151 150 0
151 151 0
151 151 0
150 150 0
208 226 243
206 224 242
210 228 250
207 226 238
208 226 246
209 227 244
212 230 248
213 230 250
211 229 249
211 228 250
212 230 253
213 230 251
209 227 249
208 225 248
207 225 246
209 227 251
212 230 251
208 225 248
208 226 248
208 225 246
209 227 248
209 227 250
212 229 250
212 229 248
210 228 247
209 226 246
208 226 244
208 225 250
209 227 250
209 227 244
208 225 246
208 225 244
210 227 249
211 228 246
210 227 246
208 226 244
211 229 249
205 223 243
209 226 248
209 226 246
211 229 248
212 229 248
212 230 248
214 231 253
212 230 248
215 232 255
212 230 246
214 231 253
213 230 246
214 231 252
213 230 249
211 229 244
213 230 250
213 230 249
214 231 253
212 229 248
213 231 249
214 231 252
213 231 250
212 229 248
213 231 252
212 229 248
213 230 249
211 229 245
213 231 250
212 229 248
213 230 248
212 230 246
213 230 249
212 230 246
214 231 252
213 231 250
214 231 252
214 231 252
215 232 254
212 230 250
213 230 250
212 229 246
213 230 249
211 229 248
211 229 246
211 229 248
213 230 250
213 231 252
214 231 255
210 228 245
213 230 250
213 231 252
211 229 248
213 231 252
212 229 250
212 230 252
213 231 252
211 229 249
213 230 252
210 228 248
211 229 252
211 229 249
211 228 249
212 230 252
211 229 252
211 229 250
209 227 246
212 230 252
212 229 252
211 228 250
213 231 254
212 230 253
212 230 253
211 229 253
207 225 245
212 230 254
209 228 248
210 228 252
208 227 249
211 229 253
209 228 250
207 226 248
208 227 250
206 225 249
208 227 252
208 226 250
208 227 250
207 226 250
202 220 244
204 223 246
206 225 249
205 224 249
203 223 242
206 226 250
206 225 252
205 225 246
207 227 253
203 223 246
200 221 242
199 220 240
196 218 228
195 217 234
195 218 220
185 208 193
124 149 86
57 90 102
59 93 121
57 91 102
59 93 113
58 92 108
58 92 114
57 91 103
58 92 110
57 91 103
58 92 111
56 90 99
58 92 97
56 90 105
58 91 113
58 92 118
59 93 113
57 91 105
59 93 110
58 92 105
59 93 108
58 92 114
60 94 118
58 92 108
60 94 122
57 91 105
58 92 108
57 91 105
58 92 114
57 91 100
58 92 110
58 92 105
59 93 113
58 93 105
58 92 108
59 93 113
58 92 107
58 93 118
58 92 107
58 92 114
59 93 117
58 92 115
58 92 110
59 93 117
57 92 102
59 93 118
56 90 102
56 90 97
57 91 110
58 92 110
59 94 118
58 92 113
60 94 129
58 92 107
60 94 120
59 94 120
60 94 128
59 93 115
59 93 115
57 91 103
57 91 102
60 94 129
58 93 110
57 91 97
58 93 110
58 91 111
57 91 107
59 94 118
58 92 110
56 90 99
56 90 108
59 94 126
58 92 114
57 91 108
58 92 118
59 93 117
59 94 121
60 94 126
57 91 108
58 92 117
57 90 110
60 94 122
57 91 102
58 92 108
59 93 120
59 93 115
60 94 122
56 90 100
57 91 97
57 90 105
58 91 118
57 90 111
58 92 117
58 93 114
58 92 111
58 92 113
59 93 115
59 93 125
58 92 107
57 90 110
58 92 113
57 91 108
58 92 111
59 92 117
58 92 116
57 90 102
56 89 100
57 89 108
58 92 116
56 90 97
56 89 97
58 91 102
55 86 93
57 89 104
57 90 105
56 88 101
56 88 100
56 87 96
116 133 64
149 149 0
142 140 0
140 137 0
132 131 0
133 131 0
116 114 0
107 106 0
106 105 0
101 100 0
86 86 0
87 87 0
95 94 0
71 70 0
74 71 0
66 67 0
82 80 0
67 64 0
70 70 0
77 74 0
66 66 0
74 73 0
69 69 0
77 77 0
75 74 0
83 83 0
74 74 0
92 91 0
79 81 0
88 89 0
89 90 0
89 90 0
106 106 0
96 97 0
99 102 0
115 114 0
104 105 0
107 107 0
118 117 0
124 122 0
115 115 0
124 124 0
127 125 0
127 126 0
123 123 0
125 125 0
123 124 0
127 127 0
127 128 0
129 128 0
136 135 0
131 131 0
134 134 0
133 132 0
137 136 0
130 131 0
138 137 0
136 136 0
137 136 0
134 134 0
139 139 0
140 140 0
136 136 0
143 142 0
144 143 0
145 144 0
143 141 0
141 141 0
140 140 0
145 144 0
143 143 0
141 140 0
143 142 0
145 144 0
143 143 0
144 143 0
145 144 0
144 144 0
149 147 0
148 146 0
147 146 0
148 148 0
145 145 0
145 145 0
146 146 0
146 145 0
147 146 0
148 146 0
148 148 0
147 145 0
149 149 0
148 147 0
150 148 0
148 148 0
149 148 0
149 148 0
150 148 0
149 147 0
151 149 0
148 148 0
149 149 0
151 150 0
150 149 0
149 148 0
150 149 0
150 149 0
148 149 0
149 149 0
148 147 0
152 150 0
149 150 0
151 150 0
150 149 0
150 150 0
151 150 0
151 150 0
149 149 0
150 149 0
150 149 0
152 149 0
150 149 0
150 149 0
150 149 0
150 150 0
150 149 0
150 150 0
151 151 0
149 149 0
151 150 0
151 150 0
151 149 0
151 150 0
151 150 0
151 150 0
150 149 0
150 150 0
151 151 0
151 151 0
151 150 0
150 149 0
150 150 0
151 150 0
208 226 245
207 225 244
206 224 242
209 227 246
211 228 249
208 226 246
206 224 245
205 223 243
209 227 247
206 224 247
209 227 245
209 226 249
209 227 246
211 229 252
206 224 245
210 228 250
212 230 250
210 227 250
210 228 250
213 231 254
210 228 245
207 224 242
208 226 247
212 229 248
212 229 248
211 228 251
209 227 248
210 227 247
210 228 248
208 226 249
208 226 248
205 223 246
207 225 241
212 230 250
211 229 249
211 229 249
210 228 248
211 229 245
213 230 249
212 230 248
212 230 248
213 231 250
213 231 250
213 231 252
213 230 250
213 231 252
212 230 248
213 230 249
214 231 252
214 231 253
213 231 250
213 230 252
212 230 250
213 230 250
213 230 249
213 230 250
213 230 250
214 231 253
214 231 253
213 231 250
214 231 253
213 230 249
213 231 252
212 230 248
214 231 253
213 231 252
213 230 249
212 230 250
215 232 255
209 227 237
214 231 254
214 231 253
212 230 248
213 231 252
213 230 249
213 230 250
212 230 250
214 231 253
212 230 249
212 230 248
213 230 250
211 229 248
212 230 249
212 230 250
213 231 252
213 230 252
212 230 248
213 231 253
210 228 244
212 230 250
213 231 254
212 230 249
210 228 245
212 230 252
211 228 250
212 230 249
210 227 249
210 228 248
208 226 246
210 228 246
211 229 252
209 227 248
212 230 254
210 228 248
211 229 250
211 229 252
209 227 249
210 228 250
211 229 250
209 228 249
211 229 252
209 227 252
211 229 252
210 229 252
208 227 249
211 229 254
205 224 246
208 227 252
206 225 248
208 226 250
205 224 245
204 222 246
208 227 252
207 226 250
203 222 246
208 228 253
207 226 252
202 221 246
204 224 248
203 223 245
207 227 252
204 225 246
200 220 244
200 221 237
199 220 242
200 222 237
199 221 233
191 214 220
189 212 204
171 196 72
152 177 44
59 92 103
58 92 113
59 93 117
57 91 99
58 92 111
57 91 103
58 92 107
57 91 95
57 91 99
60 95 126
59 93 117
57 91 107
57 91 108
59 93 113
57 91 99
58 93 113
57 90 92
57 91 105
58 92 107
58 92 115
57 91 100
58 91 114
56 90 103
58 92 111
58 92 110
58 92 113
60 94 124
57 91 105
60 94 120
59 93 117
56 89 100
59 93 113
56 90 100
59 93 122
57 91 100
59 93 117
56 89 100
58 92 108
57 91 110
58 92 114
58 92 107
58 92 117
58 93 113
59 93 113
58 93 111
59 93 117
58 93 107
61 96 133
57 91 99
58 93 115
58 92 105
57 92 102
56 90 95
59 93 120
58 92 120
58 92 111
57 91 107
59 93 115
60 94 121
58 93 111
57 91 99
56 89 102
57 91 107
58 92 117
57 91 102
58 92 113
57 91 103
59 93 118
58 92 111
57 91 103
58 93 114
58 91 120
56 90 97
57 90 103
59 93 113
58 92 107
57 91 103
59 93 122
57 91 111
57 90 110
58 92 117
59 93 115
57 91 100
59 93 125
59 94 124
57 91 108
59 93 120
59 93 117
58 92 114
57 90 99
60 94 121
58 92 114
57 91 105
58 92 107
58 91 114
58 92 110
58 92 108
57 90 105
58 92 107
56 89 107
58 91 108
57 91 110
57 90 108
58 92 114
58 92 110
57 91 102
58 92 115
57 91 107
56 89 96
55 88 95
57 90 104
55 87 84
56 89 108
54 86 89
56 89 105
55 86 101
54 84 84
158 183 28
156 170 0
145 140 0
136 134 0
131 129 0
129 127 0
115 113 0
113 111 0
100 100 0
103 102 0
86 85 0
98 96 0
92 92 0
71 71 0
77 76 0
87 83 0
72 71 0
69 69 0
69 69 0
58 60 0
66 66 0
86 81 0
68 68 0
76 75 0
80 78 0
66 67 0
88 86 0
92 92 0
95 95 0
102 102 0
96 96 0
96 96 0
103 103 0
105 106 0
102 103 0
113 113 0
100 102 0
119 117 0
114 113 0
118 117 0
118 117 0
116 114 0
120 121 0
123 122 0
120 121 0
122 122 0
131 131 0
134 133 0
130 129 0
135 135 0
135 135 0
135 134 0
132 132 0
135 134 0
133 132 0
135 135 0
140 137 0
139 137 0
133 132 0
139 139 0
142 140 0
137 135 0
144 142 0
138 137 0
144 142 0
143 143 0
143 142 0
141 141 0
140 140 0
143 141 0
144 143 0
145 144 0
146 142 0
144 143 0
146 144 0
146 146 0
146 145 0
144 144 0
146 145 0
146 146 0
145 142 0
147 145 0
147 147 0
147 146 0
147 145 0
146 146 0
144 144 0
148 146 0
148 146 0
147 145 0
149 147 0
147 145 0
147 147 0
149 147 0
148 147 0
149 148 0
150 148 0
150 149 0
148 147 0
151 150 0
151 149 0
149 148 0
148 147 0
150 149 0
149 148 0
149 148 0
149 149 0
151 149 0
150 149 0
149 147 0
149 149 0
148 147 0
151 150 0
149 148 0
147 147 0
150 149 0
150 149 0
150 149 0
150 149 0
150 149 0
150 149 0
150 149 0
150 149 0
150 150 0
150 149 0
150 149 0
149 149 0
148 148 0
151 150 0
151 150 0
150 150 0
151 151 0
151 150 0
151 150 0
151 150 0
150 150 0
150 150 0
151 150 0
150 150 0
152 151 0
151 150 0
151 150 0
206 224 244
207 226 240
208 226 246
211 229 250
209 227 248
208 226 244
207 225 244
208 226 246
210 228 250
210 228 248
207 225 247
211 228 252
209 227 249
210 228 248
208 226 248
209 227 248
206 224 245
208 226 244
212 229 253
207 224 246
213 231 252
212 230 254
207 225 248
210 228 252
212 229 252
210 228 248
205 223 245
207 225 246
212 230 251
211 229 250
212 230 249
211 229 247
213 230 249
212 230 249
214 231 254
214 231 253
213 231 252
213 230 253
213 231 253
212 230 249
213 231 252
213 230 250
212 230 249
214 231 253
213 230 250
212 229 250
213 230 250
211 229 246
212 230 249
211 229 248
213 230 250
212 230 249
213 230 249
213 231 250
212 230 248
212 230 248
212 230 249
213 230 250
213 230 250
214 231 253
213 231 253
213 231 252
213 230 249
212 230 249
213 231 252
210 228 244
212 230 248
213 230 250
214 231 254
213 230 252
213 230 252
213 231 252
213 231 253
213 231 253
213 231 253
212 230 249
211 229 249
213 230 252
212 230 248
213 231 252
212 230 250
214 231 254
213 230 252
212 230 252
213 231 252
211 229 249
211 229 248
211 229 248
211 229 248
210 228 248
212 230 252
213 230 252
209 227 245
210 228 250
211 229 252
211 229 248
210 228 248
212 230 254
210 228 250
212 230 254
208 226 244
212 230 252
210 228 249
210 229 250
211 229 253
209 227 248
210 229 252
209 227 249
212 230 253
206 225 248
208 226 249
206 224 246
210 228 253
206 225 245
209 228 252
204 223 245
208 226 250
205 224 248
204 223 245
207 226 252
208 227 250
207 226 252
206 225 250
204 224 249
204 223 245
208 228 250
202 222 248
206 226 252
207 227 254
202 223 244
202 223 248
202 223 246
200 222 241
200 221 246
198 220 238
197 219 236
192 215 221
189 213 209
181 205 142
170 195 0
170 195 0
98 125 92
58 92 108
57 91 100
56 90 97
56 90 99
58 92 107
58 92 105
57 91 103
56 90 100
58 92 99
57 91 103
57 90 99
59 94 115
57 91 107
56 90 97
58 92 115
59 93 110
57 91 103
59 94 117
58 92 114
57 91 86
59 93 115
57 91 107
58 93 111
56 89 95
57 90 103
58 92 103
58 92 114
58 92 107
58 92 105
57 90 107
60 94 128
59 93 107
57 91 102
59 93 118
57 91 99
59 93 117
59 93 120
57 90 99
58 93 113
60 94 124
59 94 120
60 94 125
60 94 115
58 92 107
57 91 108
60 94 120
57 90 107
58 92 110
57 91 113
58 92 117
57 92 110
56 90 86
58 93 110
58 92 115
59 93 120
57 90 102
56 90 97
58 92 111
57 91 108
59 93 118
57 91 105
57 91 103
56 89 100
58 92 114
60 94 120
59 94 120
56 90 107
56 90 95
57 91 102
59 93 117
58 92 111
58 92 111
58 93 111
58 92 114
59 93 111
57 91 102
58 92 110
58 92 115
59 93 111
57 91 111
57 91 107
56 90 95
58 92 108
59 93 125
58 91 111
56 90 100
56 89 94
58 93 117
58 92 118
58 92 110
60 94 129
57 90 111
59 93 120
57 91 99
57 90 97
57 91 114
58 92 110
57 91 108
58 92 108
58 91 120
57 90 116
58 92 115
57 90 107
56 89 102
57 90 101
55 88 87
58 92 110
55 88 83
56 89 97
55 87 99
55 88 92
57 89 101
56 87 97
56 88 104
55 85 93
122 145 54
168 192 0
167 193 0
150 157 0
140 137 0
135 130 0
126 125 0
124 122 0
113 112 0
108 107 0
106 104 0
106 103 0
95 92 0
96 94 0
85 83 0
76 75 0
88 87 0
81 81 0
71 71 0
72 70 0
65 64 0
68 70 0
76 75 0
87 86 0
75 74 0
89 89 0
73 73 0
86 85 0
87 87 0
102 99 0
99 98 0
90 90 0
102 102 0
102 103 0
101 102 0
107 107 0
105 105 0
115 115 0
110 110 0
107 107 0
119 118 0
118 118 0
120 118 0
127 126 0
127 125 0
123 124 0
129 128 0
126 124 0
118 117 0
129 130 0
131 129 0
137 136 0
129 128 0
139 137 0
132 130 0
136 135 0
128 127 0
137 135 0
139 137 0
137 137 0
137 138 0
139 138 0
138 138 0
140 139 0
141 140 0
141 141 0
144 143 0
143 142 0
143 142 0
147 145 0
141 140 0
144 143 0
143 143 0
142 141 0
147 145 0
144 142 0
144 144 0
145 145 0
145 143 0
148 147 0
145 143 0
147 145 0
146 145 0
147 146 0
146 145 0
146 145 0
147 146 0
148 146 0
149 147 0
148 145 0
149 147 0
149 148 0
149 147 0
149 147 0
148 147 0
149 148 0
148 147 0
149 148 0
150 148 0
150 148 0
148 147 0
149 148 0
149 148 0
149 148 0
149 148 0
149 148 0
150 149 0
150 150 0
150 149 0
148 147 0
150 148 0
148 148 0
150 149 0
149 148 0
149 148 0
150 148 0
151 150 0
150 149 0
148 147 0
151 151 0
150 149 0
150 149 0
149 148 0
151 150 0
150 149 0
151 150 0
151 150 0
150 149 0
150 149 0
151 150 0
151 150 0
150 149 0
149 149 0
150 149 0
149 149 0
150 150 0
150 150 0
151 150 0
151 151 0
150 150 0
151 150 0
150 150 0
149 149 0
206 224 246
211 229 250
206 224 245
208 226 251
209 228 244
211 229 252
201 219 236
204 222 242
206 224 243
205 223 240
207 225 247
208 226 246
207 225 244
209 227 249
210 228 249
206 224 242
207 225 247
207 225 246
210 228 248
212 230 252
211 229 250
211 229 250
211 228 249
212 230 251
212 230 252
213 230 252
213 231 252
211 229 246
212 230 249
213 231 252
212 230 252
213 230 250
213 231 254
212 230 249
211 229 246
211 229 246
213 230 252
214 231 254
211 229 245
209 228 241
214 231 253
211 229 245
212 230 248
213 230 252
212 229 248
212 230 249
212 230 249
212 230 248
212 230 248
211 229 248
214 231 254
212 230 249
213 230 250
213 230 250
211 229 245
212 230 250
211 229 249
211 229 246
213 231 252
212 230 248
211 229 249
212 230 250
211 229 245
213 231 253
212 230 249
213 231 252
213 231 252
212 230 250
212 230 249
213 231 253
213 231 252
211 229 249
213 230 252
211 230 249
212 230 252
212 230 250
212 230 249
212 230 249
210 228 244
213 230 250
212 230 252
212 230 250
211 229 250
210 228 250
213 231 253
212 230 252
213 231 255
211 229 252
208 226 244
212 230 253
211 229 249
211 229 250
212 229 252
210 228 252
212 230 253
210 229 246
210 228 248
211 229 253
209 227 249
208 227 245
211 229 252
212 230 252
210 228 248
211 229 254
207 225 245
210 229 250
210 229 249
210 228 252
206 225 249
207 226 249
209 228 250
208 227 252
209 228 250
208 227 248
206 225 246
205 224 245
209 228 254
208 228 252
207 226 248
206 225 249
206 226 250
203 222 242
205 224 249
206 226 249
203 223 246
202 222 241
204 225 248
201 221 244
203 224 248
202 223 242
205 226 250
202 223 248
193 215 228
200 222 242
194 217 230
188 211 206
187 211 207
180 205 157
169 195 36
169 195 0
168 194 0
164 189 36
63 95 102
57 90 103
57 91 108
57 91 100
56 89 97
56 90 102
57 91 102
58 92 99
57 91 102
58 92 110
58 91 107
57 91 108
56 89 99
59 93 113
57 91 95
56 90 99
57 91 107
59 94 114
58 92 114
58 92 105
59 93 114
57 91 100
56 89 94
57 92 100
58 92 110
58 93 111
59 94 115
56 90 95
58 93 115
57 91 103
59 93 118
59 93 117
59 93 114
59 94 118
58 93 113
59 93 113
57 91 105
58 92 117
59 93 117
58 92 114
58 92 114
58 92 111
57 90 102
59 93 113
57 91 92
59 93 114
58 92 114
57 90 97
58 92 113
54 87 84
59 94 121
57 91 103
57 91 111
57 91 100
59 94 118
59 94 118
59 93 114
58 92 115
58 92 118
57 91 107
58 92 105
58 92 105
59 93 115
58 92 114
57 91 94
58 92 111
58 93 110
58 91 107
58 92 108
56 90 105
60 95 133
58 92 117
57 91 102
59 93 117
58 93 110
59 93 107
57 90 103
59 93 115
55 88 102
56 89 102
57 91 113
59 93 113
56 90 103
57 91 107
55 89 95
58 91 115
58 92 110
57 91 100
57 91 107
59 93 117
57 91 105
57 90 103
57 90 100
57 90 107
57 90 102
58 91 107
57 90 107
56 89 100
57 91 108
57 89 106
56 89 95
58 91 113
57 90 103
56 90 100
57 91 97
59 92 113
57 90 108
57 90 110
57 90 101
55 87 95
55 88 90
55 86 96
56 89 100
54 85 91
54 84 83
152 176 25
166 190 0
165 189 0
166 189 0
144 146 0
138 134 0
127 123 0
131 126 0
119 115 0
112 108 0
114 111 0
99 97 0
94 91 0
98 95 0
94 91 0
89 88 0
76 75 0
75 74 0
86 82 0
80 78 0
92 88 0
96 94 0
85 84 0
89 86 0
88 88 0
93 92 0
81 80 0
94 91 0
88 89 0
93 92 0
93 91 0
92 91 0
103 102 0
101 99 0
110 110 0
104 103 0
106 105 0
112 110 0
117 114 0
120 119 0
124 123 0
112 111 0
119 118 0
124 123 0
125 123 0
115 114 0
120 119 0
125 124 0
121 120 0
137 135 0
129 129 0
132 130 0
132 129 0
132 131 0
131 130 0
139 136 0
134 132 0
134 133 0
143 141 0
137 135 0
139 136 0
138 138 0
141 138 0
134 132 0
135 134 0
140 140 0
143 141 0
141 139 0
145 144 0
144 141 0
140 139 0
141 140 0
144 142 0
140 139 0
143 140 0
143 141 0
143 143 0
146 145 0
142 141 0
142 142 0
148 147 0
144 142 0
142 140 0
146 145 0
147 145 0
148 146 0
147 147 0
146 145 0
146 145 0
147 146 0
149 148 0
148 146 0
149 147 0
148 146 0
149 147 0
145 144 0
145 143 0
150 149 0
149 148 0
147 146 0
149 147 0
149 148 0
148 147 0
148 146 0
149 148 0
149 147 0
147 147 0
148 147 0
150 149 0
149 148 0
150 149 0
151 149 0
149 149 0
149 149 0
149 149 0
148 147 0
149 149 0
150 149 0
149 148 0
150 150 0
151 149 0
150 148 0
148 147 0
149 148 0
150 148 0
150 150 0
151 151 0
149 148 0
150 149 0
151 150 0
149 148 0
150 149 0
150 149 0
151 150 0
150 150 0
152 150 0
150 150 0
151 150 0
150 149 0
150 150 0
150 149 0
149 149 0
151 149 0
207 225 245
208 227 245
208 226 246
209 227 248
207 225 247
208 227 247
209 227 248
208 226 246
208 227 247
213 231 254
213 230 253
209 227 244
211 229 246
211 229 249
212 230 250
212 230 250
211 229 248
211 229 246
211 230 249
211 229 248
211 229 248
211 229 248
211 229 248
213 231 253
212 230 250
211 229 244
212 230 252
212 230 250
212 229 248
211 229 248
212 230 249
213 230 253
212 230 250
213 231 254
213 231 253
211 229 245
211 229 245
213 231 254
212 230 252
213 231 254
213 231 253
212 230 250
212 230 249
212 230 250
213 231 253
213 231 253
212 230 249
211 229 249
213 231 254
214 232 255
212 230 248
213 231 253
212 230 250
213 231 253
211 229 246
212 230 250
212 229 248
212 230 250
210 228 244
213 231 254
212 230 250
214 231 255
211 229 248
212 230 252
211 229 248
212 230 250
212 230 250
212 230 250
212 230 252
212 230 252
212 230 252
211 229 249
212 230 252
211 229 248
212 230 250
213 231 254
213 230 253
213 231 253
209 228 244
212 230 250
212 230 250
213 230 253
211 230 249
211 229 252
210 229 248
211 229 250
211 229 250
213 231 254
212 230 252
211 229 250
210 228 250
210 228 248
211 229 253
212 230 253
210 228 248
210 228 252
208 227 242
209 228 249
211 229 250
209 227 250
210 229 252
211 230 252
211 229 253
209 228 248
209 228 250
209 228 249
204 223 246
210 229 252
210 229 253
210 229 253
210 229 252
208 227 250
209 228 253
204 223 245
207 226 252
203 222 244
205 224 245
208 228 253
200 220 238
202 222 244
206 226 249
206 226 252
205 225 252
203 223 242
207 227 252
206 227 250
206 227 254
201 222 242
203 225 248
201 222 246
202 224 245
199 221 241
200 223 244
196 219 237
191 214 220
193 217 223
182 207 182
171 196 62
167 192 0
169 194 0
168 194 0
167 192 0
114 139 82
58 91 99
56 90 92
56 89 90
58 91 103
58 92 112
57 90 108
57 92 102
56 90 99
59 93 118
58 92 107
56 89 82
57 91 102
59 93 113
57 91 102
56 90 100
58 91 108
59 93 113
58 92 110
59 93 117
58 92 115
57 91 102
57 91 97
57 91 108
59 94 118
59 93 117
58 92 113
58 93 113
58 92 105
57 90 100
57 91 103
58 92 107
56 90 95
59 94 126
58 92 108
58 93 111
57 91 105
57 91 103
59 93 118
58 93 110
58 92 111
58 92 117
57 91 95
59 93 120
59 93 113
58 93 108
58 91 120
57 91 95
57 92 103
58 92 113
60 94 118
58 92 114
57 91 102
59 93 114
58 92 100
58 93 117
58 92 107
57 91 111
55 88 102
57 92 110
56 90 99
59 93 114
59 94 118
57 91 105
58 93 110
58 92 111
58 92 113
59 94 118
58 92 114
58 92 108
57 91 105
59 94 115
57 91 103
58 92 111
59 93 114
59 93 122
59 93 120
56 90 94
57 91 100
58 91 108
59 93 115
57 90 107
58 92 110
58 92 114
57 91 103
57 90 102
55 88 90
56 89 102
58 92 107
57 91 111
55 88 89
55 88 90
57 90 107
58 92 115
57 91 105
58 92 117
58 91 102
58 92 103
56 89 105
56 88 102
57 90 101
59 92 118
57 90 99
55 88 87
57 90 110
56 90 103
58 91 107
54 87 82
56 88 99
56 89 108
55 87 96
54 86 84
56 87 99
55 86 97
112 135 58
167 192 0
164 189 0
163 186 0
166 190 0
163 184 0
141 139 0
140 136 0
131 125 0
122 119 0
114 111 0
113 110 0
110 107 0
97 93 0
94 92 0
88 86 0
85 83 0
76 74 0
86 82 0
82 80 0
93 90 0
85 84 0
83 82 0
85 81 0
90 87 0
91 90 0
90 90 0
96 94 0
83 82 0
97 95 0
90 89 0
94 90 0
102 99 0
101 102 0
102 101 0
104 102 0
109 108 0
97 96 0
109 109 0
117 114 0
117 117 0
118 117 0
122 120 0
115 114 0
126 125 0
119 117 0
127 126 0
131 128 0
128 127 0
125 122 0
125 124 0
124 123 0
131 130 0
128 126 0
124 125 0
132 131 0
133 133 0
133 131 0
136 134 0
136 135 0
131 131 0
136 134 0
142 140 0
135 135 0
137 136 0
141 140 0
137 135 0
139 138 0
137 135 0
140 139 0
142 140 0
145 143 0
141 138 0
145 143 0
141 138 0
142 140 0
145 144 0
145 142 0
143 142 0
143 141 0
143 142 0
148 146 0
144 143 0
147 144 0
147 145 0
145 145 0
145 144 0
144 142 0
147 145 0
144 142 0
149 148 0
143 140 0
147 145 0
147 145 0
147 145 0
147 145 0
147 145 0
148 146 0
146 145 0
146 145 0
148 147 0
148 146 0
148 147 0
148 146 0
150 148 0
150 148 0
145 144 0
148 145 0
148 146 0
146 144 0
148 146 0
148 147 0
149 147 0
148 145 0
148 146 0
150 148 0
149 147 0
149 147 0
149 149 0
148 147 0
151 150 0
149 148 0
149 148 0
149 148 0
150 149 0
149 148 0
151 150 0
148 147 0
149 148 0
150 149 0
151 150 0
148 147 0
149 148 0
148 147 0
151 150 0
149 148 0
149 149 0
150 149 0
151 149 0
150 150 0
151 150 0
150 150 0
150 149 0
151 150 0
209 228 247
210 228 248
208 227 246
211 229 248
211 229 250
212 230 252
212 230 252
212 230 252
211 230 250
209 228 245
212 230 252
211 230 250
211 229 248
212 230 252
211 229 248
213 231 254
213 231 254
212 230 252
211 229 249
212 230 252
213 231 254
212 230 252
212 230 250
211 230 250
212 230 250
212 230 252
212 230 252
212 230 250
212 230 252
211 229 248
212 230 252
211 229 248
212 230 250
211 229 248
212 230 250
211 229 249
213 231 253
212 230 249
211 229 248
211 229 249
211 229 248
212 230 252
213 231 254
213 231 254
212 230 252
211 229 246
212 230 249
213 231 253
212 230 252
212 230 249
212 230 252
212 230 252
211 229 248
210 228 246
212 230 249
211 229 246
212 230 252
213 231 254
210 228 244
211 229 248
211 229 250
212 230 250
211 229 248
212 230 250
210 228 246
212 230 250
211 229 246
211 229 252
211 229 246
210 228 246
211 230 250
212 230 252
210 228 248
211 229 249
211 230 250
211 229 248
209 228 249
209 227 244
210 229 249
212 231 254
212 230 253
211 229 250
211 229 252
209 228 248
211 230 250
211 229 250
210 229 249
211 230 250
211 229 250
212 230 253
210 228 249
210 229 249
209 227 246
211 229 250
210 229 252
209 228 250
210 229 250
209 228 249
210 229 250
209 228 248
211 229 254
209 227 249
209 227 250
208 227 249
209 228 250
207 225 248
209 228 249
210 229 252
205 224 246
206 226 249
207 226 248
208 227 252
208 228 252
207 226 250
206 225 249
207 227 250
207 227 249
205 224 248
206 226 249
207 227 253
204 224 249
204 225 249
204 225 249
204 225 246
205 226 252
205 226 249
206 227 253
202 223 248
202 224 249
201 223 248
197 219 238
196 219 236
195 217 231
188 211 221
189 213 206
184 208 194
169 195 51
170 194 0
168 193 0
171 196 0
169 194 0
171 196 0
162 187 47
60 93 102
56 90 86
58 92 105
57 91 102
58 92 118
56 90 94
57 90 95
58 92 103
55 89 76
56 90 92
57 91 103
57 91 94
58 92 113
56 90 103
55 89 86
55 87 92
57 91 105
56 90 97
56 90 99
57 90 94
56 90 94
58 92 110
57 91 88
58 91 108
57 91 111
57 90 97
58 93 113
57 91 105
57 91 102
57 91 97
57 90 108
57 91 113
58 92 114
56 89 99
56 90 95
58 92 103
57 91 102
57 91 105
57 91 107
57 91 100
56 90 97
56 90 103
58 92 110
57 91 105
57 92 107
57 90 100
57 91 99
56 89 97
57 91 97
58 93 108
58 92 111
57 90 100
58 92 105
59 93 115
57 91 100
58 92 111
57 90 100
59 93 114
56 90 88
57 91 108
58 92 105
58 93 113
59 93 118
56 90 99
58 92 108
58 92 113
58 92 105
55 89 97
57 90 107
58 92 115
57 91 108
58 91 114
58 92 111
58 92 113
56 90 108
58 92 115
58 92 105
56 89 94
57 91 102
55 89 88
56 89 86
58 92 107
57 90 105
58 92 110
56 89 97
56 88 92
57 91 103
57 91 100
57 90 115
56 89 107
58 91 111
58 92 110
56 89 94
57 91 103
57 91 108
57 90 111
55 88 100
56 90 105
56 89 99
55 88 92
57 90 103
57 91 108
56 89 102
55 88 100
57 89 107
57 91 107
56 88 100
56 88 94
55 86 96
54 86 81
57 89 105
52 83 79
65 91 79
156 177 36
167 190 0
165 189 0
163 186 0
167 191 0
166 189 0
159 175 0
140 135 0
123 119 0
122 115 0
123 118 0
111 107 0
107 102 0
94 92 0
98 94 0
92 89 0
86 86 0
88 84 0
89 85 0
86 85 0
89 86 0
97 92 0
76 74 0
78 75 0
80 77 0
95 91 0
90 89 0
92 90 0
83 82 0
103 99 0
92 91 0
95 94 0
99 97 0
103 101 0
101 98 0
105 102 0
111 110 0
113 110 0
112 110 0
117 116 0
112 110 0
114 114 0
115 116 0
115 114 0
120 118 0
117 116 0
125 123 0
120 119 0
127 126 0
127 127 0
131 130 0
127 124 0
122 121 0
125 123 0
132 130 0
136 133 0
127 125 0
132 130 0
136 135 0
133 130 0
131 130 0
138 136 0
140 138 0
138 135 0
138 135 0
141 138 0
140 138 0
139 137 0
135 134 0
139 137 0
144 143 0
142 138 0
142 141 0
145 143 0
146 142 0
142 139 0
146 143 0
143 140 0
145 143 0
143 140 0
145 143 0
142 140 0
144 142 0
147 145 0
144 141 0
142 140 0
146 145 0
146 143 0
146 143 0
147 145 0
143 139 0
145 143 0
148 146 0
147 146 0
147 145 0
146 143 0
147 145 0
146 145 0
150 148 0
149 148 0
148 146 0
149 147 0
147 146 0
149 148 0
149 148 0
147 145 0
150 148 0
149 147 0
149 146 0
150 147 0
148 147 0
149 147 0
148 147 0
150 148 0
148 147 0
149 147 0
148 147 0
150 148 0
148 147 0
149 147 0
150 149 0
148 147 0
150 150 0
149 148 0
151 150 0
151 149 0
150 149 0
150 149 0
150 148 0
150 149 0
150 149 0
150 148 0
148 148 0
149 148 0
150 148 0
151 150 0
149 149 0
150 149 0
150 148 0
150 149 0
152 151 0
150 149 0
150 148 0
151 150 0
210 229 249
209 227 241
210 228 246
210 229 248
210 228 246
210 229 249
211 229 249
209 227 242
212 230 253
211 229 249
210 229 248
211 229 250
209 228 244
211 229 248
212 230 253
210 229 248
211 229 249
210 228 248
212 230 252
213 231 255
213 231 254
210 228 245
211 230 250
211 229 249
211 229 249
212 230 250
212 230 252
211 229 248
212 231 254
212 230 252
212 230 250
211 229 249
211 229 248
210 228 248
211 229 250
210 229 246
211 229 248
212 230 252
212 230 252
211 229 250
211 229 246
213 231 254
213 231 253
211 229 249
212 230 250
210 229 248
211 229 248
213 231 254
212 230 252
211 230 249
212 230 250
212 230 252
212 230 253
212 230 253
212 230 250
213 231 253
211 230 250
212 230 254
211 229 249
212 230 250
211 230 249
210 228 248
211 229 250
211 230 250
210 228 246
213 231 254
209 227 244
212 230 253
210 228 248
211 229 250
212 230 252
210 229 249
212 230 253
211 229 250
213 231 254
211 230 250
209 227 244
211 229 252
210 228 246
211 230 252
210 229 250
212 230 254
211 229 250
211 229 250
209 228 246
210 229 249
211 230 253
212 230 254
210 228 249
211 230 252
208 227 248
211 229 253
208 227 244
210 229 252
210 229 249
209 227 245
206 225 245
210 229 249
211 230 254
209 228 252
210 228 253
206 225 245
206 225 248
210 229 253
209 228 252
208 227 252
209 229 253
207 226 245
207 226 248
206 225 246
206 226 248
205 225 249
207 227 249
207 226 249
204 224 245
205 225 249
206 226 248
208 228 254
204 224 249
205 225 248
205 225 248
204 225 246
203 224 249
200 221 242
203 224 246
202 224 250
201 222 246
202 224 246
199 221 245
196 218 240
194 216 238
196 219 234
191 214 227
187 211 215
184 208 188
172 196 92
168 193 0
170 194 0
169 193 0
167 192 0
168 194 0
168 193 0
167 192 0
127 152 62
57 91 102
58 92 103
55 88 88
57 91 105
56 90 84
55 88 84
58 91 107
55 88 94
59 93 111
57 91 102
58 91 102
56 89 100
58 92 111
56 90 92
57 91 102
58 92 105
57 91 95
58 91 107
59 93 114
57 90 103
58 92 108
58 92 100
56 89 97
57 91 102
57 91 102
59 93 117
57 91 108
57 90 105
58 91 105
58 92 113
58 92 110
56 90 95
57 91 110
58 92 113
58 92 115
57 91 111
58 92 111
58 92 113
58 92 110
57 91 107
56 90 97
58 92 115
58 92 111
57 90 102
56 90 103
59 93 115
56 89 90
58 92 115
57 91 108
56 90 97
58 92 103
57 91 97
57 91 105
58 92 103
59 93 113
57 90 105
55 89 88
57 90 102
59 93 118
58 93 110
56 90 100
57 90 97
57 91 100
57 90 103
57 91 110
57 90 107
58 92 118
58 92 110
58 92 107
58 93 110
57 91 97
59 93 114
58 92 113
57 91 99
57 90 100
57 91 105
56 89 103
60 94 121
57 91 111
58 91 113
56 89 92
59 92 120
56 90 94
56 90 94
58 92 111
58 92 108
57 91 97
56 89 103
57 90 105
56 90 100
57 90 103
57 90 100
58 92 114
57 90 99
58 92 107
55 88 90
56 89 99
58 91 111
57 90 100
55 88 94
56 89 105
57 90 102
57 90 107
58 91 110
54 86 82
56 89 97
56 89 103
55 87 97
55 88 101
56 87 92
53 84 79
113 134 58
165 188 0
164 187 0
165 186 0
163 186 0
164 186 0
166 190 0
167 190 0
155 166 0
133 129 0
123 114 0
114 109 0
111 106 0
109 104 0
107 102 0
104 101 0
102 97 0
99 97 0
100 95 0
93 89 0
88 85 0
80 76 0
93 89 0
91 88 0
91 87 0
91 90 0
99 96 0
91 89 0
96 94 0
99 98 0
92 91 0
94 92 0
104 101 0
103 102 0
96 94 0
111 108 0
101 99 0
106 104 0
111 109 0
116 114 0
114 112 0
110 107 0
120 115 0
117 115 0
117 116 0
125 123 0
125 125 0
123 122 0
127 124 0
128 126 0
124 120 0
124 123 0
121 119 0
132 129 0
133 130 0
126 125 0
126 124 0
130 129 0
135 133 0
131 130 0
135 133 0
131 129 0
139 136 0
134 131 0
138 137 0
132 129 0
138 136 0
140 139 0
140 139 0
136 135 0
141 139 0
145 144 0
141 138 0
139 138 0
145 145 0
142 141 0
141 138 0
140 136 0
142 140 0
143 140 0
143 141 0
142 140 0
145 144 0
146 144 0
146 144 0
145 143 0
142 141 0
144 142 0
141 140 0
142 140 0
142 140 0
144 143 0
146 144 0
148 146 0
146 144 0
146 144 0
146 144 0
149 148 0
148 145 0
148 146 0
147 145 0
145 143 0
147 146 0
147 146 0
146 145 0
149 147 0
149 148 0
147 146 0
148 146 0
148 146 0
150 148 0
150 148 0
146 145 0
149 148 0
149 147 0
149 147 0
147 146 0
149 147 0
149 148 0
149 147 0
150 149 0
150 149 0
150 148 0
148 148 0
148 148 0
149 148 0
149 147 0
148 146 0
150 148 0
150 148 0
150 149 0
149 149 0
149 148 0
147 146 0
150 149 0
152 150 0
151 150 0
149 148 0
150 149 0
150 150 0
151 150 0
151 149 0
148 147 0
150 148 0
150 150 0
209 228 246
210 228 248
211 230 253
210 229 250
211 229 250
210 228 248
210 229 249
210 229 248
212 230 255
210 228 246
210 228 246
211 229 252
209 228 245
209 228 245
212 230 253
211 229 250
210 229 248
209 228 244
211 229 250
210 229 246
210 229 249
212 230 253
211 229 248
209 228 244
210 228 249
211 229 250
209 228 244
212 230 254
211 229 249
212 231 254
209 228 244
210 229 246
211 229 248
211 229 250
212 231 254
211 229 250
210 228 245
212 230 252
211 230 252
212 230 252
211 229 250
210 229 248
212 230 252
211 229 252
210 229 249
209 228 246
211 229 249
211 229 249
211 229 249
212 230 252
210 229 246
212 230 252
212 230 252
211 230 250
210 228 246
212 230 253
211 229 250
212 230 253
210 229 250
211 229 249
211 229 250
211 229 252
210 228 246
211 229 249
212 230 252
212 230 253
212 230 253
211 229 249
212 230 253
211 229 249
209 228 245
210 229 248
210 229 248
209 228 249
211 230 252
211 229 250
212 230 253
210 229 248
211 229 252
211 229 252
211 229 249
210 228 248
210 229 250
210 228 246
209 227 249
210 228 249
211 230 254
210 228 249
211 230 253
209 228 250
207 226 248
209 228 250
209 228 248
209 228 246
209 228 252
210 229 250
210 229 252
209 228 252
211 230 255
209 228 252
210 229 253
208 227 250
207 226 249
210 229 253
206 225 242
209 228 253
209 228 252
206 226 246
208 228 249
206 226 249
205 225 245
207 226 252
205 225 250
204 224 248
207 227 252
206 226 249
206 226 250
204 225 250
206 226 252
205 226 249
204 225 252
200 221 242
204 225 248
200 222 245
202 224 249
203 224 249
194 216 238
199 221 246
195 217 238
195 218 234
192 215 234
189 213 223
187 211 214
189 213 209
174 200 111
168 193 0
167 191 0
169 194 0
168 193 0
167 192 0
167 192 0
168 193 0
168 193 0
166 190 0
86 115 100
57 91 100
56 89 90
57 90 100
55 89 84
57 91 100
57 91 100
56 90 94
57 91 94
58 92 102
57 91 103
57 91 102
57 91 95
58 92 105
56 89 90
58 92 115
57 91 100
57 91 97
56 90 105
57 91 100
56 90 102
57 91 105
58 91 110
57 91 107
57 91 103
56 90 100
57 90 110
57 90 100
56 89 100
59 93 118
58 92 108
56 90 102
59 93 117
57 90 95
58 91 108
57 91 103
56 89 86
57 91 105
57 90 95
57 91 105
56 90 94
56 90 90
58 92 105
56 90 92
57 91 97
56 90 95
57 91 103
58 93 113
58 92 111
58 92 102
55 88 90
57 91 107
57 91 105
57 91 95
58 92 107
57 91 110
56 90 102
58 92 113
55 89 88
56 90 97
57 90 103
57 91 107
58 92 110
58 92 108
58 92 110
57 90 107
59 93 113
58 92 107
58 92 102
56 90 97
58 92 111
55 89 92
56 89 97
58 92 102
58 92 117
57 91 97
57 90 105
57 90 107
56 89 99
56 90 100
56 90 97
58 92 114
57 91 110
57 91 105
56 89 94
57 90 99
57 90 95
55 88 90
57 90 102
57 91 108
56 89 100
54 88 86
58 91 113
56 89 95
58 92 103
57 91 111
56 89 100
56 89 94
55 88 99
59 93 114
54 87 86
56 88 100
56 89 114
56 88 97
57 90 97
56 89 95
56 88 90
54 86 85
55 86 92
54 84 85
72 97 74
157 177 0
164 188 0
163 186 0
164 186 0
166 188 0
162 183 0
164 185 0
162 184 0
163 185 0
154 161 0
138 133 0
125 119 0
113 108 0
112 105 0
113 106 0
96 92 0
103 97 0
98 95 0
92 86 0
96 90 0
83 78 0
84 81 0
90 84 0
92 88 0
89 86 0
97 93 0
97 94 0
85 84 0
90 87 0
99 96 0
87 83 0
96 92 0
99 95 0
100 98 0
104 100 0
98 95 0
99 95 0
103 100 0
100 98 0
113 110 0
119 117 0
115 111 0
114 111 0
113 112 0
112 109 0
120 116 0
121 116 0
122 119 0
122 120 0
123 122 0
127 124 0
124 122 0
127 126 0
129 127 0
126 124 0
130 128 0
131 129 0
131 126 0
136 133 0
137 134 0
131 130 0
135 132 0
137 134 0
141 138 0
133 130 0
133 132 0
137 136 0
139 135 0
137 136 0
137 133 0
140 136 0
140 137 0
140 137 0
137 133 0
141 139 0
142 139 0
143 142 0
146 142 0
141 139 0
144 140 0
141 139 0
140 138 0
144 141 0
142 140 0
142 142 0
146 142 0
146 143 0
145 142 0
145 143 0
145 144 0
145 140 0
147 145 0
149 146 0
147 144 0
146 144 0
146 145 0
147 144 0
147 143 0
148 146 0
150 147 0
149 146 0
147 145 0
147 144 0
146 144 0
146 144 0
144 143 0
147 145 0
148 146 0
147 143 0
150 148 0
150 147 0
145 143 0
150 148 0
147 146 0
150 147 0
149 146 0
148 147 0
149 146 0
147 146 0
149 146 0
150 149 0
149 147 0
147 146 0
150 148 0
149 146 0
151 149 0
147 146 0
150 148 0
149 148 0
148 146 0
151 150 0
149 148 0
149 147 0
149 148 0
148 146 0
150 147 0
149 148 0
151 149 0
151 150 0
151 149 0
149 149 0
149 148 0
150 149 0
149 148 0
151 150 0
209 228 250
210 228 249
209 228 246
210 229 249
209 228 246
209 228 246
209 228 246
209 228 246
209 228 246
210 229 250
209 228 249
210 228 248
210 229 250
209 228 246
210 228 246
211 229 252
209 228 246
212 230 253
210 228 248
210 229 249
211 230 252
209 228 245
210 229 249
211 229 252
211 229 250
211 229 250
210 229 249
208 226 244
211 230 252
211 229 250
210 229 248
210 228 248
212 230 253
211 230 252
211 230 252
210 229 248
211 229 250
212 230 254
210 229 248
210 229 250
210 229 249
210 229 249
209 228 244
211 229 250
211 230 252
210 229 249
211 229 250
209 228 244
211 229 249
211 230 252
210 229 248
210 229 249
212 230 253
210 229 248
210 229 250
211 230 252
211 229 252
210 229 252
211 229 249
211 230 252
211 230 252
210 229 249
212 230 253
211 230 252
212 230 253
211 230 253
212 230 253
211 230 252
209 228 249
209 228 248
209 227 248
210 228 249
210 229 252
210 229 248
211 229 252
210 229 249
211 229 252
211 229 250
209 228 245
209 228 248
210 229 250
210 229 249
210 229 250
210 229 250
209 227 249
210 229 252
209 227 250
209 228 250
211 229 253
210 229 252
210 229 250
208 227 248
209 228 249
209 228 252
208 227 248
209 228 249
210 229 253
209 228 249
208 227 250
209 229 253
207 226 250
207 226 249
209 228 254
207 226 250
208 228 253
207 227 248
205 225 248
206 226 249
209 228 253
205 225 246
208 228 253
207 227 253
206 226 250
206 226 250
207 228 253
206 227 250
205 225 250
204 225 250
205 225 252
203 224 248
204 226 252
205 226 252
201 223 248
199 221 242
198 220 238
194 216 234
197 220 241
197 220 242
196 219 236
192 215 231
191 215 224
194 218 234
187 212 198
176 201 117
168 193 0
170 194 0
168 193 0
168 194 0
165 191 0
168 193 0
169 193 0
168 193 0
169 193 0
167 192 0
142 167 31
56 89 94
58 92 111
55 89 82
57 90 92
57 90 111
56 90 97
55 89 97
55 89 88
56 90 90
56 89 92
57 91 95
56 90 100
57 90 100
56 90 99
57 90 105
58 92 111
55 89 88
58 92 103
57 90 108
55 89 82
58 92 108
57 91 107
57 91 97
56 89 95
56 89 95
57 90 108
58 92 107
58 92 113
56 90 100
57 90 108
57 91 107
57 91 107
58 91 108
56 90 95
58 92 113
57 91 102
58 92 110
56 89 99
57 91 97
56 89 86
56 89 90
58 92 111
57 91 105
56 90 97
57 91 90
57 91 103
58 92 110
57 92 110
58 92 115
58 92 114
57 90 103
57 91 100
56 89 95
58 92 113
56 89 94
58 92 113
57 91 102
57 90 100
57 91 103
56 89 102
59 93 120
55 89 88
57 91 108
58 91 114
57 91 102
58 93 113
58 91 111
57 91 108
57 91 105
57 91 102
58 91 105
58 91 107
58 92 115
56 89 94
56 90 92
58 91 111
58 92 113
57 91 102
57 90 100
57 90 95
57 90 107
58 92 111
56 90 100
56 90 97
56 89 90
56 89 111
58 91 110
58 91 108
56 90 95
55 88 99
56 89 95
57 90 100
56 89 103
57 90 108
56 89 99
56 89 94
55 87 97
58 92 113
56 89 94
55 88 95
53 85 84
54 86 94
56 88 99
56 89 96
56 88 99
53 84 81
51 82 77
54 86 85
53 84 84
138 159 51
163 185 0
164 186 0
162 183 0
160 181 0
159 178 0
166 186 0
163 183 0
162 181 0
164 182 0
164 186 0
150 155 0
126 118 0
119 113 0
114 107 0
100 93 0
108 103 0
92 87 0
93 88 0
102 94 0
94 88 0
93 89 0
90 87 0
94 89 0
81 76 0
106 103 0
91 85 0
91 86 0
93 91 0
92 89 0
98 94 0
104 100 0
95 91 0
109 105 0
107 102 0
99 96 0
106 101 0
112 109 0
102 97 0
105 100 0
110 106 0
111 108 0
116 112 0
111 109 0
118 114 0
114 113 0
126 121 0
116 115 0
126 122 0
124 119 0
130 126 0
125 123 0
129 127 0
128 124 0
126 123 0
127 123 0
123 120 0
130 129 0
131 128 0
133 129 0
129 127 0
134 133 0
135 131 0
138 134 0
139 136 0
139 136 0
137 132 0
134 131 0
141 137 0
138 134 0
134 131 0
138 136 0
141 137 0
135 130 0
139 135 0
138 136 0
140 138 0
135 133 0
146 141 0
139 137 0
145 143 0
143 140 0
143 140 0
142 139 0
146 142 0
144 141 0
141 137 0
144 142 0
144 141 0
142 140 0
146 144 0
142 141 0
145 142 0
145 142 0
147 145 0
146 142 0
147 145 0
147 143 0
147 145 0
146 143 0
148 144 0
146 144 0
147 143 0
149 146 0
146 144 0
147 145 0
147 145 0
150 147 0
147 146 0
149 147 0
147 144 0
148 146 0
147 145 0
149 146 0
149 147 0
146 144 0
150 147 0
149 146 0
150 147 0
150 148 0
150 147 0
149 145 0
149 147 0
148 147 0
149 146 0
149 148 0
148 146 0
149 147 0
150 149 0
149 148 0
149 148 0
149 149 0
150 149 0
149 148 0
149 148 0
149 148 0
148 146 0
150 149 0
148 147 0
149 148 0
150 149 0
151 150 0
149 148 0
149 147 0
149 148 0
151 149 0
210 229 252
209 228 248
207 226 240
209 228 248
209 228 248
209 228 249
210 229 253
210 229 250
209 228 248
208 227 245
209 228 245
210 228 249
210 228 248
210 229 250
209 228 246
210 229 250
210 228 248
210 229 249
211 230 253
210 229 249
208 227 244
209 228 248
210 229 249
208 227 242
210 229 249
209 228 244
211 229 252
210 229 250
210 229 249
210 229 250
211 229 252
210 229 250
209 228 246
210 228 246
211 230 253
210 229 248
209 228 246
212 230 254
211 229 252
210 229 250
211 229 252
211 230 253
210 228 248
210 229 249
209 228 250
211 229 250
210 229 250
210 229 249
210 229 249
211 229 250
211 230 252
209 228 248
211 229 249
210 228 248
210 228 246
210 228 248
211 229 250
212 230 253
212 231 255
210 229 250
209 228 249
210 228 248
211 230 253
210 229 250
212 231 255
211 229 252
210 229 250
210 229 250
209 228 250
209 228 250
211 230 254
211 230 254
210 229 250
211 230 253
209 228 248
209 228 250
209 228 249
208 227 249
211 230 254
211 229 252
210 228 248
210 229 250
209 228 248
210 229 252
210 229 253
210 229 253
210 228 253
205 225 242
208 227 249
211 230 255
210 230 255
208 228 248
209 228 253
209 228 252
209 228 250
209 228 250
207 227 246
209 229 253
206 225 249
208 228 253
205 225 246
207 227 249
209 228 252
207 227 248
208 228 252
205 225 246
206 226 248
207 227 248
206 226 248
203 223 245
204 225 246
206 226 250
203 224 242
203 223 245
203 224 246
202 223 246
203 224 245
204 225 250
203 224 246
202 223 246
201 223 249
202 223 248
202 224 250
199 221 240
195 218 238
199 222 242
197 220 240
194 217 238
192 216 228
193 217 228
185 209 201
184 209 186
167 192 111
168 192 0
168 193 0
169 194 0
166 191 0
168 193 0
170 195 0
170 195 0
167 192 0
166 191 0
168 192 0
162 187 0
168 193 0
101 127 76
55 88 82
55 88 100
56 90 97
56 90 94
56 89 90
57 91 105
55 88 99
56 90 99
58 92 105
56 89 105
57 90 103
57 91 105
57 91 105
57 91 111
57 90 99
56 90 97
56 90 99
57 91 97
59 93 113
57 91 102
58 92 103
58 92 107
57 90 99
57 91 103
56 88 99
57 90 107
57 91 102
57 90 102
56 89 102
57 90 100
56 90 94
57 91 103
56 90 108
57 91 107
57 90 92
57 91 100
55 88 97
56 90 94
55 89 92
56 89 97
56 89 95
58 92 108
58 93 114
57 90 99
58 92 103
59 93 117
57 91 102
57 91 110
56 90 94
58 92 114
57 91 102
57 90 113
56 89 95
56 90 100
58 92 113
57 91 107
57 91 94
56 89 94
58 92 105
57 91 102
57 90 102
56 89 90
56 89 105
57 91 100
59 93 120
57 90 99
56 90 94
55 89 95
58 92 110
59 93 110
58 92 103
57 91 110
57 91 97
56 90 95
57 90 114
59 92 113
56 89 94
58 91 113
58 92 110
57 91 105
57 91 102
56 90 92
54 87 90
57 90 100
56 89 97
57 91 102
55 88 97
59 93 114
56 90 95
58 92 120
57 91 92
56 89 89
55 88 96
57 90 108
55 88 94
56 89 94
56 90 92
58 90 102
57 89 114
55 87 102
54 87 78
54 86 89
53 84 84
53 84 78
54 85 86
53 83 78
55 85 93
99 121 71
161 183 0
163 182 0
159 177 0
163 185 0
161 181 0
158 176 0
158 178 0
158 178 0
161 179 0
164 182 0
165 183 0
160 179 0
146 149 0
130 123 0
121 113 0
117 110 0
108 100 0
106 100 0
93 86 0
99 93 0
95 91 0
107 101 0
82 78 0
95 91 0
89 85 0
97 93 0
94 89 0
89 85 0
96 90 0
90 88 0
95 92 0
87 85 0
95 93 0
109 104 0
101 97 0
98 97 0
104 99 0
106 103 0
114 106 0
116 112 0
112 110 0
117 113 0
111 107 0
116 114 0
117 115 0
119 116 0
113 109 0
122 117 0
115 111 0
127 123 0
126 121 0
128 124 0
130 127 0
126 123 0
126 121 0
124 121 0
133 129 0
129 125 0
128 126 0
136 131 0
131 126 0
132 129 0
129 128 0
127 124 0
132 130 0
133 130 0
138 135 0
137 132 0
139 137 0
139 135 0
138 135 0
135 132 0
141 138 0
137 134 0
145 142 0
141 138 0
141 136 0
138 136 0
142 138 0
145 141 0
142 140 0
142 137 0
142 139 0
143 140 0
145 141 0
142 139 0
143 139 0
145 141 0
144 140 0
143 140 0
148 144 0
145 141 0
142 138 0
145 142 0
148 147 0
148 145 0
147 143 0
146 144 0
148 144 0
148 145 0
145 143 0
147 145 0
146 141 0
149 146 0
148 146 0
146 145 0
148 147 0
149 146 0
146 144 0
147 146 0
147 144 0
148 146 0
148 145 0
147 146 0
149 147 0
148 147 0
148 145 0
149 146 0
149 148 0
150 148 0
146 144 0
149 147 0
149 147 0
149 148 0
149 146 0
149 147 0
149 147 0
148 147 0
150 149 0
149 146 0
150 149 0
149 147 0
150 148 0
148 147 0
149 146 0
147 146 0
151 149 0
151 149 0
149 148 0
149 149 0
149 148 0
149 148 0
150 149 0
150 148 0
150 149 0
150 149 0
208 228 246
209 228 246
209 228 249
208 227 245
207 227 244
208 227 246
208 227 244
208 228 246
209 228 246
209 228 246
209 228 248
210 229 252
211 230 254
209 228 249
208 227 245
210 229 252
209 228 248
210 228 248
209 228 248
208 227 248
207 227 242
211 229 253
210 228 249
209 228 249
210 229 249
208 227 245
211 230 254
211 230 253
209 228 249
209 228 245
209 228 248
209 228 248
211 230 253
211 230 253
209 228 248
210 229 252
210 229 252
210 229 250
211 229 252
210 228 249
211 230 253
210 229 250
210 229 250
210 229 250
211 229 250
209 228 248
211 229 252
210 229 250
210 229 250
211 230 253
211 229 252
208 227 245
210 229 249
212 230 255
211 230 253
210 229 253
209 228 246
211 230 253
210 229 252
209 228 248
210 229 252
211 230 253
210 229 249
210 229 249
211 229 252
209 228 250
210 229 252
208 227 245
211 230 253
209 228 248
210 229 252
211 229 253
210 228 252
206 225 244
208 227 245
210 229 252
209 228 246
208 227 248
210 229 253
208 227 250
210 228 252
209 228 253
208 227 252
207 226 246
210 229 253
208 227 246
210 229 254
209 228 252
210 229 253
207 226 245
209 229 253
206 226 244
209 228 252
206 225 245
207 226 249
207 227 252
207 227 248
206 226 248
208 227 249
208 228 253
205 225 245
207 227 249
206 225 250
206 227 250
205 225 252
206 226 249
206 226 250
205 225 248
205 226 249
206 227 249
205 225 249
205 226 249
203 224 249
202 223 249
203 224 245
199 220 241
205 226 252
201 223 248
202 224 248
199 220 244
201 223 246
201 223 245
199 221 242
195 218 237
199 222 245
197 220 240
192 215 230
188 212 226
191 215 230
185 210 214
185 210 196
171 196 92
169 193 0
168 193 0
166 190 0
169 193 0
170 194 0
168 192 0
166 190 0
168 192 0
168 192 0
165 190 0
170 195 0
169 194 0
162 187 0
159 183 0
73 101 84
57 91 102
56 90 95
55 87 90
55 88 94
56 90 100
56 90 90
56 90 99
54 87 94
56 90 92
55 88 80
56 89 95
57 90 97
55 88 95
57 91 99
55 88 95
55 88 100
56 90 99
55 88 88
55 89 84
54 87 86
57 90 99
57 90 100
57 91 103
58 91 108
56 90 95
57 90 99
55 89 86
57 91 100
60 94 114
58 92 107
57 91 100
57 90 103
58 93 114
58 92 110
56 89 95
57 91 107
57 91 102
58 92 103
56 89 99
57 91 105
57 91 108
57 91 100
57 90 107
57 91 100
56 89 90
57 91 100
57 90 99
59 93 113
57 91 103
59 93 108
56 90 97
56 90 102
56 89 97
57 90 100
58 92 107
57 91 99
59 93 113
58 92 114
56 89 105
57 90 97
56 90 97
56 89 103
56 89 88
57 91 95
57 91 105
56 90 97
56 89 103
58 92 107
56 89 100
57 91 100
58 92 113
57 91 100
58 93 111
57 91 100
57 91 100
58 92 102
57 91 108
55 89 94
56 90 100
57 90 103
58 92 107
56 89 99
58 92 114
56 90 92
56 89 97
55 88 86
54 86 84
56 88 95
56 89 90
55 87 90
55 88 95
55 88 94
55 88 92
56 88 99
56 89 94
55 87 88
56 89 102
53 85 86
52 84 74
56 89 100
55 88 90
52 83 82
55 86 81
54 85 86
52 82 77
67 94 76
151 170 19
161 177 0
159 179 0
157 173 0
159 178 0
161 179 0
159 177 0
160 180 0
159 176 0
157 176 0
161 179 0
159 178 0
159 175 0
158 174 0
148 151 0
126 116 0
110 104 0
106 100 0
113 106 0
102 95 0
101 96 0
82 76 0
92 87 0
92 85 0
92 87 0
93 89 0
84 81 0
81 78 0
98 93 0
84 79 0
93 89 0
100 97 0
87 85 0
94 89 0
99 95 0
99 93 0
102 97 0
111 104 0
114 108 0
102 99 0
99 94 0
106 102 0
114 109 0
114 110 0
111 108 0
122 119 0
112 107 0
113 110 0
124 120 0
129 124 0
121 116 0
117 113 0
130 126 0
129 125 0
122 118 0
126 122 0
132 128 0
124 122 0
125 121 0
135 130 0
137 135 0
128 125 0
131 126 0
135 131 0
137 133 0
137 132 0
138 135 0
134 132 0
137 134 0
138 135 0
134 132 0
139 134 0
142 139 0
139 134 0
136 132 0
141 137 0
140 136 0
139 135 0
139 138 0
143 139 0
145 141 0
143 138 0
142 136 0
140 137 0
145 142 0
145 143 0
142 138 0
147 144 0
143 141 0
144 139 0
145 142 0
144 142 0
147 143 0
146 142 0
143 141 0
147 144 0
146 143 0
146 143 0
145 141 0
141 140 0
149 146 0
145 142 0
146 144 0
147 145 0
146 143 0
145 141 0
147 145 0
148 145 0
147 145 0
147 144 0
146 144 0
145 142 0
148 145 0
149 146 0
148 145 0
145 143 0
151 147 0
148 145 0
147 144 0
147 145 0
148 146 0
147 144 0
147 145 0
147 145 0
147 144 0
146 145 0
149 147 0
149 147 0
148 146 0
149 147 0
148 147 0
147 145 0
150 147 0
149 146 0
149 148 0
148 147 0
149 148 0
149 147 0
150 148 0
151 149 0
150 147 0
150 148 0
151 149 0
148 147 0
151 150 0
150 149 0
150 149 0
208 227 246
208 227 245
208 228 248
207 227 244
206 226 241
206 225 240
209 228 249
206 225 241
208 228 248
209 228 250
210 229 252
210 229 254
209 228 249
209 228 249
211 230 255
206 226 240
208 227 245
209 228 250
209 228 248
208 227 245
209 228 249
210 229 253
210 229 250
210 229 253
209 228 249
209 228 249
209 228 248
209 228 246
210 229 252
211 230 254
209 228 249
208 227 244
208 227 246
210 229 250
208 227 245
209 228 248
209 228 249
210 229 250
210 229 250
209 228 248
210 229 252
210 229 252
210 229 250
209 228 248
210 228 249
210 229 252
209 228 246
210 229 253
209 228 248
210 228 249
209 228 248
210 229 252
211 229 252
210 229 250
210 229 249
209 228 249
212 230 255
210 229 252
210 229 252
211 229 253
209 228 248
210 229 253
210 229 252
210 229 252
209 228 249
211 229 253
211 230 254
209 228 248
209 227 248
209 228 249
210 229 250
209 229 252
210 229 254
209 228 249
208 228 250
209 228 250
210 229 253
209 229 252
209 228 252
209 228 250
206 226 242
208 227 246
207 227 248
209 228 252
209 228 250
209 228 253
208 227 249
209 228 253
208 227 250
208 228 249
208 228 254
206 226 246
208 228 252
207 226 248
208 228 252
207 227 249
208 228 253
208 228 254
206 226 250
207 227 252
207 227 254
205 226 250
205 225 245
203 223 246
206 226 250
206 227 250
206 227 253
203 224 250
204 224 248
201 222 244
204 224 252
205 226 250
203 224 248
203 224 246
202 223 249
201 222 242
202 224 249
201 223 244
199 221 246
200 222 248
195 218 237
197 219 244
198 220 242
195 218 242
196 219 238
196 220 242
191 215 230
190 214 227
184 209 203
183 208 196
173 198 95
169 193 0
169 193 0
164 188 0
164 189 0
171 195 0
168 192 0
170 195 0
170 194 0
162 187 0
166 191 0
165 190 0
168 193 0
168 193 0
164 189 0
162 187 0
137 162 40
57 91 108
55 88 84
56 89 95
55 88 82
55 89 86
56 89 97
55 88 80
55 88 90
56 90 94
57 91 97
56 89 100
56 89 84
56 89 97
56 90 97
56 90 95
56 89 92
56 89 97
56 89 100
54 87 84
56 89 102
55 88 88
55 89 90
56 89 82
57 90 100
57 90 107
56 89 99
56 90 99
57 91 108
57 91 99
56 89 95
57 91 111
57 91 99
55 88 84
54 87 76
54 88 86
56 89 99
56 89 105
56 89 95
56 90 95
59 93 111
56 90 97
55 88 95
56 89 105
57 91 108
57 91 105
54 87 92
57 91 115
58 91 115
57 90 100
55 88 88
56 90 100
56 90 100
55 89 92
56 89 97
57 90 102
55 88 80
57 91 102
55 89 92
56 89 99
58 91 105
56 89 90
57 91 103
56 89 99
58 92 110
56 90 88
57 91 103
56 89 95
57 90 105
54 87 86
57 90 100
56 90 100
57 90 105
57 91 103
56 89 94
54 87 97
56 89 90
57 91 92
55 88 90
56 90 99
55 88 99
57 90 99
56 89 97
57 90 100
56 89 100
56 90 94
57 90 102
55 88 90
55 87 97
57 90 99
55 87 94
56 89 88
56 89 95
56 89 92
56 90 95
57 90 97
53 85 78
53 84 76
53 85 74
54 87 86
53 85 85
51 81 84
54 85 95
58 89 102
52 82 65
51 81 78
134 153 44
149 164 0
155 172 0
160 177 0
159 176 0
156 173 0
156 172 0
156 172 0
157 171 0
160 178 0
159 172 0
158 171 0
160 177 0
158 176 0
159 174 0
157 170 0
144 146 0
126 117 0
116 108 0
114 105 0
105 97 0
100 93 0
94 89 0
97 91 0
88 82 0
87 82 0
99 93 0
97 89 0
94 88 0
84 80 0
84 81 0
92 86 0
88 83 0
100 95 0
101 97 0
104 99 0
102 97 0
103 98 0
107 101 0
97 93 0
109 103 0
107 104 0
113 110 0
119 114 0
120 117 0
113 107 0
114 109 0
114 111 0
115 111 0
118 112 0
122 118 0
123 119 0
129 124 0
123 119 0
126 123 0
125 119 0
127 122 0
121 117 0
127 123 0
123 121 0
132 128 0
126 124 0
129 125 0
126 123 0
138 134 0
134 131 0
133 129 0
135 128 0
136 133 0
129 123 0
136 132 0
141 138 0
139 134 0
135 131 0
132 130 0
140 134 0
143 139 0
142 138 0
143 140 0
143 138 0
140 136 0
137 133 0
141 137 0
139 136 0
143 139 0
144 140 0
139 134 0
142 138 0
142 139 0
145 143 0
146 143 0
144 139 0
147 142 0
142 138 0
144 140 0
142 138 0
143 140 0
144 140 0
146 143 0
146 142 0
142 138 0
145 141 0
146 142 0
144 140 0
145 141 0
146 143 0
147 143 0
145 141 0
146 144 0
147 144 0
146 143 0
147 143 0
149 145 0
149 146 0
146 143 0
149 146 0
147 143 0
149 146 0
148 144 0
147 145 0
149 147 0
149 145 0
148 144 0
148 146 0
148 147 0
148 145 0
150 147 0
147 144 0
150 147 0
148 146 0
148 145 0
148 146 0
149 146 0
147 145 0
150 147 0
148 146 0
150 148 0
147 145 0
151 149 0
149 148 0
149 148 0
150 148 0
150 147 0
148 148 0
150 150 0
148 147 0
150 150 0
150 147 0
206 226 241
209 228 250
208 227 246
208 228 249
206 226 242
209 229 253
208 228 249
208 227 246
208 227 246
208 228 249
209 228 249
209 228 252
208 227 246
209 228 250
208 227 248
210 229 252
208 227 246
209 228 249
208 227 246
209 228 250
210 229 254
210 229 252
209 228 250
208 228 248
209 228 249
209 228 248
208 227 246
209 228 250
210 229 250
209 228 249
208 227 249
210 229 254
209 228 250
210 229 252
210 228 250
209 229 250
210 229 250
208 228 248
209 228 248
209 228 249
210 229 253
209 228 250
210 229 250
209 228 249
209 228 246
210 229 252
209 228 250
210 229 252
210 229 253
209 228 250
208 227 248
210 229 253
209 229 250
209 228 249
209 228 249
209 229 250
210 229 254
209 228 249
209 228 250
208 228 248
210 229 252
210 229 252
209 228 250
208 227 248
210 229 252
209 228 250
209 228 252
209 228 250
208 227 246
210 229 254
207 226 248
210 229 253
210 229 253
208 227 248
209 229 252
208 228 250
208 228 249
209 228 249
210 229 253
207 227 250
209 228 252
206 225 242
208 228 249
208 228 252
207 227 250
210 229 255
205 225 244
209 229 254
205 225 245
208 228 252
205 225 245
209 228 254
205 225 248
207 227 249
206 226 250
208 228 253
208 228 253
206 226 249
207 227 252
207 227 250
206 226 249
206 226 249
206 226 249
205 226 249
206 226 249
204 225 248
205 226 250
205 226 253
205 226 249
202 224 242
205 226 250
203 224 249
203 225 249
202 224 249
201 223 244
202 224 249
199 221 242
200 223 245
201 223 246
199 222 248
199 222 245
196 220 242
194 218 237
196 220 245
193 217 231
191 216 231
186 211 221
185 211 211
180 206 177
172 196 88
170 194 0
166 190 0
166 191 0
167 192 0
166 190 0
167 191 0
170 194 0
166 191 0
167 191 0
164 188 0
165 189 0
166 191 0
166 190 0
164 188 0
165 189 0
162 187 0
163 188 0
110 135 60
55 89 88
55 89 76
56 89 92
56 89 90
55 87 97
56 89 94
55 89 88
55 88 90
55 88 86
55 88 99
55 88 97
56 89 92
57 90 95
56 90 86
56 89 86
56 90 86
56 90 99
58 92 105
57 91 113
57 91 107
56 89 86
56 89 99
56 90 84
56 89 97
58 92 103
58 92 105
54 86 95
57 90 95
57 92 99
55 88 80
56 90 100
55 88 94
57 90 95
57 91 99
57 91 99
57 91 100
56 89 100
58 92 100
56 90 97
55 88 95
55 88 100
56 90 92
56 90 95
56 89 97
56 90 94
55 88 97
56 89 90
57 91 94
57 90 111
54 87 80
56 89 92
55 88 90
57 91 102
55 89 92
57 90 102
58 91 111
57 91 102
56 90 99
56 90 103
56 90 99
58 91 105
58 91 107
57 91 94
57 91 90
56 90 88
56 89 95
56 89 95
58 92 107
56 89 100
57 90 108
56 89 97
57 90 103
57 91 100
56 88 94
57 90 108
56 89 105
57 90 94
57 91 103
56 89 103
57 90 102
57 90 103
55 88 88
57 91 105
56 89 107
55 88 99
56 89 99
57 90 107
58 92 108
55 88 88
54 86 76
55 87 94
54 86 88
53 85 84
56 89 94
56 89 94
54 86 92
55 87 94
55 86 98
53 83 72
53 84 89
54 86 88
54 85 84
52 82 80
108 128 44
153 169 0
152 168 0
151 167 0
155 172 0
148 163 0
155 172 0
157 175 0
157 172 0
156 173 0
159 174 0
151 165 0
157 172 0
155 169 0
158 173 0
157 169 0
161 175 0
163 177 0
147 152 0
121 113 0
120 110 0
107 98 0
101 94 0
101 93 0
98 88 0
97 89 0
102 95 0
103 96 0
98 93 0
92 84 0
94 89 0
89 84 0
97 91 0
102 97 0
100 94 0
93 89 0
95 88 0
112 105 0
106 101 0
108 102 0
106 100 0
110 104 0
110 105 0
112 105 0
115 111 0
114 107 0
112 108 0
115 109 0
115 109 0
117 108 0
124 117 0
122 116 0
115 111 0
116 111 0
123 119 0
118 115 0
123 118 0
124 118 0
127 121 0
123 117 0
132 128 0
134 128 0
131 127 0
132 127 0
134 128 0
129 126 0
131 125 0
132 127 0
135 127 0
132 127 0
132 127 0
138 134 0
133 128 0
138 135 0
139 135 0
140 135 0
138 132 0
139 134 0
141 135 0
137 132 0
141 136 0
139 134 0
137 132 0
139 133 0
137 133 0
141 139 0
145 140 0
141 138 0
140 135 0
143 139 0
145 140 0
145 142 0
147 145 0
140 137 0
145 142 0
144 139 0
144 139 0
143 140 0
142 136 0
144 140 0
144 141 0
147 144 0
145 143 0
145 142 0
146 144 0
148 145 0
149 144 0
144 141 0
147 144 0
148 143 0
146 142 0
147 142 0
148 144 0
149 145 0
148 142 0
148 146 0
147 144 0
147 146 0
147 145 0
146 142 0
147 144 0
146 143 0
150 147 0
146 142 0
149 147 0
149 146 0
149 147 0
148 146 0
147 142 0
149 146 0
149 145 0
150 148 0
149 147 0
150 147 0
150 148 0
147 145 0
149 148 0
148 147 0
148 147 0
149 147 0
150 146 0
149 147 0
148 146 0
149 147 0
149 146 0
150 149 0
149 147 0
150 148 0
150 148 0
204 224 237
206 226 242
206 226 241
208 228 249
208 228 250
206 226 242
208 227 248
208 227 249
208 228 249
208 228 250
209 228 250
206 226 241
208 227 248
208 227 248
206 225 238
209 229 253
207 227 244
207 226 244
208 228 248
208 227 248
207 227 246
209 228 252
208 228 248
207 227 244
207 227 248
209 228 250
208 227 246
208 227 249
209 228 249
209 229 252
209 229 252
208 228 246
209 228 248
207 227 246
209 228 249
210 229 253
209 228 250
208 228 249
210 229 253
209 228 252
209 228 250
209 228 249
210 229 253
209 228 249
208 228 246
208 228 248
211 230 255
209 228 250
209 228 250
210 229 252
208 228 250
209 228 250
210 229 253
209 228 248
208 228 249
208 228 246
208 228 248
209 228 250
208 227 245
206 226 244
210 229 252
209 228 249
210 229 253
209 229 252
207 226 246
207 227 245
208 228 248
209 228 254
209 228 252
208 227 249
208 227 248
210 229 253
208 227 248
208 227 250
208 228 249
209 228 250
209 228 253
209 228 253
208 228 250
208 227 248
207 227 248
207 227 248
206 226 252
208 228 252
207 227 252
205 225 246
207 226 252
204 224 245
208 228 252
207 227 252
208 228 253
207 227 248
205 225 248
204 224 248
208 228 253
207 228 253
206 226 250
202 222 244
207 227 252
205 226 250
204 225 249
204 224 250
204 225 246
204 225 246
205 226 250
206 227 253
201 223 245
201 222 246
203 225 248
201 223 248
203 224 252
201 223 248
201 222 248
202 224 248
199 221 244
200 223 250
198 220 244
200 223 248
198 221 242
196 219 240
197 221 241
195 219 240
193 217 237
192 216 227
189 214 228
188 213 217
187 213 207
178 204 169
167 192 72
168 192 0
165 189 0
167 191 0
167 192 0
169 193 0
166 190 0
163 187 0
167 191 0
163 187 0
166 190 0
165 189 0
163 188 0
163 188 0
163 187 0
164 187 0
164 189 0
163 188 0
162 187 0
160 184 25
104 129 62
54 86 82
57 90 94
55 88 92
55 88 88
54 87 86
55 88 92
55 88 84
55 88 88
56 90 99
55 89 94
53 86 90
54 87 76
55 88 92
56 90 99
55 89 90
54 87 84
56 89 99
57 91 100
55 88 100
56 89 94
56 89 94
57 91 99
56 89 103
57 90 111
57 91 97
57 91 99
55 88 90
56 90 99
55 88 90
55 88 88
54 87 78
55 87 94
56 90 103
56 89 99
56 90 97
56 90 88
56 90 90
57 91 102
55 87 94
55 88 84
57 90 95
55 88 88
57 91 100
56 90 102
57 90 99
55 88 100
56 89 94
57 91 103
55 88 99
56 90 92
57 90 103
58 92 105
58 92 105
56 90 103
56 90 107
56 90 94
55 88 94
57 91 103
57 90 99
55 89 88
57 91 105
56 90 99
55 88 94
55 87 86
55 88 100
56 90 100
56 90 94
55 89 84
56 90 103
56 89 95
57 91 102
57 91 105
56 89 95
55 88 100
57 90 100
56 89 92
55 89 90
56 89 94
55 88 90
57 91 99
55 88 84
57 90 97
55 88 86
55 88 90
56 89 92
54 86 78
56 90 99
55 88 97
56 88 100
52 85 72
52 84 80
53 86 86
55 87 90
56 89 100
54 86 86
54 86 89
53 84 76
53 84 70
52 83 68
54 85 90
54 85 77
82 103 57
146 163 0
154 169 0
151 168 0
146 159 0
147 163 0
150 163 0
155 172 0
152 167 0
153 165 0
152 164 0
149 161 0
151 165 0
157 172 0
155 169 0
157 170 0
158 170 0
155 165 0
158 165 0
153 163 0
149 156 0
122 113 0
112 101 0
104 96 0
100 92 0
106 96 0
99 93 0
96 89 0
89 81 0
86 79 0
92 84 0
91 84 0
101 93 0
101 96 0
96 90 0
94 88 0
98 93 0
102 93 0
96 91 0
101 96 0
97 91 0
91 87 0
97 93 0
112 104 0
102 96 0
103 97 0
108 104 0
111 106 0
115 110 0
109 103 0
121 115 0
114 108 0
114 108 0
126 119 0
117 112 0
126 121 0
121 115 0
126 119 0
123 117 0
128 121 0
125 121 0
128 125 0
126 121 0
129 123 0
136 130 0
128 124 0
132 127 0
127 120 0
133 127 0
128 122 0
137 133 0
136 131 0
133 128 0
135 131 0
141 133 0
135 132 0
138 132 0
139 135 0
136 130 0
138 135 0
139 136 0
142 138 0
142 138 0
141 136 0
141 138 0
143 136 0
143 139 0
138 134 0
144 139 0
143 139 0
141 139 0
140 136 0
141 134 0
138 133 0
143 137 0
143 140 0
146 142 0
142 139 0
142 137 0
147 144 0
145 140 0
147 142 0
147 144 0
144 140 0
146 141 0
146 143 0
146 143 0
146 143 0
145 140 0
148 145 0
146 141 0
148 144 0
148 145 0
143 138 0
148 145 0
148 145 0
148 146 0
148 142 0
144 141 0
148 144 0
149 147 0
149 146 0
149 146 0
148 145 0
149 146 0
148 146 0
149 146 0
149 144 0
147 145 0
148 145 0
147 143 0
148 145 0
149 145 0
150 149 0
148 145 0
149 144 0
149 146 0
150 146 0
149 147 0
149 146 0
150 148 0
149 148 0
149 147 0
150 147 0
150 148 0
149 148 0
149 148 0
149 147 0
149 147 0
149 148 0
207 227 246
206 226 244
206 225 242
205 226 244
207 227 246
206 226 242
206 226 244
207 227 248
207 227 246
206 226 246
209 228 253
207 226 244
207 227 245
208 227 248
206 226 242
206 226 241
208 227 248
207 226 246
208 228 250
208 227 248
207 227 246
208 228 250
208 227 248
209 229 253
209 228 252
208 227 248
209 228 252
208 228 249
209 229 253
208 228 249
208 227 248
207 226 246
209 228 252
209 228 249
208 228 249
209 228 252
209 229 253
209 228 250
208 228 249
208 227 249
208 228 250
209 228 250
208 227 248
209 228 250
209 228 250
208 228 250
210 229 253
210 229 253
209 228 249
208 228 249
207 227 244
209 228 252
208 228 249
208 228 249
208 228 248
209 228 250
208 228 249
209 228 253
209 228 250
208 227 250
209 228 250
208 227 246
209 228 253
210 229 254
208 228 250
207 227 249
208 228 252
208 228 249
208 227 250
208 228 252
208 228 248
208 228 250
207 227 248
207 227 246
209 228 253
207 226 246
207 226 246
207 227 250
208 227 249
205 225 244
207 227 249
207 227 250
207 227 250
207 227 249
207 227 248
207 227 249
207 227 250
205 225 244
208 228 254
205 225 248
205 225 249
206 226 250
206 227 252
207 227 253
206 226 252
206 226 252
207 227 253
206 227 250
204 225 249
206 227 254
206 227 253
204 225 249
204 225 249
203 224 249
204 225 249
205 226 252
203 224 250
202 224 246
201 223 248
201 223 246
201 223 248
201 223 249
200 222 244
199 222 246
197 220 240
197 220 241
200 223 249
197 220 244
199 222 248
196 219 244
188 213 221
192 217 238
191 216 228
187 213 218
187 212 224
182 208 203
174 200 149
169 194 67
169 193 0
166 191 0
162 187 0
166 191 0
166 190 0
164 189 0
165 190 0
166 190 0
166 190 0
165 190 0
163 188 0
161 185 0
169 193 0
161 185 0
160 184 0
164 189 0
165 190 0
161 184 0
159 183 0
162 186 0
160 185 18
74 103 88
56 90 90
56 89 92
55 88 74
55 88 84
54 86 82
56 89 95
57 91 100
56 90 95
56 90 95
57 91 102
56 89 92
54 87 78
54 87 88
56 89 90
56 89 94
56 89 94
54 87 90
54 87 76
53 85 82
56 90 97
55 88 94
55 89 86
56 89 102
56 89 99
57 90 103
55 89 86
57 91 97
55 89 84
55 88 86
57 90 100
54 88 86
55 88 99
56 90 97
57 91 102
56 90 95
55 89 88
55 88 78
58 92 107
55 88 90
57 91 108
56 90 94
56 90 99
57 90 97
55 89 88
57 91 102
57 91 105
56 90 95
57 91 108
56 89 90
56 90 97
56 89 92
57 90 105
55 88 86
57 91 94
57 91 102
57 90 113
56 89 107
55 89 99
56 90 92
57 91 105
54 87 88
56 90 95
54 87 92
57 90 102
54 87 88
53 86 78
56 89 95
57 90 103
55 88 100
55 88 90
55 89 94
56 90 95
57 90 94
56 90 92
56 89 97
57 90 99
56 89 100
53 85 80
55 87 97
55 87 86
54 86 88
54 87 90
55 88 97
53 85 90
52 83 80
55 88 90
53 85 78
56 88 99
54 86 90
52 83 80
54 86 88
54 86 95
55 88 84
52 83 72
51 82 67
53 83 88
53 84 78
52 83 79
50 80 62
69 94 67
140 157 0
144 159 0
152 167 0
148 165 0
146 159 0
156 171 0
147 161 0
154 166 0
152 166 0
149 160 0
145 156 0
152 164 0
145 158 0
148 161 0
146 156 0
152 164 0
154 166 0
156 167 0
149 161 0
150 162 0
154 164 0
150 155 0
124 117 0
108 95 0
106 98 0
100 90 0
105 96 0
95 89 0
88 80 0
90 82 0
92 86 0
80 73 0
91 85 0
96 87 0
98 91 0
95 88 0
93 87 0
104 98 0
104 96 0
101 94 0
111 106 0
104 96 0
106 99 0
105 98 0
108 103 0
100 94 0
106 98 0
112 104 0
110 103 0
115 107 0
117 111 0
112 106 0
118 113 0
125 120 0
126 119 0
122 115 0
119 112 0
122 115 0
127 122 0
121 115 0
128 120 0
135 127 0
134 130 0
124 119 0
134 129 0
130 125 0
133 127 0
132 125 0
132 126 0
133 129 0
133 128 0
131 126 0
132 127 0
136 131 0
138 131 0
133 127 0
141 135 0
140 135 0
135 128 0
139 134 0
137 132 0
143 138 0
142 135 0
141 136 0
143 136 0
140 134 0
142 136 0
139 134 0
142 136 0
137 133 0
139 134 0
141 136 0
143 137 0
142 139 0
141 136 0
143 137 0
143 140 0
142 137 0
146 142 0
144 139 0
142 138 0
143 139 0
144 139 0
144 139 0
143 137 0
145 139 0
141 137 0
146 143 0
144 139 0
146 141 0
146 140 0
144 139 0
146 142 0
149 146 0
145 140 0
148 145 0
146 142 0
146 143 0
148 145 0
147 143 0
147 144 0
147 143 0
147 143 0
148 144 0
148 143 0
148 142 0
148 146 0
148 145 0
148 144 0
148 144 0
148 145 0
146 142 0
146 145 0
148 145 0
149 146 0
148 145 0
147 144 0
150 147 0
150 147 0
149 145 0
150 145 0
150 147 0
148 146 0
149 146 0
150 147 0
149 147 0
148 145 0
149 146 0
149 147 0
149 148 0
205 225 242
205 226 244
206 226 246
205 225 241
206 226 244
204 225 238
205 226 242
207 227 246
206 226 246
206 226 244
207 227 249
206 226 245
208 228 252
208 228 253
207 227 248
205 225 242
208 228 252
208 228 253
208 228 250
207 227 249
206 226 245
207 227 245
205 225 238
206 226 246
208 227 248
208 228 250
207 227 249
208 228 250
209 228 253
208 228 250
207 227 246
208 228 249
207 227 246
208 228 250
207 227 246
207 227 250
209 229 254
209 228 252
207 227 248
208 228 248
208 227 248
207 227 246
209 229 252
210 229 254
210 229 253
208 228 250
208 228 250
209 228 250
207 227 245
209 228 252
209 229 254
208 228 249
207 227 250
209 228 252
207 227 245
209 228 252
209 229 254
208 227 249
209 228 252
208 228 250
207 227 248
208 228 252
209 229 254
206 226 244
209 229 254
209 228 252
208 228 254
209 228 253
209 228 253
208 227 252
207 227 248
208 228 249
205 225 244
207 227 250
207 227 252
207 227 248
206 226 248
208 228 252
208 228 253
207 227 250
204 224 246
204 225 245
206 226 248
207 227 253
205 225 246
206 227 249
207 227 253
207 227 250
207 227 252
208 228 255
205 225 249
205 226 250
205 226 252
206 227 253
205 226 249
206 226 249
206 227 253
206 226 253
203 224 250
201 222 244
201 223 248
201 223 245
201 223 248
202 224 252
201 223 242
201 223 244
201 222 248
199 221 245
201 223 246
202 224 253
199 222 246
200 222 248
198 221 245
197 220 244
198 221 244
197 221 244
197 221 245
195 219 240
190 214 231
193 217 236
192 217 236
190 214 221
185 210 215
186 212 218
177 203 171
171 196 128
166 191 25
167 191 0
167 192 0
161 186 0
165 190 0
168 192 0
164 188 0
165 189 0
163 188 0
167 192 0
167 191 0
161 186 0
160 184 0
165 189 0
163 188 0
160 183 0
162 186 0
164 187 0
158 182 0
163 188 0
156 180 0
156 180 0
159 183 0
140 164 40
61 92 84
55 88 82
55 87 82
56 89 88
54 86 70
54 87 76
55 88 92
55 88 92
53 86 80
55 88 92
56 90 92
55 88 97
52 84 78
55 87 86
56 90 86
56 89 92
55 88 94
55 88 78
54 88 82
55 88 90
56 89 90
57 90 102
56 89 88
56 89 86
56 89 86
55 89 84
54 87 86
56 89 90
55 88 92
58 91 107
56 89 102
56 89 97
54 87 90
57 91 99
57 91 99
55 89 84
54 87 80
58 91 107
57 91 92
54 87 84
55 89 92
55 89 90
56 89 88
56 90 88
56 90 88
56 89 99
57 90 92
55 88 94
54 87 88
55 88 92
54 87 78
55 88 78
54 87 92
57 90 103
55 89 88
54 87 90
56 90 100
58 92 113
57 90 94
56 90 102
57 90 102
55 87 80
53 85 74
55 88 94
55 88 92
57 92 100
55 88 94
56 90 100
56 89 94
58 92 103
55 89 92
55 88 88
54 87 82
54 87 97
56 89 94
52 84 76
56 89 99
53 85 76
55 88 92
54 87 84
53 85 78
54 86 78
55 88 90
54 87 65
57 91 103
54 87 90
54 87 82
53 85 84
54 86 100
54 86 78
54 85 78
54 86 82
52 84 70
51 82 65
51 82 78
52 82 72
54 85 87
52 82 70
55 84 85
128 145 18
146 157 0
146 160 0
144 159 0
144 161 0
141 152 0
142 153 0
142 155 0
136 146 0
144 156 0
145 161 0
147 159 0
149 157 0
144 155 0
147 157 0
141 150 0
149 160 0
150 158 0
152 163 0
149 160 0
148 158 0
153 162 0
147 153 0
149 156 0
122 113 0
109 95 0
101 91 0
98 90 0
93 85 0
87 79 0
96 86 0
95 85 0
89 80 0
91 83 0
94 84 0
99 93 0
98 89 0
96 89 0
97 91 0
101 93 0
101 93 0
95 87 0
112 104 0
105 99 0
105 97 0
114 106 0
114 106 0
108 101 0
115 109 0
111 107 0
112 105 0
106 99 0
119 112 0
113 106 0
118 112 0
110 104 0
122 116 0
124 116 0
124 117 0
117 111 0
126 116 0
127 119 0
124 118 0
129 122 0
132 125 0
131 125 0
133 124 0
129 124 0
131 126 0
137 132 0
129 123 0
137 129 0
137 132 0
135 129 0
141 137 0
140 135 0
133 128 0
140 136 0
137 132 0
146 142 0
136 131 0
139 134 0
140 133 0
137 130 0
134 128 0
134 130 0
143 137 0
141 135 0
146 142 0
139 134 0
141 136 0
139 134 0
139 134 0
143 135 0
143 137 0
143 139 0
146 140 0
144 140 0
144 137 0
145 138 0
146 141 0
148 145 0
142 137 0
146 142 0
144 139 0
147 142 0
145 141 0
148 143 0
143 139 0
144 140 0
144 139 0
147 142 0
146 141 0
146 143 0
146 142 0
147 143 0
147 144 0
147 142 0
147 142 0
146 142 0
146 143 0
147 144 0
147 143 0
148 145 0
149 144 0
146 142 0
146 141 0
150 146 0
148 144 0
148 145 0
148 145 0
148 143 0
149 145 0
149 147 0
148 144 0
148 145 0
150 147 0
145 142 0
149 146 0
148 146 0
148 146 0
148 146 0
149 145 0
148 144 0
149 144 0
149 145 0
151 148 0
149 146 0
150 147 0
149 146 0
149 146 0
204 225 240
206 227 249
204 224 238
204 224 238
205 225 242
205 225 241
204 224 237
205 225 242
204 224 241
206 226 244
206 226 245
205 226 244
207 227 248
206 226 244
206 226 246
207 227 250
206 226 244
207 227 248
207 227 246
208 228 250
207 226 245
206 227 246
207 227 248
205 226 241
207 227 249
208 228 250
209 228 253
206 226 245
207 227 248
207 227 249
208 228 250
208 228 250
206 226 248
207 227 246
206 226 248
207 227 248
208 228 253
207 227 249
208 228 250
208 228 253
207 227 248
207 227 248
208 228 250
209 228 253
209 228 253
206 226 244
209 228 253
208 227 249
207 227 249
208 228 250
208 228 252
206 226 248
208 227 250
208 228 250
208 227 250
206 227 246
207 227 248
206 226 246
207 227 249
206 226 248
208 227 253
208 228 254
207 227 248
207 227 252
207 227 249
208 228 252
208 228 252
207 227 250
207 227 250
207 227 249
206 226 246
208 228 253
208 227 250
206 226 250
207 227 250
206 226 248
206 227 249
207 228 253
206 226 245
207 227 252
207 227 252
205 225 246
205 226 246
205 226 249
206 227 250
205 226 252
207 228 254
206 226 252
205 225 252
207 227 254
205 226 250
205 226 249
204 225 248
203 224 246
203 225 248
203 224 248
206 227 255
204 225 250
204 225 248
204 225 250
202 223 246
202 224 250
202 223 249
203 225 248
202 224 250
202 225 249
199 222 244
201 224 250
200 222 248
198 221 244
200 222 242
198 221 245
197 220 242
198 222 250
195 219 242
195 219 242
193 217 240
195 220 240
192 217 231
190 215 230
189 215 227
185 211 212
177 203 188
180 206 186
170 195 99
170 195 0
167 192 0
166 191 0
171 195 0
161 186 0
163 188 0
164 189 0
165 190 0
164 189 0
167 191 0
163 188 0
166 191 0
162 186 0
161 185 0
157 181 0
161 185 0
160 184 0
163 188 0
159 183 0
157 181 0
158 182 0
159 183 0
158 182 0
160 184 0
159 183 0
121 145 36
56 89 80
53 86 74
53 85 78
54 87 82
55 88 84
55 88 88
56 89 90
54 87 80
54 86 90
54 87 78
56 90 95
55 88 94
54 87 80
56 89 90
54 87 94
54 87 88
56 90 90
57 90 97
55 89 84
54 87 70
57 91 100
55 88 84
55 88 78
53 86 84
55 88 82
55 88 82
57 90 105
55 87 88
55 88 90
56 89 102
55 89 90
55 89 90
56 89 78
55 88 90
54 87 80
56 90 99
54 87 78
56 89 95
55 88 76
54 87 78
56 90 95
52 84 80
56 89 95
55 88 94
56 89 97
56 89 97
56 88 100
56 89 94
57 91 103
56 89 99
55 88 86
55 88 92
55 88 92
57 90 92
54 87 86
55 89 82
56 89 97
55 88 88
57 91 88
56 90 105
55 88 92
54 86 88
55 88 90
52 84 74
57 91 102
57 90 95
54 86 92
55 88 84
55 89 94
55 88 92
55 88 94
54 87 86
54 86 88
55 88 88
55 89 88
55 88 90
55 87 95
51 82 80
56 90 100
56 89 100
55 88 76
53 85 84
54 86 82
54 86 78
54 86 88
55 88 92
54 86 84
53 85 76
54 87 85
56 89 92
53 86 86
54 86 75
53 84 86
54 85 86
54 85 90
49 78 62
48 75 71
119 137 44
139 150 0
141 158 0
133 147 0
136 146 0
138 151 0
137 149 0
142 154 0
139 150 0
136 150 0
132 143 0
144 155 0
148 160 0
143 154 0
145 156 0
138 145 0
149 162 0
152 160 0
146 153 0
148 157 0
146 156 0
145 148 0
149 154 0
146 150 0
144 153 0
150 158 0
140 139 0
104 91 0
102 90 0
91 79 0
86 78 0
92 80 0
97 86 0
85 78 0
84 78 0
86 79 0
100 89 0
88 80 0
99 91 0
97 89 0
86 80 0
96 91 0
98 87 0
95 86 0
109 99 0
112 105 0
109 101 0
107 100 0
107 101 0
111 106 0
117 110 0
118 113 0
109 102 0
105 96 0
121 114 0
123 116 0
121 112 0
120 115 0
125 116 0
119 112 0
124 117 0
126 120 0
123 114 0
130 122 0
124 116 0
132 124 0
129 123 0
125 119 0
134 128 0
128 120 0
129 121 0
134 127 0
135 130 0
130 122 0
136 129 0
136 130 0
136 128 0
136 130 0
138 132 0
133 126 0
139 134 0
140 135 0
138 132 0
141 135 0
141 134 0
141 136 0
140 134 0
139 132 0
143 136 0
140 134 0
144 135 0
140 134 0
142 135 0
141 135 0
141 136 0
138 133 0
142 136 0
139 133 0
141 135 0
144 134 0
142 138 0
145 139 0
142 138 0
139 134 0
148 142 0
146 142 0
147 141 0
143 138 0
146 141 0
142 139 0
144 136 0
147 142 0
147 143 0
146 142 0
146 141 0
142 138 0
144 141 0
145 143 0
147 143 0
148 143 0
143 138 0
147 142 0
146 142 0
149 146 0
146 140 0
146 138 0
146 143 0
146 142 0
148 143 0
148 144 0
148 145 0
146 140 0
149 145 0
147 143 0
146 143 0
147 143 0
149 143 0
148 145 0
148 144 0
148 145 0
149 143 0
147 144 0
149 145 0
148 145 0
149 146 0
150 146 0
150 146 0
149 147 0
149 146 0
150 146 0
150 148 0
148 146 0
204 225 242
205 226 245
204 224 244
203 224 238
203 224 236
205 225 244
204 225 242
205 225 242
207 228 253
207 227 250
206 226 248
205 225 242
204 225 241
206 226 245
205 226 244
203 224 234
206 226 246
206 226 245
206 227 248
207 227 250
203 224 234
206 227 248
205 226 244
207 227 250
207 227 249
207 227 249
206 227 246
205 226 244
206 226 245
207 227 250
207 227 248
207 227 246
208 228 253
206 226 246
207 227 249
208 228 253
207 227 248
207 227 248
208 228 253
206 226 245
208 228 253
208 228 250
206 226 246
207 227 248
206 226 248
207 227 252
208 228 253
208 228 252
207 227 248
209 229 255
207 227 248
207 227 248
205 225 246
209 229 255
207 227 248
206 226 249
207 227 248
203 223 238
208 228 253
208 227 250
207 227 252
207 227 248
208 228 252
208 228 253
205 226 244
206 227 250
206 226 249
204 224 245
206 227 249
206 226 248
206 226 249
206 227 249
206 226 250
207 227 253
206 227 249
206 226 248
206 227 249
207 227 253
204 225 245
206 227 250
205 226 249
205 226 248
206 226 249
203 224 245
207 227 254
207 227 254
205 225 249
204 225 249
204 225 249
203 224 245
203 225 248
202 223 248
205 226 252
204 225 250
203 225 248
202 224 244
201 223 246
204 226 253
204 226 252
204 225 250
203 225 250
204 226 255
202 224 252
202 224 250
202 224 252
197 219 241
197 219 240
200 223 246
199 222 248
195 218 240
194 218 238
198 221 245
196 219 240
195 219 242
194 219 238
195 219 246
194 219 240
192 217 236
189 214 230
185 211 217
186 212 206
175 201 189
176 202 165
167 192 51
168 193 0
166 191 0
163 188 0
164 190 0
167 192 0
166 192 0
167 191 0
161 186 0
165 190 0
161 185 0
157 182 0
163 187 0
162 186 0
160 184 0
156 181 0
158 182 0
159 183 0
161 186 0
158 182 0
155 179 0
156 180 0
160 183 0
155 179 0
156 180 0
152 176 0
160 183 0
152 174 0
125 150 60
52 83 76
54 87 82
54 87 84
55 88 90
54 87 78
54 87 84
53 86 76
55 88 88
54 86 94
54 87 76
55 87 92
53 85 70
54 86 76
54 87 90
55 88 90
55 87 95
55 88 90
55 88 84
55 89 90
55 88 88
53 85 72
58 92 103
55 88 94
55 89 92
55 89 88
54 86 82
54 87 78
55 89 88
54 87 82
57 90 105
57 90 100
56 89 97
57 91 110
54 86 92
57 90 103
55 89 86
53 86 86
54 87 78
55 88 80
56 89 103
54 86 90
55 88 82
54 87 88
55 88 92
55 88 88
55 89 84
55 88 92
55 88 86
56 89 95
56 90 90
55 87 88
54 87 92
56 90 97
56 89 92
56 89 90
54 87 67
54 87 86
55 89 88
57 90 100
56 89 97
57 90 102
57 91 102
56 89 99
56 89 95
54 86 84
57 90 95
55 88 67
54 87 82
54 87 78
53 85 84
52 85 72
55 88 95
55 88 90
54 87 97
56 89 94
53 85 84
54 87 95
56 89 95
54 86 92
56 89 99
55 88 94
54 85 82
53 85 70
54 86 72
53 84 82
55 88 90
54 85 94
52 84 75
56 89 97
51 82 74
53 84 88
52 83 78
51 81 76
50 80 60
50 80 65
94 112 44
130 146 0
128 140 0
130 146 0
134 147 0
136 148 0
129 142 0
139 153 0
135 146 0
140 151 0
140 154 0
135 145 0
140 149 0
136 145 0
141 151 0
143 152 0
143 148 0
134 145 0
141 146 0
140 144 0
136 140 0
143 148 0
143 148 0
139 145 0
140 146 0
143 150 0
137 138 0
141 143 0
134 134 0
113 104 0
100 89 0
110 95 0
88 76 0
85 74 0
87 78 0
93 81 0
90 81 0
89 81 0
103 91 0
92 84 0
97 89 0
85 79 0
102 92 0
102 92 0
104 96 0
96 87 0
107 100 0
105 96 0
107 99 0
104 96 0
113 106 0
110 100 0
111 103 0
109 101 0
119 109 0
118 108 0
124 115 0
115 105 0
114 108 0
126 118 0
130 123 0
124 114 0
120 111 0
124 116 0
124 118 0
123 117 0
122 115 0
120 110 0
132 124 0
129 122 0
135 128 0
130 120 0
127 119 0
132 124 0
140 129 0
130 123 0
136 129 0
132 125 0
137 129 0
138 130 0
136 128 0
135 128 0
131 124 0
142 133 0
136 130 0
136 129 0
141 137 0
136 130 0
136 129 0
140 135 0
141 134 0
141 136 0
137 131 0
141 134 0
140 135 0
143 138 0
141 134 0
142 137 0
144 138 0
142 135 0
147 142 0
140 134 0
143 137 0
146 141 0
146 141 0
143 136 0
145 138 0
145 140 0
144 136 0
144 139 0
143 137 0
145 138 0
147 142 0
145 139 0
146 141 0
145 140 0
145 141 0
148 145 0
146 140 0
145 140 0
146 140 0
145 140 0
147 141 0
146 142 0
146 143 0
145 142 0
146 143 0
148 144 0
148 144 0
146 141 0
150 147 0
148 142 0
149 145 0
148 145 0
150 146 0
146 143 0
145 141 0
149 144 0
147 143 0
149 146 0
147 143 0
150 145 0
146 142 0
146 143 0
147 144 0
150 147 0
148 146 0
148 145 0
147 144 0
149 145 0
150 146 0
147 145 0
149 146 0
201 222 233
204 225 244
203 224 240
204 225 242
205 226 245
202 224 237
205 226 246
205 226 246
205 225 244
205 225 245
204 225 242
204 225 242
205 225 244
206 226 248
206 226 250
205 226 246
206 226 248
207 227 250
204 225 241
207 227 250
207 227 250
205 225 244
207 227 249
205 225 244
206 226 246
204 225 244
207 227 249
204 225 244
207 227 249
205 226 245
207 227 250
207 227 250
205 225 244
207 228 253
207 227 250
206 226 245
206 226 249
207 227 252
206 227 248
206 227 248
204 225 245
205 225 246
208 228 253
208 228 253
208 228 253
206 226 246
207 227 252
206 226 250
207 227 249
206 226 244
207 227 249
207 228 253
206 226 245
206 227 249
206 226 248
207 227 252
206 227 249
206 226 246
207 227 249
206 227 248
205 226 248
205 226 246
205 226 246
207 227 252
206 227 253
204 225 244
207 227 250
207 227 250
206 226 248
206 226 253
205 225 246
205 226 249
206 226 248
206 227 252
205 226 249
206 226 252
206 227 253
206 227 250
206 227 253
205 226 249
206 227 253
204 225 248
204 225 248
204 225 250
205 226 249
205 226 252
206 227 254
203 225 246
203 224 250
204 225 250
205 226 253
204 226 252
201 223 248
202 224 248
202 224 248
204 226 253
201 222 248
201 223 248
202 224 252
200 223 244
202 224 248
200 222 246
201 223 249
200 223 244
198 221 240
199 222 245
200 223 249
198 222 242
198 221 249
197 220 245
195 219 242
196 220 241
194 218 242
195 219 242
192 217 238
190 215 234
191 216 241
190 215 231
183 209 215
179 205 207
179 205 189
170 196 133
164 190 0
167 192 0
166 192 0
164 190 0
163 188 0
165 190 0
166 191 0
165 190 0
165 191 0
165 190 0
163 187 0
161 185 0
164 189 0
160 184 0
166 190 0
157 181 0
152 176 0
156 180 0
155 179 0
161 185 0
154 178 0
160 183 0
153 177 0
153 177 0
154 178 0
151 175 0
145 169 0
149 173 0
152 175 0
148 172 0
117 140 36
54 87 80
51 83 65
51 82 82
54 87 82
50 82 62
54 87 67
54 86 88
52 84 72
52 84 74
55 88 84
53 86 80
54 86 84
53 85 88
54 86 84
54 88 84
54 87 80
53 86 76
55 88 92
53 86 72
55 89 86
55 89 90
56 88 99
56 90 100
55 88 94
54 87 92
54 86 76
53 86 80
55 88 95
54 86 86
56 90 99
55 88 95
55 89 82
56 90 100
55 88 80
54 87 84
56 89 92
54 87 70
54 87 90
55 88 84
54 87 84
55 88 88
55 88 80
55 88 84
54 87 74
54 86 88
56 89 107
55 88 90
55 88 78
57 90 100
53 85 95
55 88 100
56 90 94
58 91 103
54 86 92
54 86 76
56 89 90
53 85 88
55 88 80
55 87 90
55 89 88
56 90 97
53 86 82
54 87 90
55 88 94
54 88 82
55 88 86
53 85 82
56 89 94
55 87 95
54 87 86
53 85 79
53 85 82
56 89 99
55 88 86
54 86 78
54 87 84
55 89 90
54 87 77
53 86 67
54 86 90
53 85 80
53 86 76
54 86 84
55 88 82
53 84 90
55 87 88
54 86 86
52 83 72
50 80 65
54 85 84
50 80 82
53 84 76
48 78 60
92 112 47
129 143 0
131 144 0
131 145 0
133 148 0
128 140 0
132 146 0
133 144 0
135 147 0
129 135 0
139 155 0
131 141 0
126 134 0
126 135 0
140 152 0
134 143 0
136 144 0
132 139 0
134 139 0
134 140 0
143 147 0
126 132 0
137 138 0
129 131 0
142 144 0
136 137 0
141 146 0
135 136 0
141 140 0
138 137 0
145 144 0
114 104 0
97 83 0
89 77 0
90 79 0
96 84 0
86 74 0
86 75 0
87 80 0
93 83 0
94 84 0
93 82 0
93 84 0
98 88 0
89 79 0
106 97 0
102 93 0
102 94 0
99 89 0
106 96 0
104 95 0
111 104 0
110 100 0
115 105 0
120 111 0
122 111 0
112 104 0
114 104 0
113 105 0
123 113 0
116 105 0
118 108 0
120 113 0
124 117 0
123 116 0
123 116 0
129 121 0
127 117 0
129 118 0
132 123 0
127 120 0
128 119 0
134 126 0
127 119 0
132 124 0
135 128 0
135 129 0
131 122 0
134 123 0
131 125 0
130 122 0
141 134 0
131 125 0
135 129 0
138 131 0
137 131 0
140 133 0
143 136 0
137 132 0
141 133 0
138 132 0
141 135 0
141 132 0
141 133 0
139 134 0
135 130 0
137 130 0
143 136 0
146 137 0
144 139 0
137 130 0
143 136 0
145 138 0
145 141 0
147 140 0
146 140 0
144 138 0
146 140 0
143 136 0
146 141 0
144 138 0
149 143 0
142 139 0
145 140 0
146 140 0
147 141 0
145 140 0
143 137 0
145 139 0
146 138 0
147 141 0
147 141 0
145 141 0
144 139 0
146 141 0
147 143 0
146 141 0
147 143 0
148 144 0
145 141 0
149 145 0
147 142 0
148 144 0
147 143 0
147 144 0
148 142 0
148 142 0
148 144 0
148 143 0
148 145 0
149 144 0
146 143 0
149 145 0
148 146 0
149 145 0
150 146 0
148 144 0
148 143 0
150 148 0
150 147 0
149 145 0
147 143 0
148 143 0
149 145 0
202 223 236
203 224 241
203 224 240
203 224 240
202 223 237
202 224 238
203 224 240
204 225 245
204 225 245
202 223 234
203 224 240
203 224 238
204 225 242
205 226 248
206 226 249
204 225 244
204 225 242
205 225 245
204 225 244
205 226 246
205 226 248
206 226 248
205 225 245
206 226 250
207 227 252
204 225 245
205 226 246
205 226 246
206 227 250
206 226 248
204 224 240
206 227 250
207 227 253
206 227 250
206 226 246
206 227 249
206 226 248
203 224 240
207 227 252
206 227 252
207 228 253
206 227 250
205 226 245
206 227 250
205 226 246
205 226 248
203 224 242
207 227 250
206 226 246
207 228 253
207 227 252
207 227 253
205 226 249
207 227 252
206 227 250
206 227 252
207 227 252
205 226 249
203 224 242
205 226 250
205 226 246
206 226 248
205 225 248
205 226 246
206 226 249
207 227 254
204 225 245
204 225 241
205 225 248
202 223 242
206 227 253
205 225 249
205 225 250
205 226 250
204 225 249
206 227 252
205 226 248
206 227 253
205 226 250
205 226 252
205 226 252
203 224 246
204 225 249
202 224 240
204 226 253
201 223 245
202 224 249
203 224 248
202 223 242
200 222 245
201 222 240
201 223 245
201 223 245
202 224 249
201 223 249
201 224 245
202 224 252
203 225 253
199 222 241
200 222 244
201 224 249
200 223 248
201 224 250
199 222 246
198 222 245
197 221 244
200 223 250
197 221 252
195 219 240
195 219 242
194 219 242
193 217 240
195 220 242
193 218 238
192 218 240
189 215 233
183 209 212
184 211 212
181 207 201
174 201 153
165 191 84
163 189 0
166 192 0
162 188 0
163 189 0
164 190 0
165 191 0
156 182 0
158 182 0
160 185 0
161 186 0
157 182 0
164 189 0
159 183 0
163 188 0
162 186 0
160 184 0
159 183 0
157 181 0
157 182 0
161 185 0
151 175 0
157 181 0
152 176 0
153 176 0
152 176 0
151 175 0
141 165 0
140 163 0
147 170 0
152 176 0
145 168 0
139 162 0
108 131 44
53 85 82
54 87 78
53 86 80
53 84 74
55 88 82
53 86 82
53 85 86
54 87 84
51 83 65
54 87 84
55 88 95
54 88 88
53 86 78
55 88 94
56 89 95
54 87 86
54 87 82
53 85 88
56 90 90
54 86 90
53 86 84
55 89 82
56 90 94
54 87 82
55 88 82
54 87 80
54 87 78
55 88 84
54 86 82
54 87 76
53 85 90
56 89 88
55 87 90
56 89 94
56 89 107
55 88 84
56 89 103
55 87 92
55 88 78
55 88 82
53 85 86
54 87 84
55 88 90
54 86 88
55 88 92
55 88 94
55 88 86
56 89 86
54 87 99
54 87 80
56 89 86
55 88 86
55 88 90
53 85 67
55 88 80
55 88 95
54 87 90
54 86 84
55 87 92
55 89 88
55 89 88
55 87 102
55 87 95
55 88 86
52 84 62
53 85 90
54 86 70
53 85 92
55 88 86
52 84 78
55 87 90
54 87 82
53 85 80
55 87 86
55 88 88
54 86 74
53 86 80
56 89 97
55 89 86
52 84 76
52 84 81
56 89 84
52 84 74
53 84 76
51 83 74
51 81 72
51 81 67
51 82 57
49 79 72
49 79 62
51 81 70
87 105 54
123 137 0
109 119 0
125 137 0
130 144 0
130 143 0
127 140 0
129 144 0
129 137 0
130 140 0
127 139 0
123 131 0
126 135 0
132 143 0
127 136 0
125 134 0
123 130 0
136 141 0
123 129 0
136 138 0
139 146 0
129 130 0
140 144 0
130 134 0
133 137 0
136 140 0
139 144 0
136 135 0
135 137 0
130 129 0
136 137 0
128 129 0
136 135 0
119 113 0
102 89 0
94 80 0
98 83 0
80 67 0
86 74 0
84 73 0
88 75 0
97 84 0
93 85 0
92 82 0
107 97 0
94 85 0
97 88 0
96 87 0
104 92 0
110 100 0
102 94 0
101 90 0
104 95 0
109 99 0
101 91 0
111 101 0
114 105 0
112 106 0
114 106 0
112 102 0
123 114 0
123 113 0
119 110 0
118 108 0
115 108 0
122 112 0
126 117 0
119 112 0
123 114 0
129 122 0
125 117 0
126 118 0
126 117 0
130 122 0
133 122 0
135 126 0
131 121 0
130 122 0
132 125 0
133 126 0
137 129 0
133 123 0
131 123 0
134 125 0
137 128 0
136 127 0
139 131 0
140 130 0
139 132 0
137 130 0
135 125 0
144 138 0
141 132 0
140 132 0
139 132 0
137 130 0
140 135 0
143 136 0
141 131 0
140 134 0
143 135 0
142 138 0
143 138 0
141 132 0
144 136 0
144 138 0
141 136 0
145 139 0
142 134 0
144 137 0
144 139 0
142 136 0
145 138 0
146 139 0
144 137 0
142 136 0
142 137 0
146 141 0
144 138 0
144 139 0
145 138 0
147 139 0
147 142 0
145 138 0
147 140 0
147 141 0
147 142 0
146 141 0
148 143 0
147 142 0
148 143 0
148 144 0
146 141 0
147 141 0
146 140 0
148 143 0
146 143 0
148 143 0
145 140 0
147 144 0
148 144 0
146 141 0
149 145 0
148 144 0
148 144 0
146 144 0
147 143 0
146 142 0
148 144 0
147 144 0
148 144 0
147 143 0
148 145 0
150 145 0
148 145 0
199 221 231
201 222 233
200 222 231
201 223 237
202 223 237
201 223 236
202 223 238
202 223 238
203 224 241
203 224 242
204 225 245
202 223 234
203 225 244
203 224 242
205 226 249
204 225 245
204 225 244
203 224 241
205 226 249
205 226 250
204 225 248
205 226 246
205 226 248
206 226 249
205 226 248
205 226 248
203 224 242
205 225 246
207 227 253
205 226 248
206 226 249
206 227 252
207 227 253
207 227 253
206 226 249
203 224 241
206 227 250
205 226 248
206 227 252
205 225 249
205 226 246
206 227 249
206 226 249
205 226 248
205 226 246
206 227 252
207 227 252
205 226 246
206 226 250
206 227 250
204 225 248
205 226 250
206 226 249
204 225 246
206 227 252
205 226 246
206 226 253
206 227 252
206 226 250
206 227 250
206 227 252
205 226 248
205 226 252
205 226 249
204 225 246
206 227 254
203 224 245
206 226 250
206 227 253
204 225 246
205 226 252
206 227 252
204 225 245
205 226 249
205 226 250
202 224 244
203 225 248
204 225 249
203 224 249
203 225 248
204 225 250
204 225 250
204 225 249
202 223 249
203 225 250
203 225 249
203 225 252
202 224 249
202 224 248
202 224 245
201 223 246
202 224 250
200 222 244
203 225 252
202 224 252
200 223 246
202 224 250
200 223 244
201 224 250
198 221 246
197 220 244
198 221 248
198 222 248
195 218 241
198 222 248
197 221 245
193 217 241
196 221 242
193 218 240
195 220 245
190 215 237
190 216 234
189 214 231
188 214 231
186 212 223
183 210 214
179 206 207
174 202 177
169 196 125
164 190 36
163 189 0
161 187 0
162 188 0
161 188 0
165 191 0
163 189 0
164 190 0
163 188 0
163 189 0
161 186 0
161 186 0
155 180 0
159 183 0
158 183 0
160 184 0
160 185 0
159 184 0
154 177 0
157 181 0
156 180 0
150 174 0
154 178 0
149 173 0
160 184 0
153 177 0
142 166 0
145 169 0
145 168 0
149 173 0
144 167 0
140 163 0
146 170 0
138 161 0
138 161 0
95 119 57
50 81 65
52 84 65
51 83 60
53 85 80
52 84 72
54 86 76
54 86 82
51 83 70
55 88 88
52 85 72
54 86 80
54 86 90
54 86 88
54 87 78
53 85 72
54 87 84
55 89 90
53 85 78
54 87 94
54 87 76
54 87 78
52 84 86
53 85 76
55 89 82
53 85 78
56 89 97
54 87 80
53 85 70
51 83 76
55 88 82
56 90 94
54 86 70
53 85 84
56 89 90
55 88 92
55 88 94
56 90 97
54 87 80
52 85 72
56 89 88
56 90 88
55 89 84
54 86 86
53 85 82
54 86 76
54 87 76
54 86 82
53 85 80
55 88 99
56 89 97
53 86 78
55 88 80
52 85 74
53 86 78
54 86 86
54 87 97
55 88 94
56 90 99
55 88 94
55 88 94
53 85 76
53 85 84
55 89 90
52 84 76
52 83 80
53 85 80
54 87 82
54 87 84
55 87 85
53 85 72
54 87 82
52 84 78
52 85 70
56 90 86
52 83 70
53 85 80
53 85 82
51 81 65
52 84 80
53 85 84
55 86 99
51 82 67
54 86 78
50 80 67
51 81 78
50 81 67
50 79 70
48 78 54
49 78 72
94 111 36
113 128 0
124 138 0
116 131 0
118 130 0
113 129 0
126 142 0
121 133 0
130 144 0
123 136 0
125 139 0
121 132 0
130 142 0
124 134 0
129 137 0
121 129 0
123 128 0
126 132 0
129 134 0
134 142 0
124 128 0
132 142 0
118 123 0
125 132 0
116 118 0
123 125 0
125 129 0
130 131 0
118 118 0
132 133 0
126 125 0
129 127 0
130 127 0
129 124 0
130 127 0
136 134 0
112 102 0
92 79 0
90 76 0
81 68 0
86 75 0
82 70 0
84 73 0
97 85 0
92 82 0
90 79 0
92 83 0
91 82 0
99 89 0
101 87 0
95 85 0
99 87 0
102 91 0
108 96 0
104 93 0
103 93 0
110 100 0
105 93 0
113 103 0
118 110 0
112 101 0
125 114 0
123 113 0
116 106 0
114 104 0
126 116 0
127 117 0
121 112 0
119 107 0
129 118 0
126 116 0
130 118 0
128 117 0
127 119 0
129 117 0
135 126 0
130 121 0
131 120 0
129 121 0
133 123 0
128 118 0
129 119 0
131 123 0
137 128 0
136 125 0
138 126 0
135 126 0
135 127 0
137 128 0
134 125 0
137 128 0
137 128 0
144 136 0
138 131 0
140 130 0
135 129 0
139 131 0
137 128 0
139 132 0
141 133 0
142 134 0
139 131 0
142 133 0
144 136 0
143 136 0
143 135 0
139 130 0
145 138 0
141 133 0
143 136 0
142 135 0
143 136 0
145 136 0
144 135 0
145 138 0
144 138 0
143 137 0
143 137 0
145 138 0
144 139 0
145 137 0
146 139 0
146 140 0
146 141 0
145 139 0
146 139 0
144 136 0
148 143 0
147 144 0
148 143 0
149 144 0
146 141 0
146 141 0
145 141 0
147 141 0
147 142 0
147 142 0
143 137 0
145 142 0
145 140 0
147 142 0
149 144 0
147 142 0
149 144 0
147 141 0
147 144 0
150 147 0
147 142 0
147 144 0
149 144 0
148 144 0
149 145 0
150 146 0
145 143 0
148 145 0
149 146 0
202 224 244
202 224 244
200 222 234
202 224 242
201 223 238
202 224 241
203 224 242
202 224 241
203 224 242
203 224 242
201 222 237
203 225 244
204 225 244
204 225 245
203 224 244
202 224 240
204 226 249
203 225 244
204 225 245
204 225 245
205 226 250
205 226 250
204 225 246
205 226 253
203 224 241
205 226 248
205 226 248
205 226 249
205 225 249
204 225 246
205 226 248
204 225 245
206 226 250
205 226 249
205 226 252
205 226 249
205 226 250
204 225 242
205 226 246
205 226 248
204 225 245
206 227 252
206 227 252
204 225 245
203 224 241
205 226 250
205 226 248
205 226 249
204 225 245
206 227 254
205 226 250
206 227 253
204 225 249
205 226 250
204 225 250
205 226 250
204 225 246
203 225 244
203 224 244
205 226 250
205 226 249
204 225 249
203 225 245
204 226 249
204 226 252
204 225 246
206 227 254
203 225 246
204 225 248
204 225 248
204 225 249
205 226 252
202 223 244
205 226 252
202 224 246
203 225 246
203 225 246
202 224 244
201 222 244
200 222 245
201 223 246
202 224 248
204 226 253
203 225 249
202 224 244
203 225 250
202 224 246
202 224 248
202 224 249
202 224 249
201 223 245
202 224 249
199 222 249
201 223 250
200 223 248
201 224 253
199 222 245
200 223 249
198 222 245
196 220 240
198 222 244
198 222 246
196 220 245
194 218 236
195 220 242
194 219 244
195 219 245
192 216 233
193 219 241
190 215 227
191 217 238
192 218 240
188 214 227
181 208 204
182 210 215
179 207 211
170 198 153
166 193 62
165 191 0
160 186 0
162 189 0
161 187 0
159 185 0
162 188 0
163 188 0
162 187 0
158 184 0
160 185 0
164 189 0
161 187 0
163 188 0
155 180 0
161 186 0
153 178 0
149 174 0
157 182 0
159 183 0
155 179 0
155 179 0
155 179 0
151 175 0
149 172 0
152 176 0
153 177 0
160 184 0
152 176 0
149 173 0
149 172 0
144 167 0
135 158 0
152 176 0
141 163 0
150 172 0
143 165 0
138 161 0
112 135 40
47 76 44
50 81 72
51 82 74
53 85 80
52 84 78
51 82 62
52 84 78
52 84 80
52 84 62
52 84 74
54 86 82
54 87 92
51 83 70
53 85 82
52 85 67
55 88 88
53 86 74
54 87 80
53 85 84
55 88 92
54 87 92
55 88 86
53 86 80
55 88 76
52 84 74
54 86 88
55 88 82
54 86 80
54 87 80
52 84 80
53 86 80
54 87 76
55 88 92
54 87 84
55 88 86
53 85 65
55 88 102
53 85 74
54 87 90
53 85 84
52 85 76
54 86 76
52 83 78
55 88 86
55 88 88
55 88 86
53 84 74
55 87 88
54 87 82
55 88 80
54 87 78
54 86 86
55 88 90
53 85 78
56 89 102
53 86 74
53 86 90
55 89 84
52 84 72
55 87 84
53 86 84
51 83 76
53 86 82
54 88 78
52 83 76
53 85 80
55 87 86
53 85 74
52 83 78
52 84 76
54 85 95
53 84 78
51 83 70
54 85 88
51 82 77
53 86 74
54 86 87
53 84 80
52 84 78
53 85 76
52 84 70
51 82 72
51 82 72
50 80 78
50 81 65
50 80 72
49 78 57
85 102 40
114 126 0
117 128 0
122 138 0
118 131 0
123 137 0
122 136 0
104 115 0
121 131 0
128 140 0
116 126 0
108 118 0
114 124 0
114 121 0
123 133 0
115 124 0
124 134 0
123 133 0
120 127 0
122 132 0
122 128 0
119 123 0
121 128 0
119 125 0
130 134 0
123 125 0
123 126 0
129 130 0
121 121 0
128 130 0
130 133 0
119 117 0
128 131 0
121 117 0
118 115 0
121 120 0
124 120 0
120 115 0
115 107 0
97 85 0
84 70 0
81 71 0
90 76 0
89 76 0
77 65 0
97 86 0
93 80 0
94 81 0
77 67 0
96 81 0
101 90 0
99 89 0
107 96 0
99 88 0
96 87 0
106 93 0
105 94 0
106 97 0
104 92 0
123 111 0
110 101 0
115 103 0
115 105 0
114 104 0
124 112 0
114 104 0
119 108 0
121 112 0
125 113 0
126 115 0
124 112 0
119 110 0
119 110 0
128 118 0
127 118 0
129 119 0
124 114 0
134 122 0
135 124 0
135 125 0
137 128 0
131 122 0
136 127 0
135 123 0
137 129 0
133 125 0
130 120 0
131 120 0
137 130 0
137 130 0
132 123 0
139 129 0
140 129 0
137 128 0
135 126 0
140 131 0
136 128 0
137 128 0
141 133 0
143 136 0
136 128 0
143 134 0
140 130 0
143 133 0
140 132 0
139 134 0
144 134 0
144 135 0
144 137 0
145 138 0
143 135 0
143 134 0
142 133 0
147 139 0
145 141 0
145 136 0
143 137 0
142 134 0
142 134 0
144 137 0
141 133 0
146 138 0
145 139 0
145 139 0
145 138 0
145 139 0
148 142 0
146 138 0
148 141 0
146 139 0
144 138 0
148 143 0
144 137 0
149 142 0
147 141 0
150 142 0
147 141 0
149 144 0
147 141 0
148 144 0
147 140 0
149 145 0
148 143 0
148 142 0
146 141 0
149 144 0
147 143 0
148 145 0
148 143 0
148 144 0
148 142 0
148 143 0
149 145 0
150 146 0
151 146 0
147 144 0
149 145 0
200 222 238
199 221 228
202 223 238
200 222 237
201 223 240
202 224 244
199 221 231
200 222 236
203 224 244
201 223 238
201 223 238
199 221 230
202 224 241
200 222 237
202 224 242
202 223 240
201 223 240
202 224 242
204 226 250
203 224 244
205 226 253
202 224 241
202 223 241
204 225 248
201 223 236
204 226 249
203 225 244
204 225 245
204 225 245
202 224 242
204 225 250
204 225 245
205 226 249
205 226 249
205 226 250
204 225 245
204 225 245
204 225 248
205 226 252
203 225 248
204 225 248
204 225 245
204 225 246
205 226 250
204 225 248
205 226 252
203 225 245
205 226 252
205 226 250
204 225 245
204 225 248
204 225 246
205 226 250
205 226 248
204 225 250
205 226 252
203 224 242
204 225 249
204 225 248
205 226 252
204 226 250
204 226 252
205 226 252
202 224 248
205 226 252
205 226 253
203 224 244
204 225 250
205 226 253
203 224 249
204 226 250
204 226 252
204 225 250
204 225 250
204 226 253
204 226 252
201 223 244
202 224 248
203 225 249
203 225 250
202 224 246
202 224 249
201 223 245
201 223 250
203 225 252
202 224 252
197 219 240
200 223 248
202 224 254
201 224 250
200 223 248
201 224 253
200 223 249
201 224 250
200 223 248
200 223 249
197 220 244
199 222 250
197 221 245
195 218 244
195 219 238
196 220 240
196 221 244
196 220 245
193 218 238
195 220 242
192 217 238
192 218 241
186 212 226
189 215 226
187 213 223
186 212 217
183 210 211
175 203 179
173 201 163
164 191 92
164 191 25
160 187 0
161 187 0
165 192 0
161 187 0
164 190 0
160 185 0
159 184 0
157 184 0
166 192 0
157 183 0
162 187 0
162 187 0
160 184 0
155 179 0
153 178 0
151 176 0
157 181 0
153 177 0
145 169 0
154 178 0
155 179 0
151 175 0
150 174 0
153 177 0
149 173 0
147 171 0
152 175 0
151 174 0
145 167 0
137 160 0
138 160 0
142 166 0
141 164 0
144 167 0
138 161 0
140 162 0
135 157 0
138 161 0
144 166 0
111 133 40
51 80 60
51 82 72
50 81 65
52 84 78
51 83 70
52 83 78
51 82 70
53 86 78
53 85 76
51 83 72
53 85 74
53 86 76
55 87 88
53 85 74
56 89 90
52 84 72
52 84 74
52 85 65
52 84 76
54 87 76
53 85 78
55 88 90
53 85 74
53 85 72
56 89 92
55 88 78
53 86 76
54 86 84
53 85 84
54 87 80
54 87 82
55 87 86
55 88 78
55 88 94
55 88 82
52 84 67
54 86 84
54 86 88
52 84 80
54 87 80
54 87 82
54 86 74
55 87 92
53 85 62
55 88 82
53 85 82
54 86 78
55 88 88
54 87 90
54 86 82
55 88 90
54 87 78
53 86 72
53 85 86
55 88 88
52 85 74
55 88 82
53 85 72
53 85 76
53 85 84
52 84 82
53 86 74
52 83 80
53 86 92
53 85 74
53 85 82
53 85 72
53 85 84
53 85 82
53 86 80
54 86 78
54 87 88
51 83 62
52 83 86
53 85 80
52 82 72
54 86 82
52 83 76
53 84 92
51 82 65
52 82 78
50 80 74
49 78 72
49 80 63
47 73 45
93 111 36
112 126 0
112 126 0
106 119 0
104 115 0
115 129 0
120 133 0
131 143 0
114 125 0
118 127 0
108 123 0
107 121 0
118 128 0
114 125 0
126 138 0
107 115 0
127 135 0
115 126 0
117 121 0
118 126 0
122 127 0
116 122 0
106 113 0
119 123 0
119 124 0
111 117 0
112 116 0
112 113 0
119 122 0
111 111 0
113 113 0
119 119 0
110 107 0
116 116 0
118 117 0
117 118 0
115 109 0
119 114 0
117 111 0
114 108 0
120 115 0
106 94 0
86 72 0
80 65 0
88 73 0
85 71 0
87 75 0
84 73 0
92 78 0
91 79 0
103 89 0
87 74 0
101 89 0
106 93 0
103 91 0
97 86 0
108 97 0
104 92 0
101 91 0
110 98 0
119 107 0
114 105 0
115 105 0
113 102 0
107 98 0
114 101 0
121 110 0
112 103 0
127 114 0
118 107 0
122 112 0
124 114 0
125 113 0
122 111 0
132 119 0
132 120 0
125 115 0
132 121 0
131 120 0
128 116 0
134 125 0
133 122 0
128 117 0
131 120 0
133 122 0
127 120 0
138 129 0
142 131 0
140 130 0
142 130 0
131 119 0
132 123 0
132 122 0
136 126 0
134 122 0
134 125 0
138 127 0
139 129 0
137 127 0
141 132 0
140 129 0
138 129 0
136 128 0
145 137 0
140 132 0
142 134 0
141 132 0
141 133 0
143 135 0
140 131 0
144 135 0
141 132 0
145 138 0
143 133 0
143 136 0
144 136 0
144 135 0
144 134 0
145 138 0
143 137 0
145 138 0
145 139 0
146 140 0
144 136 0
145 137 0
142 135 0
143 136 0
147 140 0
147 140 0
147 140 0
147 141 0
144 137 0
148 141 0
147 142 0
147 139 0
149 144 0
147 143 0
148 142 0
143 134 0
144 136 0
146 140 0
149 143 0
149 142 0
146 139 0
146 138 0
147 141 0
148 146 0
148 142 0
149 143 0
148 143 0
148 141 0
149 143 0
148 143 0
150 145 0
149 146 0
150 146 0
148 144 0
148 143 0
198 220 227
199 221 233
198 220 228
198 220 227
199 222 234
200 222 234
201 223 240
200 223 240
201 223 241
202 224 245
201 223 240
199 221 230
201 223 240
200 222 233
202 223 241
202 224 242
203 225 246
200 222 234
202 223 241
202 223 241
203 224 246
202 224 246
202 224 244
202 224 242
204 225 248
204 225 248
203 225 245
203 225 246
203 225 246
204 225 248
203 225 245
204 225 249
205 226 252
205 226 252
201 223 237
203 225 245
205 226 252
204 225 248
201 223 240
204 225 246
203 225 245
204 225 248
205 226 253
203 224 248
203 224 246
203 225 246
203 224 244
203 224 246
204 225 249
203 225 248
204 225 246
204 226 250
205 226 253
203 225 246
205 226 252
204 226 252
204 225 249
204 225 249
205 226 253
203 225 249
204 225 249
204 226 252
203 225 249
203 225 246
204 226 253
203 224 245
202 224 246
202 224 246
203 225 249
203 225 249
203 224 248
202 224 246
203 225 252
203 225 250
201 224 244
201 223 244
202 225 250
202 224 249
201 223 246
203 225 253
201 224 249
203 225 253
201 223 248
199 221 246
200 223 246
200 222 249
201 224 250
199 222 241
200 223 249
200 223 245
197 220 241
199 222 245
197 221 245
197 221 244
197 221 244
197 221 246
198 222 250
195 220 236
197 221 248
194 218 242
193 218 237
195 220 240
193 218 241
192 218 236
195 221 249
191 217 240
187 213 228
188 215 234
186 213 218
185 212 221
181 208 207
180 208 204
175 203 161
163 190 99
163 190 0
160 187 0
161 188 0
161 188 0
163 190 0
163 189 0
160 186 0
157 183 0
162 188 0
157 183 0
161 187 0
155 181 0
162 188 0
153 178 0
154 179 0
156 181 0
154 179 0
159 183 0
155 180 0
153 178 0
157 182 0
154 178 0
152 177 0
158 182 0
151 175 0
157 181 0
152 176 0
154 178 0
151 173 0
143 167 0
148 171 0
139 162 0
144 166 0
145 167 0
146 168 0
128 150 0
141 164 0
142 165 0
137 160 0
138 161 0
134 156 0
132 155 0
129 150 0
99 121 36
57 86 54
51 82 70
50 81 57
52 84 54
53 85 76
52 84 72
54 87 78
55 88 90
52 83 72
53 86 80
52 85 78
53 85 80
52 85 67
50 81 70
52 84 70
54 87 76
53 86 80
55 88 90
50 81 51
51 83 74
53 85 78
53 85 80
53 85 78
54 86 78
54 87 84
54 87 92
53 86 80
53 85 80
53 85 80
53 86 80
53 85 82
52 85 72
51 82 70
54 87 86
55 89 90
54 88 80
53 85 74
53 85 82
53 85 74
54 86 82
52 84 67
53 86 82
55 87 88
54 86 82
53 85 78
53 85 84
52 84 82
54 86 76
52 85 78
53 85 78
52 84 76
54 87 84
54 86 92
55 87 90
53 85 65
54 87 84
54 86 84
53 85 80
55 88 90
53 85 78
54 86 86
51 83 76
52 83 84
51 82 62
53 84 86
52 85 72
52 84 67
53 86 84
52 83 70
53 84 88
52 84 72
54 86 86
53 85 78
49 79 72
53 84 82
50 80 67
51 81 72
51 82 67
51 81 83
50 80 79
51 81 72
48 77 57
54 79 51
101 117 36
106 121 0
110 123 0
97 111 0
120 134 0
116 126 0
98 109 0
110 121 0
106 118 0
112 124 0
118 132 0
119 131 0
110 122 0
110 121 0
120 130 0
112 121 0
118 129 0
107 116 0
128 137 0
99 108 0
113 119 0
108 114 0
122 130 0
112 115 0
110 117 0
115 121 0
113 117 0
122 122 0
114 119 0
107 111 0
119 120 0
113 113 0
111 112 0
108 105 0
107 102 0
115 113 0
108 106 0
112 109 0
119 113 0
109 103 0
113 105 0
106 98 0
114 107 0
106 100 0
86 70 0
79 63 0
86 72 0
84 68 0
85 70 0
80 65 0
91 78 0
80 67 0
89 75 0
94 82 0
99 87 0
100 88 0
100 87 0
109 96 0
99 86 0
102 88 0
104 92 0
101 92 0
107 95 0
115 103 0
117 105 0
120 109 0
118 106 0
119 103 0
115 104 0
128 117 0
118 106 0
121 108 0
124 111 0
118 108 0
127 116 0
119 108 0
127 117 0
120 108 0
128 118 0
131 121 0
130 119 0
126 116 0
127 117 0
133 123 0
127 118 0
125 114 0
133 121 0
133 123 0
135 128 0
130 118 0
134 124 0
135 128 0
137 128 0
137 126 0
135 125 0
138 128 0
135 125 0
140 129 0
138 129 0
137 128 0
139 130 0
135 127 0
143 131 0
139 130 0
138 129 0
138 126 0
138 128 0
142 134 0
142 133 0
143 133 0
147 138 0
142 133 0
141 132 0
140 131 0
142 134 0
143 135 0
144 136 0
143 135 0
144 136 0
144 132 0
144 134 0
142 132 0
143 135 0
145 136 0
146 138 0
145 136 0
144 136 0
142 135 0
145 136 0
146 136 0
147 141 0
143 136 0
145 139 0
142 134 0
145 135 0
145 137 0
146 138 0
146 140 0
142 134 0
146 138 0
147 139 0
145 139 0
148 140 0
147 139 0
146 140 0
147 139 0
147 141 0
146 139 0
149 143 0
146 140 0
148 141 0
147 140 0
148 143 0
147 140 0
148 141 0
149 143 0
150 145 0
147 144 0
147 143 0
196 218 220
198 221 231
198 220 230
196 218 226
199 221 234
198 220 230
197 220 230
197 220 230
200 222 237
200 223 240
198 221 231
199 222 237
201 223 241
200 223 238
200 222 238
200 223 240
202 224 246
202 224 248
201 223 242
202 224 242
202 224 244
201 223 240
202 224 245
201 223 241
201 223 240
202 224 242
202 224 242
202 224 246
202 224 246
203 225 249
202 224 242
204 225 249
202 224 242
202 224 244
203 224 245
203 225 248
201 222 240
202 224 244
203 225 246
203 225 248
203 225 248
201 223 240
203 225 248
202 224 245
202 224 245
204 225 250
203 225 252
204 226 252
201 223 240
204 226 253
202 224 244
203 225 249
204 225 250
203 225 248
203 225 248
203 225 248
200 222 238
201 223 246
203 225 249
203 225 249
203 225 249
203 224 250
203 225 250
203 225 250
202 224 250
203 225 252
203 225 250
202 224 246
203 225 253
201 223 250
201 223 246
202 224 246
202 225 253
203 226 254
200 223 244
203 225 253
200 223 245
199 222 241
200 222 245
201 223 245
201 224 249
200 223 249
201 223 252
198 221 245
199 222 246
199 222 249
200 223 246
198 221 242
198 222 244
199 222 245
197 221 241
199 223 252
198 222 248
196 220 242
196 221 242
195 219 240
196 221 245
197 221 249
192 217 236
194 219 240
192 218 238
192 218 237
190 216 236
188 214 233
190 216 240
190 216 240
182 209 206
185 212 220
184 211 224
177 205 198
174 202 165
166 194 120
163 191 44
163 190 0
162 189 0
163 190 0
161 188 0
162 189 0
159 186 0
161 188 0
161 187 0
157 184 0
158 184 0
160 186 0
160 186 0
160 185 0
161 187 0
157 182 0
156 181 0
160 186 0
157 182 0
151 176 0
157 182 0
149 173 0
154 179 0
148 172 0
154 178 0
150 174 0
152 175 0
150 173 0
146 170 0
151 175 0
147 170 0
146 169 0
139 161 0
136 159 0
141 164 0
144 167 0
143 166 0
132 154 0
145 168 0
131 153 0
134 156 0
123 145 0
131 153 0
125 146 0
123 144 0
134 155 0
119 140 0
68 94 47
51 82 65
50 81 60
53 85 76
51 82 72
52 84 60
50 82 65
51 82 70
52 84 72
52 84 76
53 85 82
50 82 60
52 84 57
52 85 65
53 86 88
53 85 72
52 84 72
52 85 65
51 82 72
54 86 72
54 86 74
54 86 76
52 84 70
52 84 76
53 85 80
54 87 74
53 85 70
52 84 76
53 86 74
52 84 80
52 84 74
50 81 60
54 87 80
52 85 70
55 88 88
53 85 74
54 86 80
53 86 72
54 87 78
53 85 80
52 84 74
52 84 76
53 85 78
52 84 67
53 85 80
54 86 90
54 86 84
54 86 88
53 85 84
53 85 74
54 86 82
52 84 67
53 85 72
53 84 80
51 83 72
54 87 84
53 85 80
52 84 76
53 86 78
52 84 80
54 86 78
51 83 60
51 83 78
53 86 82
50 80 65
54 86 86
51 82 72
53 85 76
52 83 70
51 82 76
51 83 67
52 83 60
51 82 70
49 79 60
50 80 63
50 80 72
53 84 84
49 80 62
50 80 70
46 74 60
62 87 60
105 117 18
92 105 0
93 104 0
101 115 0
98 111 0
107 119 0
101 113 0
99 111 0
101 114 0
119 131 0
114 128 0
117 128 0
113 126 0
110 121 0
113 125 0
94 104 0
112 119 0
102 113 0
113 121 0
122 132 0
107 112 0
110 118 0
107 113 0
112 120 0
114 122 0
112 117 0
111 118 0
105 109 0
115 120 0
109 109 0
110 111 0
117 118 0
114 114 0
115 115 0
111 112 0
105 105 0
108 104 0
109 107 0
114 109 0
109 100 0
107 103 0
107 103 0
95 89 0
106 99 0
110 102 0
108 100 0
100 88 0
98 85 0
84 69 0
85 69 0
73 60 0
91 74 0
82 68 0
90 77 0
93 82 0
93 79 0
88 75 0
107 92 0
104 89 0
97 83 0
111 99 0
107 93 0
106 91 0
104 91 0
114 101 0
105 94 0
110 98 0
112 99 0
118 102 0
118 105 0
114 101 0
111 99 0
118 106 0
116 103 0
119 108 0
121 107 0
128 117 0
121 109 0
128 113 0
125 114 0
123 109 0
131 118 0
126 116 0
126 114 0
130 120 0
137 125 0
126 115 0
137 122 0
129 118 0
135 124 0
136 121 0
133 121 0
131 120 0
140 131 0
132 121 0
132 119 0
138 127 0
132 122 0
136 125 0
141 130 0
135 124 0
137 125 0
140 130 0
137 126 0
140 129 0
142 130 0
136 127 0
137 127 0
140 131 0
140 129 0
137 126 0
144 137 0
140 130 0
143 134 0
141 133 0
144 135 0
143 133 0
140 129 0
142 134 0
143 132 0
145 136 0
142 135 0
143 134 0
141 133 0
139 130 0
145 136 0
146 138 0
144 135 0
143 135 0
144 136 0
142 133 0
144 135 0
144 136 0
146 139 0
142 131 0
144 137 0
145 137 0
149 142 0
146 138 0
148 140 0
146 140 0
146 141 0
147 141 0
146 138 0
145 137 0
147 141 0
147 141 0
144 136 0
147 143 0
148 143 0
148 140 0
148 142 0
148 143 0
146 140 0
148 143 0
150 147 0
148 142 0
146 142 0
149 144 0
149 143 0
194 217 217
196 219 227
196 219 224
198 221 233
196 219 224
198 221 233
197 220 227
197 220 227
199 221 233
198 221 231
197 220 226
199 221 234
199 221 236
199 221 233
199 222 236
200 222 237
201 223 244
199 221 233
201 223 241
199 221 237
201 224 244
201 223 241
201 224 244
199 221 238
201 224 244
203 225 250
203 225 250
202 224 245
201 223 241
203 225 248
201 223 240
202 224 248
203 225 248
202 224 245
203 224 248
200 222 241
203 225 248
201 223 241
203 225 250
203 225 249
203 225 248
203 225 249
203 225 249
203 225 248
203 225 249
203 225 249
202 223 245
201 223 245
202 224 248
203 225 248
202 223 246
203 225 249
202 224 245
202 224 246
203 225 249
202 224 248
203 225 252
202 224 246
202 224 245
201 223 244
202 224 246
200 222 240
202 224 250
201 223 248
202 225 250
202 224 249
199 222 241
200 222 248
201 224 249
201 223 246
200 223 245
201 224 249
202 224 250
202 224 252
201 223 250
201 224 250
200 223 244
200 223 249
200 223 245
199 222 240
199 223 246
199 222 244
198 222 245
198 222 246
199 222 252
197 221 244
198 222 248
198 222 246
197 221 244
198 222 245
197 221 248
194 219 238
196 220 248
195 220 240
196 220 244
190 215 231
194 219 242
192 218 241
193 218 242
190 216 234
191 217 242
191 217 237
187 213 230
187 214 231
184 211 217
183 211 217
181 209 207
179 206 198
173 201 179
169 198 125
164 192 51
163 191 0
156 184 0
162 189 0
164 192 0
161 188 0
156 183 0
162 190 0
154 181 0
159 185 0
156 182 0
161 187 0
159 185 0
155 180 0
154 180 0
155 181 0
156 181 0
158 183 0
153 179 0
151 176 0
154 179 0
154 179 0
154 178 0
155 179 0
152 176 0
153 177 0
149 173 0
151 175 0
153 177 0
149 173 0
148 172 0
146 169 0
146 169 0
139 162 0
140 163 0
153 176 0
130 153 0
138 160 0
140 163 0
141 163 0
138 161 0
133 154 0
136 158 0
131 153 0
134 155 0
133 154 0
115 136 0
124 144 0
109 130 0
112 133 25
76 100 51
46 75 47
51 83 57
49 80 65
52 83 74
50 82 60
50 81 70
53 85 67
52 83 74
51 83 78
49 79 65
51 83 60
53 85 70
51 83 67
53 85 80
51 83 76
49 80 57
49 79 72
55 87 92
51 83 70
53 85 82
52 84 78
54 87 80
52 84 82
49 79 65
54 86 92
53 85 65
52 84 72
53 86 82
51 83 72
54 86 78
52 83 74
52 84 78
51 82 72
52 84 70
53 86 78
53 85 84
51 83 62
54 86 90
52 84 65
51 82 72
54 86 78
52 84 74
55 88 95
50 81 51
52 83 84
53 86 70
51 83 72
53 86 80
54 86 84
51 83 86
53 85 74
53 85 78
52 85 74
53 84 84
52 84 84
49 80 47
52 84 80
52 84 74
53 85 80
50 81 60
50 81 60
49 81 51
53 84 78
49 80 72
52 83 62
49 80 57
52 83 65
49 79 54
51 82 72
49 80 51
49 80 60
47 77 57
48 78 62
49 79 62
50 80 51
46 75 60
48 77 54
71 90 40
98 113 25
98 111 0
98 110 0
101 112 0
91 102 0
92 103 0
100 109 0
101 111 0
97 109 0
119 132 0
103 117 0
110 125 0
104 117 0
111 123 0
112 125 0
107 115 0
107 118 0
96 104 0
111 118 0
95 104 0
106 116 0
112 123 0
113 121 0
110 118 0
103 107 0
117 124 0
110 113 0
111 117 0
105 109 0
108 110 0
118 124 0
108 110 0
113 114 0
105 107 0
107 106 0
103 103 0
101 101 0
111 108 0
107 102 0
105 100 0
104 99 0
103 97 0
104 96 0
108 103 0
100 90 0
92 83 0
99 92 0
89 81 0
91 79 0
90 77 0
81 67 0
85 66 0
79 64 0
79 63 0
81 67 0
85 69 0
84 67 0
91 75 0
103 90 0
93 79 0
103 88 0
103 90 0
104 91 0
113 97 0
94 80 0
98 83 0
108 94 0
108 93 0
102 89 0
122 108 0
113 97 0
116 100 0
111 97 0
115 102 0
118 107 0
116 103 0
120 106 0
123 112 0
125 110 0
120 108 0
128 115 0
122 110 0
124 111 0
126 114 0
129 115 0
134 122 0
127 114 0
134 119 0
135 124 0
130 119 0
133 120 0
131 120 0
130 117 0
135 124 0
135 124 0
133 119 0
138 127 0
135 121 0
138 127 0
137 125 0
135 122 0
136 123 0
138 127 0
136 123 0
139 129 0
141 132 0
137 125 0
140 128 0
138 128 0
143 134 0
141 131 0
145 137 0
144 133 0
141 128 0
145 137 0
141 129 0
140 131 0
140 130 0
143 131 0
141 132 0
141 131 0
144 137 0
144 134 0
141 130 0
143 132 0
147 138 0
144 137 0
144 133 0
146 137 0
144 136 0
145 137 0
143 133 0
145 137 0
143 134 0
143 133 0
143 134 0
147 138 0
145 138 0
145 136 0
145 136 0
146 138 0
145 135 0
149 141 0
146 139 0
148 140 0
146 139 0
148 142 0
147 140 0
148 142 0
147 140 0
144 137 0
146 138 0
148 142 0
148 140 0
149 143 0
148 141 0
147 143 0
150 145 0
147 141 0
147 140 0
146 141 0
192 216 209
194 218 221
192 215 204
194 217 217
195 218 223
197 220 230
196 219 223
198 221 236
195 218 220
199 222 240
197 220 231
196 219 224
198 221 236
198 220 231
198 220 234
200 222 241
200 223 244
200 222 241
198 220 230
199 222 238
200 223 241
199 222 237
199 222 238
199 222 237
201 223 242
202 224 248
200 222 245
200 223 244
199 221 242
200 223 242
202 224 246
200 223 241
200 222 244
201 224 245
202 224 248
202 224 246
201 223 242
201 224 245
201 223 248
201 224 245
202 224 248
201 224 245
201 223 245
200 223 241
201 223 248
202 224 248
201 224 245
201 224 245
202 225 250
200 223 242
202 224 248
202 225 252
203 225 253
201 223 245
202 224 249
201 224 246
201 224 246
199 222 242
201 223 248
201 223 248
201 224 248
200 223 248
200 223 246
199 222 242
199 222 242
201 224 250
199 222 245
201 224 249
200 223 246
199 222 244
199 222 245
200 223 248
200 223 252
200 223 249
201 224 252
200 224 250
200 223 248
198 221 245
197 221 242
199 223 249
199 222 248
198 222 246
197 221 245
197 221 245
196 220 242
198 222 246
195 219 240
196 220 241
197 222 248
196 220 241
198 222 253
196 221 246
194 219 240
193 218 238
191 216 234
190 216 233
187 213 223
189 215 233
189 215 230
189 215 230
189 216 234
186 213 227
185 212 221
184 212 218
180 208 206
178 206 204
174 202 175
166 194 105
165 193 57
161 189 0
160 187 0
161 189 0
160 188 0
161 188 0
159 187 0
158 185 0
158 185 0
159 186 0
162 189 0
161 188 0
158 184 0
160 186 0
161 186 0
157 183 0
161 186 0
155 180 0
153 178 0
159 184 0
157 182 0
151 176 0
157 182 0
155 179 0
152 177 0
147 171 0
146 170 0
152 175 0
154 178 0
149 172 0
146 169 0
146 169 0
147 171 0
139 162 0
141 163 0
143 166 0
145 167 0
144 166 0
136 159 0
141 163 0
136 157 0
135 157 0
136 158 0
129 150 0
122 144 0
130 152 0
134 155 0
129 150 0
133 153 0
125 145 0
128 149 0
128 149 0
112 131 0
82 105 44
49 77 44
46 75 57
51 82 65
52 84 54
48 79 54
51 82 57
50 81 62
50 81 70
49 80 60
51 83 57
51 83 60
52 84 76
51 82 60
51 83 65
51 83 62
50 81 54
52 85 74
54 87 80
52 84 62
52 83 76
52 84 70
52 84 60
50 82 65
52 85 67
53 85 78
52 85 80
52 84 74
51 83 65
51 82 82
53 85 74
53 86 78
52 84 74
53 85 74
51 82 74
51 83 76
51 83 57
53 85 70
53 85 74
53 84 82
53 86 70
53 85 82
52 85 72
54 87 80
53 85 80
52 83 74
51 82 70
50 82 70
53 84 84
50 81 72
54 86 84
52 83 80
50 82 72
53 86 84
55 88 82
49 80 67
52 84 57
51 83 70
54 86 86
50 80 72
51 82 70
50 81 74
51 83 78
52 83 82
51 82 78
51 82 67
51 83 72
51 82 70
51 82 62
51 82 72
51 81 67
50 81 74
51 83 72
48 77 60
49 78 68
48 75 57
85 100 37
88 99 0
96 108 0
84 95 0
93 104 0
101 112 0
96 106 0
97 108 0
102 115 0
102 114 0
102 116 0
95 106 0
95 107 0
109 120 0
99 107 0
100 108 0
106 115 0
104 113 0
103 114 0
93 102 0
116 127 0
111 118 0
103 111 0
110 118 0
105 115 0
105 111 0
102 108 0
105 113 0
104 108 0
107 112 0
101 108 0
109 118 0
105 107 0
108 115 0
104 105 0
105 109 0
104 104 0
102 101 0
101 104 0
104 100 0
82 78 0
106 106 0
103 97 0
99 95 0
91 89 0
91 85 0
93 89 0
86 80 0
90 82 0
90 82 0
83 74 0
81 73 0
91 80 0
93 80 0
68 54 0
74 59 0
75 60 0
88 72 0
91 75 0
94 77 0
84 68 0
99 83 0
96 82 0
88 73 0
98 84 0
93 79 0
99 81 0
103 89 0
107 91 0
110 93 0
113 98 0
115 101 0
109 96 0
122 106 0
110 95 0
114 102 0
122 105 0
118 102 0
112 100 0
129 113 0
124 111 0
129 113 0
120 105 0
128 114 0
122 110 0
128 113 0
123 110 0
123 110 0
129 113 0
127 113 0
130 116 0
126 112 0
131 120 0
133 120 0
122 109 0
136 124 0
136 125 0
131 120 0
137 126 0
136 123 0
140 126 0
137 125 0
137 122 0
138 127 0
138 127 0
138 128 0
138 126 0
138 127 0
135 123 0
136 125 0
141 128 0
140 127 0
141 129 0
143 133 0
139 129 0
138 130 0
142 133 0
141 130 0
139 130 0
140 130 0
142 132 0
142 132 0
145 135 0
142 131 0
142 132 0
135 127 0
143 132 0
143 135 0
141 130 0
142 133 0
145 137 0
145 135 0
143 134 0
144 135 0
143 133 0
142 133 0
143 135 0
145 137 0
145 136 0
144 136 0
147 139 0
145 135 0
146 138 0
146 139 0
148 139 0
146 137 0
146 138 0
146 138 0
147 138 0
147 141 0
147 138 0
146 138 0
148 139 0
146 139 0
148 142 0
145 139 0
147 140 0
148 140 0
148 143 0
147 142 0
148 143 0
148 143 0
148 143 0
188 212 191
191 215 206
192 215 209
192 216 209
192 216 211
193 217 220
195 219 227
198 221 238
194 217 218
196 219 228
197 220 231
197 221 234
199 222 241
198 221 236
197 220 230
198 221 238
197 220 236
199 222 240
199 222 240
198 221 233
201 223 246
198 221 236
200 222 241
199 222 237
199 222 238
201 223 246
198 221 236
200 222 240
199 222 238
201 223 245
199 222 238
200 223 242
201 224 248
200 223 248
200 222 238
202 225 253
200 222 241
200 223 246
201 223 246
199 221 237
199 222 242
202 224 249
201 223 245
201 224 246
203 225 254
199 222 240
201 224 248
202 224 249
202 225 252
201 223 246
202 224 252
201 224 248
201 223 246
200 223 242
200 223 246
202 225 253
200 223 245
201 224 249
200 223 244
198 221 241
199 222 244
200 223 245
199 222 246
198 221 245
199 222 246
200 223 249
200 223 248
199 223 246
200 223 252
198 221 244
198 221 242
199 222 249
197 221 242
199 223 249
199 223 249
197 221 241
199 222 249
197 221 246
199 223 252
198 222 249
196 220 244
196 220 241
196 221 242
197 221 245
196 221 245
194 219 240
194 219 242
194 219 237
195 220 241
191 216 234
193 219 240
191 217 240
191 217 237
193 218 244
190 216 234
191 217 236
189 216 237
189 216 231
189 215 236
184 211 220
183 211 215
183 211 212
181 210 215
177 205 186
171 199 155
164 192 111
162 191 36
160 187 0
161 189 0
159 187 0
161 189 0
158 185 0
163 191 0
158 186 0
161 188 0
162 189 0
158 184 0
163 190 0
159 186 0
156 182 0
163 189 0
158 183 0
150 175 0
156 181 0
156 181 0
153 178 0
155 179 0
152 177 0
154 178 0
154 178 0
148 173 0
152 176 0
150 174 0
150 173 0
150 174 0
151 174 0
156 180 0
140 163 0
145 168 0
139 161 0
143 166 0
144 167 0
148 171 0
149 172 0
132 154 0
134 156 0
134 156 0
140 162 0
134 156 0
136 158 0
123 145 0
120 141 0
130 152 0
127 149 0
119 139 0
127 148 0
129 150 0
118 139 0
111 131 0
114 134 0
108 127 0
107 127 0
99 119 44
68 93 44
49 80 67
47 77 40
46 76 44
49 80 60
50 81 60
50 81 67
52 84 62
48 79 62
51 84 62
51 83 70
52 83 70
52 83 82
51 82 70
49 80 54
52 84 72
51 83 65
50 81 74
51 82 82
51 83 67
51 83 70
52 84 80
49 80 62
54 87 72
49 80 65
52 84 76
52 84 74
55 87 84
51 83 65
52 84 80
52 83 82
51 84 67
52 83 74
51 83 74
51 83 76
55 88 74
52 84 82
51 82 67
52 83 78
53 85 80
51 83 65
51 82 72
50 82 74
53 85 74
51 82 65
51 83 70
52 84 70
53 84 82
52 84 76
49 79 62
50 81 70
50 81 62
53 85 78
51 82 74
52 85 62
51 83 72
51 82 62
49 80 62
51 83 70
51 82 54
49 80 62
50 80 67
49 80 54
49 78 65
52 83 72
49 79 67
50 81 63
49 79 72
48 79 60
47 75 57
47 76 57
47 76 70
68 89 31
71 82 0
89 101 0
86 96 0
88 99 0
91 104 0
87 96 0
92 103 0
94 108 0
76 87 0
92 102 0
92 104 0
99 111 0
114 125 0
94 103 0
106 116 0
101 112 0
94 105 0
97 108 0
111 121 0
96 105 0
109 119 0
107 116 0
107 117 0
107 116 0
103 114 0
97 106 0
110 118 0
116 121 0
107 112 0
101 106 0
94 98 0
95 103 0
105 110 0
102 105 0
111 115 0
92 96 0
103 107 0
95 97 0
103 102 0
103 107 0
104 105 0
97 98 0
105 101 0
90 88 0
98 98 0
84 79 0
96 89 0
96 91 0
96 87 0
90 82 0
99 93 0
86 78 0
88 76 0
87 77 0
82 69 0
77 65 0
76 65 0
66 49 0
73 57 0
65 50 0
81 65 0
86 66 0
99 83 0
90 74 0
86 70 0
100 83 0
103 87 0
88 73 0
95 82 0
99 85 0
106 90 0
111 94 0
106 91 0
105 90 0
115 99 0
116 102 0
115 101 0
117 102 0
115 98 0
120 104 0
115 101 0
120 107 0
122 107 0
123 107 0
117 103 0
124 110 0
124 108 0
125 112 0
126 111 0
126 114 0
127 113 0
125 111 0
129 118 0
134 117 0
135 120 0
131 117 0
134 121 0
133 122 0
133 120 0
131 118 0
133 121 0
131 119 0
138 125 0
130 117 0
138 126 0
135 121 0
133 120 0
136 122 0
137 122 0
136 125 0
134 121 0
140 127 0
141 131 0
142 132 0
140 129 0
136 125 0
141 131 0
136 125 0
141 130 0
141 130 0
137 127 0
144 134 0
143 134 0
141 133 0
141 131 0
136 125 0
143 132 0
142 132 0
141 130 0
142 132 0
141 131 0
142 132 0
142 132 0
143 134 0
144 134 0
142 131 0
145 135 0
143 133 0
146 136 0
142 132 0
143 133 0
144 135 0
145 136 0
145 135 0
146 137 0
145 135 0
145 137 0
143 133 0
146 137 0
146 138 0
146 140 0
145 138 0
146 138 0
147 138 0
146 139 0
149 141 0
144 138 0
147 139 0
148 144 0
147 140 0
147 142 0
149 142 0
148 143 0
149 146 0
190 214 199
188 213 194
189 213 203
190 214 201
194 217 221
192 215 209
194 218 223
196 219 228
197 220 234
194 218 226
194 217 218
194 217 220
196 220 230
195 219 227
196 219 231
198 221 238
197 220 231
196 220 230
196 219 228
199 222 241
199 222 244
197 220 234
197 220 234
197 220 234
198 221 234
197 220 234
197 220 230
197 220 231
198 221 237
201 224 249
201 224 252
200 223 245
200 223 246
197 220 231
198 221 241
200 223 248
200 223 245
199 222 241
200 223 244
198 222 242
199 222 245
199 222 240
200 223 245
199 222 245
197 220 237
200 223 246
200 223 249
199 222 242
200 223 245
200 223 248
199 222 244
200 223 246
199 223 245
200 223 245
200 223 249
199 222 242
199 222 244
200 223 246
199 223 246
199 222 242
197 221 244
199 223 246
198 222 241
199 223 249
198 222 245
200 223 249
199 222 248
199 223 248
198 222 246
198 222 245
197 221 245
196 220 245
197 221 241
198 222 248
198 223 250
197 221 248
195 219 240
195 220 240
198 222 250
195 220 246
193 218 237
195 220 244
195 220 244
195 220 245
194 219 241
195 220 244
194 219 240
191 217 231
192 218 234
189 215 231
190 216 238
191 217 240
190 216 236
186 213 217
186 213 223
186 213 224
185 213 224
184 212 224
181 209 209
179 207 199
180 209 206
175 204 182
167 196 125
164 193 67
161 189 0
161 190 0
155 183 0
158 186 0
163 190 0
162 190 0
161 188 0
159 187 0
158 185 0
158 185 0
163 189 0
158 184 0
159 186 0
153 180 0
159 186 0
156 182 0
157 183 0
151 177 0
159 185 0
153 179 0
159 184 0
152 177 0
148 173 0
149 174 0
156 181 0
148 172 0
153 177 0
156 180 0
151 175 0
156 180 0
139 163 0
149 173 0
145 169 0
143 166 0
143 165 0
151 174 0
140 163 0
139 161 0
140 162 0
131 153 0
145 167 0
136 157 0
131 152 0
134 155 0
125 147 0
130 151 0
129 150 0
132 154 0
125 147 0
119 139 0
131 151 0
111 131 0
105 124 0
96 116 0
106 126 0
105 125 0
121 140 0
109 127 0
106 125 0
94 113 0
88 107 36
47 75 40
51 83 54
50 81 57
49 80 57
48 78 44
48 79 62
49 79 62
49 79 74
49 80 54
47 77 60
48 78 62
52 84 54
48 78 57
52 84 76
49 79 67
50 82 62
51 82 67
49 80 54
51 83 62
53 86 82
50 81 65
50 81 72
52 84 60
52 84 72
51 83 70
48 79 51
49 80 60
52 84 72
51 83 54
52 84 67
52 84 78
52 84 76
51 83 72
51 83 76
53 85 76
53 86 60
53 86 70
53 85 82
51 82 65
53 85 74
52 83 72
51 83 65
52 83 70
52 84 76
52 84 78
49 80 57
52 84 76
52 84 76
50 81 62
50 82 65
51 82 70
51 81 78
47 77 57
51 82 65
49 78 65
49 80 54
47 77 47
49 80 67
49 80 70
51 81 76
50 80 70
51 82 76
48 77 57
48 77 62
50 79 80
44 72 57
48 77 51
46 75 44
47 73 36
72 88 36
86 94 0
74 85 0
84 96 0
84 93 0
84 94 0
90 100 0
101 114 0
87 96 0
87 100 0
95 109 0
96 110 0
94 105 0
95 106 0
102 114 0
99 110 0
103 112 0
97 108 0
103 113 0
104 116 0
113 124 0
99 111 0
102 113 0
108 122 0
105 114 0
106 117 0
107 116 0
105 110 0
99 109 0
109 115 0
110 114 0
110 116 0
101 105 0
94 99 0
93 100 0
97 102 0
114 117 0
105 110 0
107 107 0
93 94 0
100 103 0
83 84 0
101 103 0
94 95 0
90 88 0
98 96 0
111 109 0
88 84 0
97 94 0
101 97 0
90 85 0
88 81 0
91 83 0
80 69 0
79 71 0
84 71 0
78 67 0
82 72 0
61 48 0
66 53 0
72 61 0
66 52 0
70 54 0
78 60 0
73 55 0
79 62 0
81 63 0
85 66 0
96 79 0
93 76 0
102 83 0
104 87 0
106 89 0
102 87 0
108 90 0
104 89 0
112 95 0
116 100 0
117 99 0
119 101 0
112 98 0
112 97 0
119 103 0
117 99 0
127 111 0
121 105 0
120 103 0
125 110 0
126 108 0
123 108 0
124 111 0
125 110 0
128 114 0
130 114 0
127 112 0
131 113 0
131 117 0
131 116 0
129 114 0
132 119 0
132 118 0
133 118 0
132 118 0
140 127 0
136 124 0
134 119 0
135 121 0
137 124 0
136 123 0
139 126 0
137 124 0
137 123 0
136 125 0
136 124 0
135 122 0
140 126 0
139 125 0
142 129 0
140 126 0
139 127 0
142 131 0
138 127 0
141 129 0
143 129 0
140 126 0
143 133 0
143 132 0
138 126 0
146 136 0
142 129 0
142 130 0
140 128 0
142 132 0
145 134 0
145 134 0
142 131 0
142 131 0
145 134 0
143 132 0
143 134 0
147 136 0
143 133 0
143 134 0
140 130 0
146 135 0
143 135 0
145 138 0
147 138 0
143 135 0
147 137 0
144 136 0
145 138 0
145 139 0
147 138 0
148 142 0
147 140 0
147 139 0
146 137 0
148 140 0
147 139 0
148 140 0
148 141 0
147 142 0
146 139 0
148 143 0
148 143 0
181 205 144
184 209 171
187 212 193
186 210 179
188 212 196
187 212 199
189 213 196
193 217 224
190 214 203
193 217 223
191 215 211
192 216 214
192 216 217
193 217 220
197 220 237
195 219 230
196 220 234
194 218 227
196 219 231
196 220 236
195 219 228
194 218 227
195 218 230
197 220 234
197 220 237
197 221 238
197 221 236
197 221 237
198 221 238
197 220 237
199 223 245
196 220 233
198 221 240
200 223 249
198 221 240
196 220 230
198 221 241
198 221 238
200 223 248
199 222 242
198 222 241
199 222 244
199 222 244
199 223 246
197 221 238
199 222 245
199 222 245
199 222 244
200 223 250
199 223 248
198 222 244
198 221 241
199 223 250
198 221 242
200 223 250
197 221 242
199 222 246
199 222 246
199 222 246
198 221 242
198 221 242
197 221 244
197 221 241
199 222 248
199 222 249
196 220 241
197 221 244
199 223 252
197 221 242
197 222 246
196 220 242
196 220 240
196 220 244
196 220 245
197 222 249
194 219 237
194 219 241
194 218 241
194 218 242
195 220 242
193 218 240
195 221 248
192 218 237
191 216 240
191 216 236
190 216 234
193 220 248
191 217 237
189 216 231
190 216 238
188 214 227
187 214 230
187 214 226
187 215 230
182 209 220
183 211 215
183 211 221
178 206 206
174 202 181
170 199 157
167 196 114
162 190 44
163 191 0
161 190 0
162 190 0
162 190 0
160 187 0
162 189 0
156 184 0
158 185 0
155 182 0
157 185 0
158 186 0
162 189 0
158 185 0
155 181 0
154 180 0
158 184 0
153 179 0
154 179 0
154 180 0
154 179 0
153 178 0
157 182 0
153 178 0
150 175 0
152 177 0
154 179 0
151 176 0
149 174 0
150 173 0
152 176 0
149 173 0
148 172 0
153 177 0
146 170 0
144 168 0
141 164 0
135 158 0
145 168 0
146 168 0
136 158 0
140 163 0
127 149 0
138 159 0
134 156 0
127 150 0
133 154 0
129 150 0
129 150 0
123 145 0
130 152 0
116 137 0
124 144 0
129 150 0
123 143 0
111 130 0
127 147 0
118 139 0
102 120 0
109 128 0
111 129 0
104 122 0
102 119 0
92 111 0
85 103 25
69 90 44
48 78 54
46 75 51
48 78 54
49 80 65
50 80 70
48 79 54
49 78 67
49 80 62
50 82 60
49 80 51
51 83 60
52 83 70
50 81 67
50 82 70
49 79 67
54 86 80
51 82 57
52 83 65
51 83 60
50 81 60
49 79 57
50 81 54
51 83 54
51 82 67
51 81 82
53 85 82
53 86 74
51 83 65
48 79 57
50 82 65
51 83 76
50 81 57
50 82 74
49 80 72
50 80 67
50 82 65
52 84 74
50 81 57
48 77 67
50 81 67
50 81 67
49 80 54
50 81 65
51 83 76
50 81 74
49 79 51
49 80 62
50 82 54
51 83 76
50 81 65
50 80 67
50 81 67
50 81 54
48 79 62
48 78 62
46 75 57
48 78 67
49 79 65
48 78 57
49 80 65
47 75 54
43 71 51
47 75 65
44 71 47
44 72 44
49 72 44
74 84 0
76 84 0
78 90 0
87 97 0
80 91 0
89 100 0
98 110 0
86 97 0
78 87 0
91 102 0
91 101 0
97 107 0
87 100 0
99 114 0
107 119 0
97 108 0
89 99 0
97 109 0
85 96 0
101 113 0
104 113 0
100 112 0
102 113 0
95 104 0
98 110 0
104 114 0
100 109 0
108 120 0
99 111 0
103 110 0
101 111 0
100 106 0
96 101 0
104 111 0
95 102 0
95 100 0
102 106 0
106 113 0
93 95 0
97 100 0
96 96 0
90 88 0
98 98 0
96 99 0
96 94 0
100 100 0
84 80 0
98 98 0
101 97 0
93 90 0
94 91 0
83 81 0
90 84 0
90 85 0
90 86 0
84 76 0
88 82 0
85 72 0
83 76 0
84 76 0
65 52 0
64 51 0
68 57 0
70 58 0
56 43 0
55 39 0
72 53 0
88 69 0
80 62 0
88 69 0
87 68 0
85 67 0
100 82 0
95 77 0
102 84 0
108 90 0
101 84 0
110 93 0
113 97 0
103 86 0
117 101 0
112 96 0
112 95 0
123 103 0
116 98 0
119 101 0
121 104 0
121 104 0
117 100 0
124 109 0
127 111 0
124 107 0
131 114 0
124 108 0
126 110 0
127 113 0
124 109 0
130 116 0
132 116 0
133 116 0
128 112 0
131 118 0
133 115 0
133 116 0
139 124 0
135 119 0
136 122 0
138 125 0
129 115 0
138 123 0
133 118 0
136 122 0
133 119 0
136 121 0
136 122 0
134 119 0
139 126 0
139 128 0
137 125 0
137 124 0
139 125 0
138 125 0
136 121 0
142 130 0
140 127 0
139 128 0
139 126 0
140 128 0
143 132 0
143 130 0
137 124 0
141 131 0
140 127 0
146 135 0
142 133 0
143 130 0
141 130 0
145 133 0
143 131 0
142 133 0
141 129 0
142 129 0
143 133 0
143 134 0
144 134 0
143 133 0
144 134 0
146 138 0
142 133 0
145 136 0
145 136 0
147 137 0
145 136 0
145 136 0
145 136 0
147 140 0
147 141 0
146 138 0
146 139 0
146 138 0
146 138 0
147 141 0
148 142 0
147 140 0
148 144 0
148 145 0
154 161 0
167 193 0
170 195 51
177 202 120
181 206 153
186 210 191
180 206 153
188 212 194
188 213 198
189 213 201
190 214 207
189 214 206
191 215 212
193 217 223
189 214 206
192 216 215
193 218 224
192 216 214
196 220 233
194 218 227
196 220 238
194 218 226
196 220 234
196 219 231
197 221 240
194 217 221
197 221 241
195 218 228
197 221 238
195 218 227
196 220 233
197 221 240
198 221 242
195 219 228
198 222 246
197 220 237
197 221 241
197 220 237
196 220 236
195 219 233
198 222 244
196 220 238
197 221 238
194 218 226
196 220 241
197 221 240
198 222 246
199 223 249
197 221 244
196 220 238
198 222 242
197 221 240
196 220 236
198 222 245
198 222 248
198 222 245
197 220 244
197 221 246
197 221 242
197 221 245
198 222 246
197 221 242
198 222 252
198 222 250
196 220 241
196 220 240
195 220 242
196 221 242
197 221 245
195 219 241
196 220 244
195 220 241
194 219 244
191 217 224
193 218 236
193 218 234
193 218 236
194 219 244
193 219 241
193 218 237
194 220 245
191 217 237
192 217 242
191 217 233
191 218 237
190 217 238
189 216 230
187 214 236
189 216 234
187 214 226
184 211 223
186 213 227
183 211 212
180 209 203
183 211 220
178 206 199
174 203 167
176 205 191
168 197 140
164 192 80
161 189 0
159 188 0
160 189 0
162 190 0
161 189 0
162 190 0
159 187 0
162 190 0
162 190 0
161 189 0
160 187 0
157 184 0
160 187 0
157 184 0
161 188 0
155 181 0
154 180 0
153 179 0
157 183 0
155 180 0
154 179 0
160 186 0
146 170 0
153 178 0
155 180 0
153 177 0
158 182 0
150 174 0
148 173 0
153 177 0
150 174 0
147 169 0
156 179 0
155 178 0
148 172 0
149 172 0
152 175 0
146 169 0
143 166 0
133 156 0
145 168 0
147 169 0
140 161 0
137 158 0
131 154 0
131 153 0
133 155 0
124 145 0
125 147 0
126 147 0
118 139 0
114 135 0
122 143 0
118 138 0
124 144 0
114 134 0
112 133 0
126 146 0
107 127 0
93 113 0
108 127 0
103 121 0
99 117 0
96 114 0
84 102 0
77 94 0
97 112 0
80 97 0
61 80 18
62 86 44
47 77 62
49 79 67
47 76 60
47 77 54
50 80 57
46 76 31
49 81 57
46 75 54
46 77 36
48 79 60
50 82 57
52 84 70
50 81 65
49 79 60
49 79 60
47 77 60
48 78 60
48 78 47
50 81 72
49 80 65
48 78 67
51 82 65
48 78 51
49 79 60
49 79 57
50 81 74
51 82 72
52 84 67
52 83 76
51 82 70
50 82 62
51 82 65
53 85 90
51 82 78
53 85 82
49 80 62
51 82 60
47 78 44
51 82 70
49 79 54
51 82 67
51 83 80
51 81 72
49 80 65
47 76 57
50 81 54
50 81 72
50 80 78
50 81 70
47 77 54
51 82 65
48 78 65
48 77 65
48 77 57
47 77 54
46 76 57
48 78 60
44 72 44
46 74 62
46 75 57
45 72 65
54 74 25
80 90 0
69 78 0
61 71 0
75 86 0
74 81 0
87 97 0
86 99 0
76 86 0
89 100 0
84 95 0
84 97 0
89 101 0
93 105 0
89 100 0
95 104 0
91 104 0
107 119 0
103 113 0
101 111 0
100 113 0
95 106 0
102 113 0
114 127 0
102 110 0
100 110 0
90 103 0
103 115 0
91 101 0
92 101 0
85 95 0
97 108 0
100 109 0
114 122 0
109 112 0
99 106 0
103 114 0
98 105 0
99 106 0
115 121 0
98 106 0
106 113 0
107 111 0
108 113 0
103 105 0
108 108 0
93 95 0
87 89 0
111 113 0
95 97 0
93 91 0
104 103 0
108 107 0
109 107 0
88 85 0
86 81 0
100 96 0
102 98 0
79 74 0
89 80 0
83 75 0
81 72 0
78 69 0
73 63 0
74 66 0
79 69 0
81 70 0
67 55 0
59 48 0
55 40 0
53 40 0
67 49 0
71 52 0
79 60 0
87 68 0
87 68 0
84 65 0
93 74 0
94 78 0
98 78 0
90 71 0
111 95 0
108 89 0
106 89 0
107 88 0
111 94 0
115 97 0
115 97 0
114 98 0
117 98 0
127 110 0
123 106 0
116 99 0
121 104 0
119 104 0
120 105 0
126 111 0
121 106 0
130 114 0
123 105 0
129 113 0
129 111 0
125 108 0
129 112 0
132 115 0
128 113 0
129 111 0
130 115 0
131 118 0
134 120 0
136 120 0
132 116 0
138 125 0
136 121 0
131 116 0
140 125 0
136 124 0
139 124 0
137 121 0
141 127 0
132 115 0
139 125 0
137 122 0
138 125 0
137 123 0
139 129 0
140 128 0
138 128 0
142 129 0
138 125 0
137 124 0
142 129 0
139 126 0
143 132 0
143 131 0
141 128 0
140 129 0
141 129 0
141 130 0
142 130 0
143 132 0
142 130 0
141 129 0
143 132 0
143 132 0
143 132 0
142 131 0
145 133 0
143 133 0
143 133 0
144 134 0
144 134 0
144 131 0
146 135 0
148 140 0
145 136 0
146 136 0
147 139 0
147 139 0
146 138 0
148 139 0
146 139 0
149 141 0
150 144 0
146 140 0
148 143 0
155 158 0
161 176 0
165 187 0
168 191 0
167 193 0
170 196 0
170 195 0
170 196 44
174 199 88
176 201 108
183 208 173
184 209 175
185 210 181
185 209 184
189 214 207
189 213 204
187 211 189
189 214 206
191 216 215
190 215 211
190 215 212
192 216 221
191 216 217
193 217 226
189 213 201
193 218 227
194 218 233
193 217 221
195 219 236
195 219 233
195 219 236
194 218 228
192 217 226
195 219 237
197 221 241
195 219 236
195 219 233
194 218 230
195 219 234
195 219 230
196 220 237
196 220 238
197 221 244
196 220 238
196 220 240
194 219 233
198 222 249
195 219 238
196 220 238
196 220 242
196 220 241
197 221 244
195 219 238
197 221 245
196 220 241
195 219 238
194 218 230
196 220 240
195 220 237
196 221 242
197 221 249
196 220 240
195 219 236
194 219 233
195 220 238
195 220 241
194 219 238
194 219 237
196 221 246
195 220 245
195 220 242
195 220 241
195 220 246
194 220 244
191 216 228
193 218 236
193 219 244
193 218 240
192 218 237
190 216 231
191 217 238
192 218 238
189 215 234
190 217 236
191 217 236
189 215 230
189 216 238
186 213 221
182 209 206
188 215 233
184 211 209
186 214 226
181 209 209
180 208 209
180 208 201
178 207 199
177 206 194
171 200 155
168 197 130
163 192 92
162 191 36
161 189 0
160 189 0
160 188 0
163 191 0
161 189 0
160 189 0
158 187 0
160 188 0
162 190 0
159 187 0
163 190 0
160 187 0
159 186 0
161 188 0
157 183 0
157 184 0
157 183 0
153 178 0
155 181 0
157 183 0
150 175 0
158 183 0
153 178 0
155 180 0
154 179 0
155 179 0
149 173 0
155 179 0
150 175 0
151 175 0
151 176 0
146 170 0
145 168 0
152 176 0
144 168 0
146 169 0
144 167 0
144 167 0
144 167 0
139 162 0
145 168 0
136 157 0
144 166 0
135 157 0
139 162 0
141 163 0
139 161 0
134 157 0
137 158 0
141 163 0
134 155 0
129 150 0
128 149 0
118 139 0
128 148 0
119 140 0
123 143 0
115 135 0
106 125 0
118 137 0
105 125 0
108 126 0
114 133 0
109 127 0
90 109 0
81 100 0
89 107 0
96 113 0
97 114 0
84 100 0
86 101 0
87 103 0
75 92 18
50 76 51
47 76 47
42 69 47
48 78 60
46 75 57
49 80 60
48 78 65
46 76 47
47 77 47
48 78 62
50 81 60
48 78 54
50 81 65
46 76 31
50 81 57
50 81 65
49 80 62
48 79 54
48 78 57
49 79 78
51 82 78
50 82 57
50 81 70
49 79 62
49 80 67
49 80 57
49 80 67
52 84 78
49 79 44
51 83 72
51 82 54
48 79 47
49 79 51
51 81 70
46 75 54
51 83 67
49 80 72
49 80 51
48 79 51
45 74 44
50 81 57
46 75 54
49 80 60
48 78 67
47 76 54
47 77 54
49 79 62
46 75 40
50 81 70
49 79 70
44 72 36
46 74 51
48 78 67
47 75 51
46 73 70
43 71 31
46 75 47
46 74 57
42 65 40
51 63 18
71 81 0
64 73 0
69 80 0
69 78 0
81 89 0
80 88 0
73 81 0
77 88 0
77 90 0
92 103 0
89 99 0
89 101 0
94 102 0
73 84 0
88 98 0
104 116 0
84 98 0
98 109 0
95 105 0
90 100 0
94 108 0
93 102 0
93 103 0
92 102 0
96 107 0
97 106 0
105 115 0
91 103 0
106 118 0
97 107 0
96 103 0
109 117 0
113 124 0
110 119 0
106 116 0
106 113 0
102 110 0
97 105 0
95 98 0
98 104 0
97 103 0
112 117 0
103 107 0
105 109 0
100 105 0
95 98 0
107 109 0
103 105 0
97 100 0
112 116 0
99 97 0
94 95 0
88 87 0
95 92 0
104 102 0
100 100 0
93 92 0
97 91 0
96 96 0
91 85 0
80 73 0
80 72 0
100 92 0
88 77 0
76 66 0
87 76 0
82 70 0
72 63 0
67 52 0
64 51 0
59 46 0
61 52 0
57 47 0
48 33 0
57 42 0
78 59 0
77 60 0
85 65 0
89 70 0
88 68 0
101 81 0
99 80 0
95 75 0
102 85 0
104 86 0
100 81 0
110 92 0
104 85 0
111 92 0
111 96 0
117 99 0
118 100 0
117 100 0
120 103 0
125 106 0
121 105 0
123 107 0
119 103 0
123 105 0
126 109 0
130 114 0
123 108 0
129 113 0
126 109 0
131 114 0
127 109 0
132 117 0
130 115 0
134 117 0
129 111 0
131 115 0
137 121 0
134 118 0
130 115 0
128 111 0
139 127 0
130 115 0
134 119 0
135 122 0
140 125 0
136 121 0
136 123 0
135 119 0
134 123 0
142 128 0
138 124 0
134 118 0
136 123 0
142 130 0
137 124 0
141 128 0
143 132 0
137 122 0
138 126 0
139 129 0
142 128 0
143 130 0
138 126 0
144 131 0
141 127 0
142 130 0
143 131 0
144 133 0
141 129 0
141 128 0
142 132 0
143 132 0
146 136 0
143 131 0
146 136 0
143 131 0
145 136 0
144 134 0
146 134 0
144 135 0
147 138 0
147 139 0
147 137 0
147 138 0
148 139 0
147 138 0
146 140 0
147 140 0
153 155 0
160 174 0
165 186 0
167 191 0
169 190 0
168 191 0
165 188 0
169 194 0
170 195 0
171 196 0
167 192 0
171 196 0
169 194 0
169 193 25
174 198 76
176 201 114
179 204 147
183 208 165
181 207 161
185 210 186
189 214 211
185 210 184
187 212 196
188 213 203
187 212 207
189 214 211
189 214 207
190 215 217
192 217 230
193 217 227
192 217 221
192 216 220
192 217 224
192 216 226
194 218 233
194 219 234
191 216 220
192 217 224
195 219 237
192 217 226
195 220 240
194 219 231
194 219 234
195 219 238
195 219 237
194 219 233
193 217 230
194 218 231
194 218 233
195 219 238
193 218 228
194 218 233
193 218 230
194 219 234
195 220 241
194 218 234
196 221 246
196 221 244
195 220 241
196 220 242
195 220 241
193 218 234
194 219 240
194 219 240
195 220 244
195 220 244
193 218 236
191 216 236
193 219 240
194 219 238
191 217 230
192 217 236
192 217 233
193 218 242
191 217 231
193 219 240
194 220 245
191 217 234
192 218 238
190 216 233
188 214 228
190 217 234
190 216 231
191 218 240
189 216 230
190 217 238
188 215 226
187 214 227
185 213 220
185 212 220
183 211 217
179 207 204
184 212 226
181 209 214
179 207 201
180 209 206
176 204 181
170 199 161
169 198 137
162 191 76
162 191 36
160 188 0
161 189 0
161 190 0
160 188 0
161 190 0
158 186 0
160 188 0
159 187 0
162 190 0
162 189 0
160 187 0
159 186 0
159 186 0
164 191 0
164 190 0
152 179 0
156 183 0
157 182 0
156 182 0
155 181 0
158 184 0
159 185 0
158 184 0
153 179 0
152 176 0
151 176 0
154 179 0
153 177 0
156 180 0
151 176 0
155 180 0
150 174 0
139 163 0
145 169 0
148 171 0
147 171 0
148 171 0
148 171 0
145 168 0
148 170 0
141 163 0
140 163 0
137 160 0
138 161 0
139 161 0
140 162 0
138 161 0
136 159 0
133 155 0
140 162 0
127 149 0
130 151 0
129 150 0
125 147 0
114 135 0
131 153 0
117 138 0
125 145 0
118 140 0
117 137 0
114 134 0
104 123 0
111 129 0
118 136 0
106 125 0
112 132 0
92 109 0
89 107 0
88 106 0
89 105 0
88 106 0
79 96 0
74 92 0
89 104 0
97 113 0
73 87 0
64 78 0
67 85 31
46 69 36
42 69 51
43 72 40
45 74 51
48 78 54
46 75 54
46 75 57
48 78 44
47 77 62
47 76 44
45 74 47
48 79 60
49 80 60
51 82 62
47 76 44
49 79 57
50 80 65
49 80 57
48 78 54
49 79 65
48 78 57
50 81 60
50 81 67
48 79 51
48 78 60
48 78 54
47 77 60
48 78 51
47 76 60
48 79 57
48 78 65
46 76 54
46 75 47
48 78 57
48 78 62
49 78 74
47 76 62
49 80 47
52 84 65
47 77 51
48 79 67
45 74 40
47 77 57
46 75 54
44 72 47
46 75 54
48 78 62
49 80 62
47 77 51
46 75 44
47 76 40
44 72 47
41 67 18
42 69 47
40 63 44
57 73 18
59 69 18
73 82 0
60 68 0
74 84 0
62 70 0
71 79 0
67 77 0
74 85 0
70 78 0
79 90 0
79 89 0
75 88 0
81 94 0
74 83 0
94 103 0
92 106 0
85 98 0
91 103 0
84 94 0
95 106 0
101 113 0
83 92 0
100 112 0
102 114 0
98 107 0
99 109 0
100 113 0
92 104 0
108 119 0
100 109 0
113 124 0
108 119 0
110 122 0
110 121 0
99 109 0
105 114 0
101 110 0
100 110 0
102 111 0
103 110 0
108 116 0
101 109 0
106 115 0
103 109 0
94 100 0
100 107 0
110 117 0
104 109 0
104 109 0
96 97 0
99 102 0
97 98 0
100 101 0
89 91 0
99 100 0
91 92 0
100 98 0
103 102 0
91 88 0
93 90 0
89 88 0
86 84 0
106 104 0
88 80 0
87 83 0
91 84 0
89 81 0
85 76 0
70 60 0
76 69 0
79 67 0
71 60 0
70 59 0
71 60 0
57 41 0
53 40 0
58 44 0
48 35 0
53 36 0
63 47 0
70 48 0
82 61 0
84 62 0
89 69 0
101 82 0
98 78 0
104 84 0
106 85 0
100 80 0
108 89 0
107 87 0
111 92 0
110 87 0
112 94 0
110 91 0
117 98 0
116 99 0
121 103 0
116 99 0
116 97 0
123 106 0
118 101 0
122 106 0
123 107 0
129 109 0
121 105 0
126 109 0
126 108 0
126 108 0
133 117 0
124 108 0
130 114 0
128 110 0
128 110 0
129 113 0
136 118 0
135 119 0
131 116 0
134 118 0
135 120 0
133 118 0
131 115 0
136 123 0
132 116 0
138 125 0
134 118 0
137 120 0
133 120 0
134 117 0
132 119 0
139 126 0
138 122 0
139 124 0
141 130 0
136 120 0
136 123 0
139 126 0
139 126 0
138 124 0
138 125 0
145 131 0
138 125 0
142 130 0
139 125 0
144 133 0
143 131 0
142 128 0
142 130 0
141 131 0
146 135 0
145 133 0
140 130 0
143 134 0
143 132 0
146 135 0
145 135 0
145 134 0
143 132 0
145 137 0
148 138 0
148 139 0
147 141 0
149 149 0
157 168 0
165 185 0
167 190 0
167 188 0
167 190 0
167 189 0
167 188 0
166 189 0
165 187 0
169 195 0
171 196 0
171 196 0
171 195 0
171 195 0
172 196 0
171 196 0
170 195 0
170 195 0
170 195 36
174 198 88
174 199 92
178 203 133
183 208 169
182 207 171
182 207 163
186 211 198
186 211 188
189 214 206
188 213 203
186 212 199
187 212 201
191 216 223
190 215 214
189 214 209
189 214 212
191 216 224
187 212 198
190 215 217
191 216 226
192 217 228
192 218 231
192 218 230
191 216 221
193 218 234
191 216 224
192 217 227
191 216 218
192 217 228
191 216 227
193 218 234
195 220 242
191 216 224
191 216 227
194 219 237
193 218 231
192 217 231
193 218 237
191 217 227
194 219 237
193 218 236
192 217 228
194 219 241
192 218 233
193 219 237
193 218 238
194 219 242
194 220 246
190 216 224
193 219 241
191 217 231
192 218 236
191 217 234
191 216 228
191 217 233
190 216 230
191 218 238
191 217 236
192 218 240
189 216 228
187 214 221
187 213 215
188 215 233
190 217 240
188 215 228
187 214 227
184 212 214
186 214 223
187 214 233
184 212 217
183 211 215
183 211 221
180 208 198
181 210 218
180 209 209
175 203 175
173 202 159
171 201 157
165 193 95
162 192 57
162 191 0
160 189 0
160 189 0
162 190 0
163 190 0
161 190 0
161 189 0
162 191 0
155 183 0
159 187 0
162 190 0
162 190 0
158 185 0
159 186 0
161 187 0
159 186 0
161 188 0
161 188 0
156 183 0
159 185 0
157 183 0
161 187 0
154 180 0
157 182 0
155 180 0
156 181 0
158 184 0
153 178 0
156 181 0
148 173 0
153 178 0
152 177 0
151 175 0
151 175 0
147 170 0
154 178 0
152 176 0
140 163 0
146 169 0
146 169 0
148 172 0
147 170 0
140 163 0
145 168 0
142 166 0
136 158 0
146 169 0
140 162 0
128 150 0
147 169 0
141 162 0
146 168 0
135 157 0
139 161 0
127 148 0
121 142 0
125 146 0
136 158 0
130 151 0
132 153 0
126 146 0
118 138 0
126 146 0
123 144 0
128 148 0
106 127 0
117 136 0
107 126 0
108 128 0
110 129 0
114 133 0
94 112 0
86 104 0
98 115 0
92 110 0
71 87 0
92 109 0
81 97 0
85 101 0
63 78 0
77 93 0
56 70 0
53 66 0
60 76 18
52 72 31
42 69 44
46 74 57
46 74 60
45 74 44
47 77 47
46 75 44
44 73 44
48 78 47
46 76 47
41 68 36
44 72 51
47 76 60
46 75 65
46 75 51
47 77 54
49 80 67
44 73 44
48 78 60
47 77 60
48 78 51
51 82 60
47 76 57
47 76 51
50 80 65
47 76 51
49 80 47
47 76 57
47 77 57
46 75 44
44 73 47
46 75 54
47 77 65
47 77 44
51 82 67
46 75 54
46 75 54
47 77 57
48 78 67
44 73 47
47 76 51
45 73 57
43 71 40
46 74 57
47 75 47
47 76 54
44 71 44
47 75 51
43 71 44
43 70 54
52 69 25
53 66 18
46 54 0
60 72 0
59 67 0
61 69 0
73 82 0
71 80 0
61 71 0
83 91 0
76 86 0
69 79 0
80 92 0
77 85 0
73 84 0
86 99 0
77 89 0
80 92 0
87 97 0
95 105 0
87 99 0
89 101 0
88 99 0
90 102 0
99 109 0
95 106 0
87 100 0
92 105 0
95 105 0
104 117 0
101 111 0
90 103 0
106 119 0
109 121 0
105 115 0
90 101 0
95 107 0
114 127 0
108 117 0
105 117 0
104 114 0
108 120 0
97 108 0
99 106 0
104 112 0
94 101 0
102 111 0
98 105 0
100 107 0
98 103 0
110 113 0
104 113 0
110 115 0
83 86 0
114 117 0
101 103 0
103 105 0
105 104 0
99 102 0
101 102 0
95 96 0
99 96 0
98 93 0
97 97 0
97 97 0
98 93 0
102 98 0
99 94 0
102 98 0
94 88 0
94 89 0
91 85 0
91 83 0
81 76 0
82 72 0
86 74 0
90 82 0
80 67 0
75 64 0
67 51 0
68 54 0
73 60 0
60 46 0
63 50 0
54 38 0
40 24 0
55 35 0
68 52 0
78 58 0
80 60 0
86 66 0
93 71 0
108 87 0
97 75 0
107 88 0
98 80 0
109 89 0
109 90 0
108 88 0
109 90 0
109 89 0
120 100 0
114 96 0
122 103 0
113 95 0
125 106 0
122 103 0
127 107 0
121 101 0
118 99 0
117 97 0
129 110 0
127 111 0
131 115 0
121 100 0
125 108 0
122 103 0
129 111 0
132 114 0
129 112 0
125 108 0
130 111 0
132 117 0
130 113 0
130 113 0
132 116 0
128 111 0
130 115 0
137 122 0
133 114 0
134 117 0
132 114 0
134 120 0
137 120 0
136 121 0
138 122 0
141 124 0
133 114 0
138 125 0
140 127 0
130 114 0
144 131 0
140 126 0
137 121 0
137 121 0
141 128 0
143 130 0
143 131 0
139 126 0
140 126 0
143 130 0
139 127 0
138 124 0
141 128 0
143 131 0
144 134 0
146 135 0
143 133 0
145 136 0
144 134 0
146 137 0
144 135 0
149 145 0
154 160 0
160 171 0
165 182 0
166 187 0
164 184 0
167 187 0
166 185 0
167 188 0
167 186 0
168 190 0
166 188 0
166 188 0
166 189 0
171 196 0
173 197 0
171 196 0
171 196 0
169 194 0
171 196 0
170 195 0
171 196 0
171 196 0
171 195 0
170 195 0
172 196 0
171 196 0
173 197 36
172 196 72
177 202 117
178 203 130
181 206 157
183 209 179
180 206 163
186 211 193
184 209 184
183 209 181
183 208 181
188 213 209
187 213 206
188 214 220
188 214 221
187 213 204
190 216 223
191 216 227
191 216 224
188 213 211
189 215 217
190 216 223
191 216 227
189 215 217
189 214 212
193 218 240
192 217 234
192 217 231
190 215 221
191 216 227
192 217 231
193 218 237
190 215 223
191 217 228
192 218 238
193 219 242
189 215 217
190 216 224
190 215 224
191 217 238
190 216 231
190 216 230
190 216 227
188 214 227
191 217 234
190 216 228
188 214 221
190 216 236
189 215 228
188 215 223
189 216 228
186 213 218
188 215 226
187 214 227
187 214 226
189 215 227
185 212 218
186 213 217
184 211 211
186 214 224
185 213 220
182 210 214
183 211 215
183 211 214
179 207 193
179 207 194
176 205 198
177 205 191
177 206 194
175 203 175
172 201 155
168 197 125
164 193 80
160 189 0
161 189 0
160 189 0
160 188 0
160 189 0
161 188 0
160 189 0
161 189 0
161 189 0
159 187 0
161 189 0
161 189 0
163 190 0
160 187 0
163 191 0
160 187 0
162 189 0
163 190 0
161 189 0
158 184 0
160 187 0
159 185 0
161 188 0
157 183 0
154 180 0
157 183 0
159 184 0
157 182 0
150 175 0
159 184 0
160 185 0
153 177 0
152 177 0
158 183 0
154 179 0
151 175 0
153 177 0
150 174 0
148 171 0
140 164 0
142 166 0
139 162 0
143 166 0
150 173 0
148 171 0
146 169 0
137 159 0
139 162 0
140 163 0
142 164 0
139 161 0
149 172 0
138 160 0
144 166 0
134 157 0
131 153 0
126 148 0
134 156 0
137 159 0
130 153 0
125 145 0
126 146 0
120 140 0
126 147 0
120 141 0
116 137 0
106 126 0
111 130 0
117 137 0
116 134 0
113 132 0
116 135 0
102 120 0
108 127 0
95 114 0
97 116 0
89 106 0
90 108 0
86 102 0
78 94 0
80 96 0
73 89 0
75 90 0
75 90 0
88 103 0
68 82 0
53 67 0
64 75 0
69 83 0
54 69 0
55 72 31
40 66 31
43 70 51
43 71 51
43 71 44
44 73 36
46 76 44
45 74 44
44 72 31
43 71 40
45 73 51
44 72 57
47 77 60
43 71 44
47 76 60
47 77 44
46 75 44
48 78 60
45 74 60
46 75 40
46 75 51
46 75 40
47 77 44
46 76 36
46 75 47
47 77 62
44 72 62
47 77 51
49 80 67
43 71 51
47 76 60
44 73 51
43 71 31
46 76 62
45 74 47
45 74 47
45 74 44
47 77 65
42 69 31
43 70 47
48 78 47
39 64 44
42 69 40
42 69 51
41 68 36
37 61 36
37 55 25
44 53 0
44 51 0
56 61 0
55 64 0
61 70 0
62 70 0
49 60 0
61 70 0
65 76 0
67 78 0
71 80 0
72 84 0
85 97 0
70 79 0
73 84 0
67 80 0
82 93 0
82 92 0
88 100 0
85 98 0
73 87 0
83 96 0
86 96 0
99 112 0
95 109 0
102 114 0
86 98 0
99 112 0
100 110 0
100 112 0
106 120 0
109 122 0
102 113 0
102 114 0
84 94 0
110 121 0
104 115 0
104 117 0
110 121 0
110 121 0
102 114 0
102 112 0
106 114 0
103 115 0
120 127 0
109 117 0
106 115 0
94 98 0
104 111 0
106 112 0
108 116 0
109 115 0
102 109 0
98 102 0
111 115 0
99 103 0
106 112 0
112 115 0
85 88 0
98 103 0
108 110 0
104 105 0
102 102 0
102 104 0
105 108 0
103 102 0
94 91 0
93 91 0
104 100 0
98 93 0
93 88 0
92 86 0
95 91 0
102 94 0
103 98 0
97 91 0
84 73 0
90 78 0
85 74 0
86 76 0
89 78 0
71 57 0
83 74 0
61 47 0
64 49 0
65 51 0
56 39 0
60 43 0
46 30 0
59 47 0
50 33 0
62 43 0
70 51 0
76 54 0
87 66 0
95 72 0
95 73 0
95 75 0
101 78 0
110 90 0
104 84 0
106 85 0
107 87 0
113 94 0
113 93 0
109 88 0
114 95 0
117 98 0
115 94 0
116 93 0
120 101 0
123 104 0
122 104 0
119 101 0
122 101 0
127 109 0
128 110 0
131 111 0
122 102 0
128 109 0
129 112 0
130 113 0
130 112 0
128 110 0
129 113 0
128 110 0
130 111 0
130 111 0
131 115 0
135 115 0
134 116 0
134 118 0
133 115 0
131 117 0
135 120 0
134 119 0
136 121 0
135 117 0
136 120 0
134 116 0
137 121 0
135 119 0
136 118 0
135 119 0
137 122 0
135 121 0
139 127 0
139 125 0
139 125 0
136 121 0
141 129 0
139 126 0
142 128 0
142 128 0
144 133 0
146 132 0
145 134 0
144 132 0
143 131 0
147 142 0
151 151 0
156 165 0
162 176 0
165 182 0
164 183 0
165 184 0
167 187 0
167 187 0
166 187 0
166 187 0
167 187 0
167 188 0
168 190 0
167 189 0
166 188 0
166 187 0
166 190 0
171 196 0
171 196 0
170 195 0
170 195 0
172 196 0
171 195 0
170 195 0
170 194 0
170 195 0
171 196 0
170 195 0
170 195 0
169 194 0
172 197 0
171 196 0
171 195 0
173 197 0
172 197 36
173 197 57
173 197 88
177 202 133
178 203 137
180 205 157
179 205 157
182 208 179
184 210 193
183 208 181
184 210 189
186 212 203
185 210 194
186 212 199
187 213 214
187 213 214
186 212 204
186 211 206
185 211 201
188 214 214
188 214 220
184 210 201
189 215 223
189 214 214
190 216 230
189 215 221
189 216 226
190 216 226
184 210 204
188 214 226
189 216 228
190 216 226
190 216 230
189 215 227
188 214 221
187 213 214
187 213 214
188 214 223
189 215 227
187 213 223
188 215 227
187 213 220
186 213 214
184 211 204
186 214 221
188 215 231
185 212 214
185 213 220
184 211 217
183 211 217
184 211 217
182 210 214
181 209 209
182 210 209
183 211 211
181 210 206
179 207 199
179 208 204
177 206 189
176 205 179
172 200 161
170 199 149
171 199 147
164 193 92
165 194 95
161 190 36
161 190 0
162 191 0
161 189 0
161 189 0
160 189 0
162 190 0
163 191 0
161 190 0
161 189 0
159 186 0
161 190 0
161 189 0
161 189 0
160 187 0
159 186 0
160 187 0
160 187 0
160 187 0
160 187 0
161 188 0
159 186 0
151 178 0
161 187 0
159 186 0
163 189 0
157 183 0
153 178 0
156 181 0
157 182 0
145 170 0
151 176 0
153 178 0
158 183 0
158 183 0
151 175 0
153 177 0
153 177 0
153 177 0
150 174 0
150 174 0
154 178 0
147 170 0
154 178 0
146 169 0
140 162 0
149 172 0
154 178 0
144 167 0
145 169 0
147 171 0
147 169 0
137 160 0
143 166 0
147 169 0
138 160 0
134 155 0
129 150 0
136 158 0
130 152 0
130 151 0
142 164 0
132 153 0
119 140 0
108 129 0
124 146 0
123 145 0
134 155 0
115 135 0
130 151 0
111 131 0
116 136 0
119 139 0
107 126 0
107 127 0
113 132 0
89 108 0
98 116 0
113 132 0
98 114 0
99 117 0
98 114 0
98 115 0
87 103 0
85 102 0
82 97 0
78 94 0
79 95 0
89 104 0
74 88 0
62 75 0
57 70 0
58 71 0
72 84 0
55 66 0
45 55 0
46 58 0
29 49 18
39 61 25
42 70 25
42 70 25
43 71 60
39 66 31
44 72 51
43 71 44
43 70 54
45 74 47
44 72 57
46 76 51
47 77 54
46 75 47
41 68 47
47 76 62
47 77 44
43 71 44
45 74 54
46 75 54
48 78 74
47 77 60
45 74 47
43 70 47
45 73 57
43 71 31
43 71 36
42 69 44
43 71 40
44 71 51
39 64 40
44 72 47
44 73 47
45 74 40
43 70 60
45 74 44
39 65 36
39 64 36
38 63 25
42 63 40
36 56 25
48 58 18
39 49 0
47 55 0
46 53 0
62 72 0
58 65 0
52 61 0
61 68 0
63 73 0
63 74 0
54 63 0
68 77 0
66 77 0
74 83 0
84 97 0
69 82 0
77 91 0
73 85 0
73 84 0
73 86 0
90 101 0
95 106 0
85 96 0
69 82 0
84 96 0
89 102 0
91 106 0
107 118 0
95 108 0
96 105 0
97 112 0
88 101 0
102 113 0
102 116 0
103 112 0
108 120 0
98 110 0
115 126 0
98 110 0
108 120 0
100 111 0
112 124 0
109 121 0
100 109 0
115 127 0
104 114 0
112 119 0
104 115 0
103 113 0
108 115 0
107 117 0
112 118 0
94 101 0
100 107 0
103 109 0
93 98 0
111 117 0
105 111 0
105 111 0
109 115 0
118 124 0
109 112 0
106 110 0
105 106 0
105 109 0
105 107 0
118 120 0
108 108 0
115 115 0
112 112 0
110 111 0
104 106 0
120 120 0
97 94 0
104 99 0
103 98 0
97 93 0
98 91 0
95 89 0
87 82 0
101 93 0
87 76 0
88 76 0
83 74 0
94 83 0
91 81 0
83 70 0
87 75 0
76 61 0
73 57 0
74 61 0
76 63 0
71 53 0
53 36 0
67 52 0
64 50 0
56 43 0
59 44 0
58 40 0
65 45 0
77 55 0
90 67 0
89 66 0
93 73 0
87 66 0
101 80 0
102 79 0
103 78 0
112 91 0
109 86 0
111 88 0
109 86 0
112 90 0
115 93 0
118 98 0
123 103 0
123 102 0
118 98 0
122 101 0
125 106 0
122 100 0
122 100 0
119 101 0
124 103 0
122 103 0
125 105 0
126 107 0
124 104 0
127 110 0
131 113 0
124 106 0
128 112 0
132 116 0
132 114 0
135 116 0
131 113 0
136 118 0
131 114 0
130 112 0
131 115 0
134 119 0
131 114 0
132 116 0
133 116 0
136 120 0
138 121 0
133 117 0
138 122 0
140 123 0
139 122 0
138 122 0
138 123 0
137 122 0
137 124 0
142 128 0
141 127 0
144 133 0
142 131 0
147 142 0
152 154 0
158 167 0
167 181 0
165 183 0
167 184 0
165 182 0
165 180 0
166 186 0
165 181 0
164 183 0
165 184 0
165 184 0
166 187 0
166 186 0
165 186 0
165 187 0
167 186 0
167 189 0
166 187 0
165 186 0
168 188 0
171 195 0
169 194 0
171 196 0
171 196 0
170 195 0
172 196 0
171 196 0
170 195 0
172 196 0
172 196 0
171 196 0
171 195 0
170 195 0
171 196 0
173 197 0
171 196 0
172 197 0
172 196 0
170 195 0
171 195 0
172 196 0
171 196 0
172 196 0
174 199 102
175 200 92
177 202 114
175 201 120
178 204 159
179 205 163
181 207 171
181 208 181
182 208 179
182 208 182
179 206 173
182 208 184
184 211 204
184 210 196
182 209 193
186 213 211
186 213 212
186 212 209
184 210 201
184 211 206
184 211 201
184 211 209
183 210 201
181 208 188
186 213 223
184 211 204
185 212 211
186 213 215
186 213 217
185 212 214
183 211 203
185 212 217
184 211 207
184 211 203
184 211 215
184 211 214
184 212 214
182 210 203
183 211 211
181 209 199
180 208 204
182 210 207
182 210 209
181 209 199
177 205 186
177 206 193
177 205 184
176 205 186
174 203 173
171 200 147
169 198 133
167 196 120
164 193 84
163 191 51
160 189 25
161 190 0
162 190 0
160 188 0
163 192 0
161 190 0
162 190 0
162 191 0
160 189 0
162 190 0
161 189 0
162 190 0
162 190 0
162 190 0
159 187 0
157 185 0
160 187 0
163 191 0
160 188 0
162 190 0
160 187 0
160 187 0
161 188 0
158 184 0
157 184 0
163 189 0
156 182 0
159 185 0
160 186 0
156 182 0
159 184 0
156 182 0
156 182 0
160 185 0
158 184 0
152 177 0
154 179 0
157 182 0
155 179 0
151 175 0
154 179 0
152 176 0
154 178 0
156 181 0
150 174 0
156 180 0
152 175 0
146 169 0
151 174 0
151 175 0
148 170 0
148 171 0
151 174 0
149 172 0
148 171 0
141 163 0
141 164 0
139 162 0
144 167 0
141 163 0
142 164 0
132 155 0
129 152 0
137 160 0
131 152 0
130 152 0
132 154 0
127 148 0
128 150 0
129 150 0
125 146 0
116 136 0
136 157 0
121 142 0
106 126 0
113 132 0
117 136 0
108 128 0
114 133 0
109 129 0
107 127 0
110 130 0
96 114 0
102 120 0
94 112 0
81 98 0
83 100 0
94 112 0
84 101 0
81 97 0
88 105 0
66 83 0
69 84 0
71 85 0
60 73 0
56 70 0
70 83 0
55 68 0
55 67 0
67 80 0
43 52 0
42 55 0
43 52 0
52 60 0
31 42 0
39 57 0
40 63 36
37 60 40
41 68 36
45 74 36
43 70 44
45 73 44
41 68 36
43 69 51
42 69 44
46 74 60
44 72 31
42 70 18
45 73 62
45 73 47
42 70 40
43 70 31
43 70 44
43 70 54
41 68 36
42 69 47
42 69 40
41 67 36
41 68 25
41 67 51
41 68 54
41 67 40
41 67 47
40 65 31
44 71 36
42 68 44
42 68 44
39 61 25
34 54 0
28 46 0
39 49 0
30 37 0
48 56 0
56 64 0
44 52 0
47 55 0
44 52 0
60 71 0
54 63 0
61 72 0
62 71 0
60 71 0
58 67 0
60 72 0
72 82 0
64 75 0
82 93 0
66 79 0
81 93 0
78 91 0
78 91 0
78 91 0
82 94 0
86 97 0
90 101 0
88 100 0
98 112 0
95 107 0
96 106 0
96 107 0
89 103 0
86 98 0
95 108 0
90 101 0
102 113 0
90 102 0
98 109 0
107 120 0
105 116 0
107 121 0
95 106 0
109 120 0
95 106 0
114 126 0
105 117 0
106 121 0
114 128 0
116 128 0
111 124 0
107 121 0
107 117 0
105 114 0
117 126 0
106 114 0
103 114 0
110 119 0
115 125 0
121 131 0
112 119 0
107 114 0
104 108 0
113 120 0
105 110 0
110 116 0
104 111 0
112 116 0
107 110 0
110 112 0
116 119 0
115 113 0
99 98 0
105 107 0
111 113 0
109 111 0
102 103 0
103 104 0
112 114 0
93 88 0
96 94 0
113 112 0
105 102 0
102 97 0
103 97 0
94 89 0
100 95 0
105 99 0
86 78 0
93 85 0
82 70 0
101 89 0
93 83 0
85 72 0
90 76 0
88 72 0
88 74 0
77 69 0
83 69 0
81 65 0
69 56 0
69 56 0
72 55 0
70 56 0
68 50 0
69 55 0
65 50 0
71 52 0
75 57 0
72 50 0
81 61 0
97 75 0
89 65 0
87 64 0
99 76 0
101 80 0
105 83 0
107 86 0
116 97 0
118 96 0
109 88 0
113 90 0
114 93 0
115 94 0
118 97 0
118 96 0
114 94 0
116 95 0
118 96 0
120 99 0
123 105 0
122 100 0
125 105 0
127 108 0
128 109 0
127 107 0
127 108 0
126 107 0
129 111 0
127 108 0
133 114 0
129 111 0
126 107 0
132 114 0
130 111 0
134 116 0
133 116 0
128 110 0
138 121 0
131 115 0
138 122 0
135 117 0
135 118 0
137 121 0
136 119 0
137 119 0
134 122 0
144 134 0
149 143 0
151 152 0
155 159 0
160 169 0
162 176 0
162 175 0
161 174 0
164 179 0
166 183 0
164 179 0
162 179 0
166 183 0
165 180 0
164 180 0
165 183 0
164 181 0
166 185 0
165 182 0
165 184 0
166 184 0
165 186 0
166 181 0
164 183 0
168 190 0
166 183 0
166 184 0
166 188 0
172 196 0
171 195 0
170 196 0
172 197 0
172 196 0
172 196 0
173 197 0
171 195 0
170 196 0
172 197 0
172 196 0
171 195 0
171 195 0
171 195 0
172 196 0
170 195 0
172 196 0
172 196 0
172 196 0
171 195 0
172 197 0
172 196 0
170 194 0
172 196 0
172 196 0
171 196 0
171 196 0
171 196 0
171 196 44
172 197 67
171 195 51
171 197 105
174 200 122
175 201 130
176 203 155
174 201 125
181 207 179
180 206 173
180 206 167
180 206 175
180 207 188
176 203 155
182 209 193
181 208 186
180 207 193
180 206 175
180 208 189
179 207 191
182 209 196
179 207 189
179 206 181
180 207 188
179 207 186
181 209 199
181 209 199
179 207 189
178 206 181
178 206 189
177 205 173
180 208 196
178 206 182
174 202 173
175 203 165
173 201 155
171 200 159
170 199 130
171 200 144
169 197 133
168 197 117
163 191 80
162 191 51
161 190 25
159 188 0
162 191 0
159 188 0
160 188 0
162 190 0
161 190 0
163 191 0
162 190 0
161 189 0
162 190 0
162 190 0
161 190 0
162 190 0
162 190 0
162 189 0
163 191 0
163 190 0
159 186 0
161 189 0
160 187 0
161 188 0
158 186 0
161 188 0
161 187 0
162 188 0
161 187 0
159 186 0
162 189 0
158 185 0
155 181 0
160 186 0
160 186 0
164 190 0
158 184 0
160 187 0
157 183 0
156 182 0
154 178 0
158 184 0
152 177 0
160 185 0
150 174 0
153 177 0
152 176 0
158 183 0
156 180 0
153 177 0
147 171 0
152 176 0
149 173 0
145 169 0
150 173 0
150 174 0
152 176 0
151 175 0
145 168 0
150 173 0
139 161 0
150 172 0
141 164 0
144 167 0
146 169 0
136 158 0
139 161 0
135 157 0
137 160 0
139 161 0
124 147 0
138 160 0
127 149 0
136 158 0
137 158 0
128 150 0
130 152 0
124 145 0
120 142 0
123 145 0
124 144 0
115 135 0
116 136 0
115 135 0
124 144 0
112 132 0
103 123 0
105 125 0
109 128 0
107 126 0
108 127 0
91 110 0
104 121 0
99 116 0
84 100 0
93 109 0
73 90 0
87 102 0
66 82 0
70 86 0
85 100 0
63 79 0
71 86 0
77 90 0
62 76 0
58 71 0
62 76 0
47 58 0
64 76 0
60 70 0
55 66 0
53 62 0
51 61 0
63 72 0
47 57 0
48 56 0
40 49 0
35 49 18
33 49 31
36 55 25
42 66 31
38 62 40
38 63 31
42 69 40
40 66 40
41 69 18
43 70 18
41 68 31
38 63 31
40 66 40
40 66 31
42 68 47
44 72 36
41 68 40
41 67 36
42 68 40
39 65 36
39 63 36
39 65 47
37 62 36
36 60 18
32 52 25
38 55 31
30 42 0
36 46 0
41 46 0
35 40 0
37 43 0
53 61 0
39 47 0
46 56 0
40 49 0
57 65 0
41 48 0
49 57 0
53 62 0
57 67 0
55 66 0
66 75 0
77 88 0
53 67 0
67 76 0
66 76 0
63 75 0
69 82 0
79 89 0
75 87 0
87 100 0
70 80 0
98 112 0
87 100 0
86 99 0
89 103 0
82 94 0
88 101 0
94 107 0
99 114 0
90 102 0
87 99 0
83 96 0
108 120 0
103 114 0
84 96 0
93 105 0
99 113 0
104 114 0
112 125 0
116 128 0
114 127 0
107 119 0
102 115 0
103 115 0
109 120 0
102 112 0
110 122 0
116 129 0
108 121 0
117 127 0
114 122 0
99 112 0
102 113 0
115 127 0
119 130 0
115 125 0
117 128 0
110 119 0
101 111 0
118 125 0
108 113 0
106 117 0
119 126 0
118 126 0
105 112 0
115 119 0
120 123 0
113 116 0
114 120 0
112 115 0
107 109 0
101 99 0
113 115 0
113 120 0
102 101 0
112 112 0
112 112 0
113 110 0
111 107 0
109 106 0
106 104 0
106 102 0
105 103 0
106 102 0
104 99 0
108 103 0
98 90 0
107 97 0
103 95 0
94 88 0
103 94 0
95 83 0
92 79 0
93 81 0
84 68 0
91 80 0
85 72 0
92 78 0
88 76 0
74 60 0
76 62 0
77 60 0
72 57 0
80 63 0
77 64 0
81 68 0
86 70 0
77 62 0
66 48 0
71 54 0
75 57 0
88 70 0
88 68 0
93 76 0
89 68 0
90 67 0
94 73 0
99 76 0
102 78 0
106 84 0
110 88 0
107 85 0
108 83 0
116 93 0
116 93 0
121 99 0
115 92 0
120 100 0
120 99 0
122 102 0
123 102 0
122 101 0
121 102 0
122 100 0
126 106 0
124 103 0
126 104 0
128 108 0
123 104 0
127 107 0
125 104 0
125 105 0
123 103 0
129 108 0
132 115 0
134 114 0
131 115 0
137 121 0
138 125 0
141 132 0
145 138 0
151 151 0
157 160 0
158 165 0
159 164 0
160 171 0
161 170 0
160 169 0
160 169 0
160 173 0
159 172 0
161 171 0
163 178 0
162 175 0
162 177 0
165 178 0
163 179 0
165 180 0
166 181 0
165 182 0
165 180 0
164 180 0
163 180 0
165 184 0
164 183 0
165 182 0
165 183 0
164 184 0
164 181 0
163 181 0
165 184 0
163 182 0
165 183 0
171 196 0
172 196 0
171 196 0
171 195 0
170 194 0
166 191 0
170 195 0
171 196 0
171 196 0
171 195 0
170 195 0
171 196 0
172 196 0
172 197 0
171 196 0
171 196 0
171 196 0
169 194 0
171 196 0
171 195 0
171 196 0
171 195 0
170 195 0
170 195 0
171 196 0
171 196 0
169 194 0
170 195 0
169 194 0
168 193 0
168 193 0
170 195 0
169 194 0
170 195 0
169 194 0
168 193 0
170 195 36
168 194 36
171 196 67
170 196 62
171 197 88
171 198 102
171 198 105
169 196 102
170 197 102
169 196 99
168 196 92
172 199 137
171 199 135
172 199 128
170 197 105
168 196 114
172 199 133
169 197 108
168 196 108
167 195 102
171 199 122
168 196 95
169 197 105
165 192 80
166 194 67
165 193 62
163 191 36
162 190 0
163 191 0
162 190 0
160 189 0
160 189 0
162 190 0
162 191 0
163 191 0
162 190 0
163 191 0
161 190 0
162 191 0
162 190 0
162 190 0
163 190 0
163 191 0
161 189 0
163 190 0
162 190 0
161 188 0
163 191 0
162 190 0
163 191 0
161 189 0
158 186 0
162 189 0
160 188 0
161 189 0
156 183 0
161 188 0
159 186 0
160 187 0
160 187 0
161 187 0
163 189 0
163 189 0
162 188 0
160 186 0
160 186 0
160 185 0
164 190 0
155 180 0
154 179 0
156 181 0
156 181 0
158 183 0
159 185 0
154 179 0
158 182 0
156 180 0
158 182 0
154 178 0
152 176 0
154 178 0
145 168 0
153 178 0
158 182 0
145 169 0
144 168 0
158 182 0
150 174 0
152 175 0
145 168 0
143 167 0
151 174 0
148 171 0
148 171 0
146 169 0
146 168 0
134 156 0
140 163 0
138 161 0
136 158 0
137 159 0
131 153 0
138 160 0
145 166 0
125 147 0
129 151 0
126 148 0
126 148 0
132 153 0
132 154 0
128 149 0
117 137 0
122 143 0
126 147 0
108 129 0
125 144 0
130 150 0
110 129 0
119 138 0
109 130 0
112 132 0
112 131 0
109 127 0
106 125 0
99 117 0
92 110 0
86 104 0
97 115 0
93 110 0
94 110 0
84 101 0
90 107 0
76 93 0
65 80 0
64 80 0
60 74 0
66 81 0
69 84 0
66 80 0
49 63 0
58 71 0
67 80 0
66 79 0
54 65 0
53 62 0
45 57 0
66 76 0
48 58 0
50 58 0
54 63 0
38 44 0
39 47 0
23 32 0
43 52 0
38 44 0
30 38 18
34 45 0
32 49 31
28 42 18
33 49 18
32 53 25
41 56 25
41 59 40
34 52 18
28 47 0
26 43 0
38 50 0
36 54 40
22 37 18
35 48 18
15 27 0
39 47 0
37 44 18
22 29 0
53 60 0
34 42 0
45 51 0
43 51 0
36 42 0
48 56 0
47 56 0
42 50 0
53 60 0
41 52 0
41 48 0
49 60 0
52 61 0
66 76 0
52 62 0
56 67 0
52 63 0
75 85 0
66 77 0
65 76 0
70 82 0
80 91 0
73 86 0
64 77 0
73 87 0
80 88 0
74 87 0
91 103 0
76 87 0
85 96 0
76 89 0
82 94 0
84 96 0
92 107 0
90 104 0
93 105 0
96 108 0
107 122 0
106 119 0
90 105 0
97 107 0
100 113 0
106 118 0
87 101 0
97 107 0
108 121 0
107 122 0
106 120 0
102 115 0
107 120 0
105 118 0
99 112 0
104 117 0
124 137 0
112 123 0
104 117 0
109 120 0
110 123 0
116 126 0
116 129 0
114 125 0
119 130 0
104 114 0
108 120 0
116 125 0
119 129 0
112 121 0
114 120 0
113 122 0
115 118 0
107 114 0
111 120 0
110 116 0
105 110 0
109 114 0
118 126 0
109 116 0
104 107 0
116 119 0
122 125 0
107 111 0
116 120 0
109 113 0
102 104 0
118 118 0
108 112 0
111 110 0
104 101 0
112 108 0
111 107 0
101 99 0
101 94 0
105 100 0
100 96 0
114 106 0
102 96 0
114 105 0
104 93 0
112 103 0
109 102 0
102 91 0
107 96 0
97 85 0
98 86 0
96 82 0
100 88 0
91 76 0
90 74 0
93 81 0
92 80 0
95 83 0
91 77 0
82 65 0
89 76 0
87 71 0
93 79 0
80 67 0
84 68 0
98 87 0
87 68 0
88 73 0
90 73 0
89 72 0
85 65 0
95 79 0
95 81 0
90 72 0
96 79 0
107 91 0
111 93 0
100 80 0
111 93 0
112 94 0
113 96 0
113 94 0
119 101 0
120 105 0
120 103 0
121 103 0
123 108 0
126 111 0
127 111 0
127 113 0
129 116 0
133 120 0
133 117 0
133 119 0
134 126 0
138 129 0
146 144 0
141 137 0
147 147 0
148 148 0
157 161 0
155 159 0
151 153 0
157 164 0
156 161 0
155 161 0
157 165 0
158 166 0
158 165 0
160 171 0
156 164 0
159 166 0
156 165 0
161 173 0
160 169 0
162 172 0
160 172 0
162 175 0
161 173 0
164 175 0
161 174 0
163 177 0
162 177 0
163 178 0
165 182 0
165 180 0
164 180 0
161 179 0
165 181 0
163 179 0
166 182 0
165 183 0
166 183 0
164 179 0
165 185 0
165 186 0
164 184 0
171 195 0
172 197 0
171 196 0
172 196 0
171 196 0
171 196 0
171 195 0
170 196 0
171 195 0
171 196 0
171 195 0
172 196 0
172 196 0
172 197 0
171 196 0
171 195 0
171 196 0
172 196 0
173 197 0
170 195 0
170 194 0
170 194 0
171 196 0
172 196 0
172 196 0
171 196 0
169 194 0
171 195 0
169 194 0
170 195 0
170 195 0
172 196 0
171 196 0
169 194 0
170 195 0
169 195 0
168 193 0
167 193 0
168 194 0
168 193 0
169 194 0
165 191 0
166 192 0
167 194 0
166 193 0
167 194 0
165 192 0
166 192 0
164 191 0
165 192 0
164 191 0
166 192 0
164 192 0
164 191 0
165 192 0
164 191 0
162 190 0
163 191 0
163 191 0
164 191 0
163 191 0
163 191 0
165 192 0
163 191 0
162 190 0
162 190 0
163 191 0
163 191 0
160 188 0
164 191 0
162 191 0
164 192 0
161 190 0
162 190 0
163 191 0
161 189 0
163 191 0
162 190 0
163 191 0
160 188 0
160 188 0
165 192 0
162 190 0
162 190 0
162 190 0
163 190 0
164 191 0
163 191 0
163 190 0
161 188 0
161 189 0
161 188 0
159 186 0
159 186 0
159 185 0
160 187 0
155 181 0
162 188 0
159 186 0
155 181 0
157 183 0
162 188 0
159 184 0
159 184 0
156 181 0
153 178 0
151 176 0
159 184 0
155 180 0
156 180 0
152 177 0
157 182 0
160 185 0
156 181 0
156 179 0
154 178 0
151 175 0
148 171 0
150 174 0
146 170 0
151 175 0
149 173 0
150 174 0
146 169 0
144 167 0
144 168 0
142 165 0
147 170 0
150 173 0
143 165 0
140 164 0
152 175 0
142 165 0
143 165 0
147 170 0
142 164 0
135 157 0
128 151 0
127 149 0
140 162 0
130 151 0
132 153 0
116 138 0
139 160 0
128 150 0
128 150 0
122 143 0
123 145 0
113 134 0
115 136 0
110 130 0
115 135 0
105 125 0
117 137 0
112 132 0
114 133 0
106 126 0
114 133 0
103 122 0
111 129 0
89 107 0
103 121 0
109 127 0
100 118 0
84 101 0
86 103 0
89 105 0
88 103 0
77 94 0
85 100 0
79 95 0
82 99 0
67 81 0
69 84 0
71 85 0
72 86 0
58 71 0
53 65 0
70 82 0
61 72 0
54 65 0
63 74 0
59 70 0
41 49 0
60 70 0
43 53 0
29 37 0
32 38 0
41 48 0
13 22 0
50 58 0
29 37 0
32 37 0
37 42 0
33 40 0
39 46 0
42 47 0
8 15 0
9 17 0
34 39 0
36 41 0
38 43 0
37 42 0
20 26 0
28 35 0
43 49 0
19 23 0
21 26 0
34 41 0
30 34 0
22 30 0
34 42 0
36 44 0
46 54 0
47 56 0
41 46 0
56 64 0
54 62 0
54 64 0
45 56 0
64 76 0
64 75 0
49 60 0
58 71 0
49 60 0
60 71 0
63 74 0
61 72 0
72 85 0
73 87 0
81 94 0
68 79 0
62 74 0
79 94 0
80 91 0
72 86 0
84 98 0
74 87 0
76 89 0
86 99 0
82 95 0
76 90 0
93 108 0
93 104 0
102 117 0
103 116 0
95 108 0
86 98 0
113 128 0
100 113 0
110 124 0
94 107 0
107 120 0
109 122 0
105 118 0
106 123 0
105 117 0
103 118 0
107 119 0
115 127 0
110 122 0
113 128 0
115 130 0
120 132 0
107 122 0
110 123 0
107 120 0
112 123 0
105 119 0
104 117 0
107 117 0
113 125 0
116 127 0
121 131 0
114 126 0
111 123 0
121 130 0
119 128 0
121 130 0
103 113 0
108 119 0
117 123 0
117 124 0
113 117 0
118 125 0
114 118 0
122 129 0
113 118 0
124 128 0
120 125 0
119 125 0
117 117 0
120 124 0
109 107 0
106 109 0
117 116 0
111 113 0
116 119 0
114 110 0
114 116 0
111 111 0
122 121 0
119 112 0
112 107 0
108 106 0
114 107 0
112 107 0
101 96 0
111 106 0
104 96 0
110 101 0
112 105 0
114 102 0
108 102 0
105 97 0
101 89 0
102 89 0
99 88 0
99 85 0
99 86 0
102 87 0
103 90 0
98 84 0
101 87 0
106 95 0
93 80 0
95 82 0
98 82 0
100 87 0
101 86 0
92 75 0
100 87 0
95 81 0
92 75 0
95 79 0
105 94 0
102 86 0
104 91 0
108 93 0
109 96 0
112 99 0
110 96 0
114 100 0
115 102 0
121 111 0
130 122 0
128 121 0
125 116 0
127 116 0
126 115 0
133 124 0
128 117 0
137 131 0
134 126 0
141 138 0
138 134 0
141 136 0
139 136 0
141 134 0
140 134 0
148 145 0
147 145 0
153 154 0
146 146 0
151 150 0
153 153 0
151 158 0
155 157 0
153 155 0
157 162 0
155 160 0
156 162 0
157 160 0
158 161 0
155 161 0
161 171 0
159 165 0
152 159 0
157 165 0
160 167 0
164 175 0
156 166 0
164 177 0
161 172 0
161 173 0
161 171 0
164 177 0
162 176 0
163 176 0
164 179 0
163 175 0
163 180 0
162 178 0
163 179 0
163 178 0
166 185 0
167 184 0
165 183 0
164 180 0
166 186 0
170 195 0
169 194 0
171 196 0
171 196 0
170 195 0
171 195 0
173 197 0
172 196 0
171 195 0
170 194 0
171 196 0
171 196 0
171 195 0
173 197 0
172 196 0
170 195 0
172 196 0
172 196 0
170 194 0
170 195 0
172 197 0
170 195 0
170 195 0
169 194 0
170 194 0
171 196 0
169 195 0
171 196 0
170 195 0
169 194 0
170 195 0
167 192 0
170 194 0
170 195 0
169 194 0
169 194 0
169 194 0
165 191 0
167 193 0
165 191 0
166 192 0
168 194 0
167 193 0
167 193 0
166 193 0
165 192 0
165 191 0
163 191 0
164 191 0
164 191 0
166 193 0
164 191 0
163 191 0
166 192 0
164 191 0
164 192 0
165 192 0
164 191 0
165 192 0
164 192 0
163 191 0
161 189 0
164 192 0
163 190 0
162 190 0
160 188 0
162 191 0
163 191 0
162 190 0
162 190 0
162 190 0
162 190 0
163 191 0
163 190 0
163 190 0
163 191 0
161 188 0
164 191 0
164 191 0
163 191 0
162 190 0
162 189 0
161 189 0
164 191 0
162 189 0
162 189 0
164 190 0
164 191 0
160 187 0
160 186 0
159 185 0
158 184 0
163 190 0
163 190 0
159 185 0
159 185 0
161 187 0
162 188 0
156 182 0
160 186 0
159 185 0
160 185 0
154 179 0
158 183 0
153 178 0
158 184 0
154 178 0
161 186 0
152 176 0
151 175 0
157 181 0
152 176 0
152 176 0
156 181 0
153 176 0
151 175 0
152 176 0
149 173 0
151 175 0
150 174 0
145 169 0
143 166 0
144 167 0
148 172 0
151 175 0
144 167 0
148 170 0
150 173 0
140 163 0
144 167 0
146 169 0
131 153 0
139 162 0
143 165 0
136 159 0
132 154 0
140 162 0
139 162 0
136 159 0
130 152 0
137 159 0
138 160 0
133 155 0
125 147 0
127 149 0
122 143 0
120 141 0
119 139 0
111 132 0
122 143 0
117 137 0
111 131 0
118 138 0
102 121 0
97 117 0
100 121 0
110 129 0
101 119 0
96 115 0
94 112 0
102 119 0
94 112 0
96 113 0
88 105 0
84 100 0
77 94 0
86 101 0
83 101 0
66 83 0
88 103 0
80 95 0
73 89 0
79 94 0
63 78 0
75 89 0
79 94 0
68 81 0
59 72 0
69 82 0
48 60 0
66 78 0
61 73 0
46 58 0
63 73 0
38 50 0
52 63 0
43 52 0
41 51 0
44 53 0
47 55 0
44 54 0
22 30 0
39 46 0
40 48 0
35 44 0
47 56 0
44 54 0
12 21 0
33 39 0
38 45 0
40 48 0
24 34 0
43 51 0
14 23 0
37 43 0
34 42 0
49 56 0
51 60 0
37 43 0
45 51 0
23 32 0
22 30 0
31 40 0
48 56 0
49 57 0
53 63 0
54 60 0
37 48 0
65 75 0
50 61 0
57 69 0
71 83 0
61 72 0
57 70 0
65 76 0
60 72 0
56 66 0
60 74 0
76 89 0
63 76 0
81 94 0
77 89 0
69 81 0
78 92 0
72 85 0
79 93 0
90 106 0
93 107 0
81 95 0
80 94 0
67 80 0
88 98 0
94 107 0
92 107 0
94 107 0
104 118 0
90 105 0
98 112 0
105 121 0
101 113 0
107 122 0
100 116 0
102 116 0
108 123 0
104 117 0
115 128 0
107 121 0
104 119 0
98 110 0
108 120 0
106 120 0
115 125 0
118 133 0
116 130 0
123 135 0
119 130 0
111 125 0
115 126 0
111 124 0
110 123 0
102 112 0
118 129 0
115 128 0
107 123 0
123 133 0
115 125 0
106 116 0
116 125 0
124 130 0
109 117 0
104 111 0
110 118 0
116 124 0
121 130 0
111 114 0
114 123 0
121 127 0
118 123 0
114 118 0
115 119 0
115 118 0
125 130 0
108 113 0
108 114 0
116 120 0
116 122 0
110 112 0
119 119 0
118 120 0
114 112 0
117 117 0
123 123 0
106 106 0
115 112 0
114 110 0
111 106 0
103 98 0
118 114 0
116 111 0
116 111 0
105 97 0
117 109 0
111 103 0
115 106 0
104 94 0
108 98 0
104 93 0
107 99 0
113 102 0
107 97 0
107 91 0
98 86 0
104 92 0
103 91 0
105 89 0
94 80 0
97 82 0
101 85 0
98 82 0
102 89 0
101 88 0
101 87 0
104 88 0
101 88 0
104 89 0
107 93 0
107 92 0
114 103 0
110 95 0
109 94 0
110 97 0
112 99 0
120 107 0
112 98 0
123 113 0
115 104 0
117 106 0
124 115 0
124 112 0
129 119 0
128 120 0
139 133 0
140 135 0
136 128 0
135 128 0
137 129 0
138 132 0
143 139 0
140 133 0
141 135 0
144 138 0
147 147 0
148 146 0
148 148 0
149 150 0
149 150 0
151 153 0
153 155 0
153 158 0
153 156 0
159 164 0
156 162 0
156 160 0
156 162 0
155 164 0
158 163 0
161 166 0
157 164 0
159 167 0
155 161 0
158 168 0
164 175 0
161 170 0
160 172 0
163 173 0
165 180 0
162 175 0
162 176 0
163 177 0
164 178 0
164 180 0
163 174 0
163 177 0
164 180 0
165 181 0
164 179 0
164 180 0
166 184 0
165 181 0
165 185 0
170 194 0
171 196 0
171 195 0
171 195 0
171 196 0
171 196 0
172 196 0
172 197 0
171 196 0
173 197 0
172 196 0
170 195 0
170 194 0
172 196 0
171 196 0
172 196 0
172 196 0
170 195 0
170 195 0
171 195 0
169 194 0
171 196 0
170 195 0
170 195 0
170 195 0
169 194 0
170 195 0
171 195 0
170 195 0
170 195 0
169 195 0
169 194 0
169 194 0
167 193 0
167 193 0
168 194 0
168 194 0
167 192 0
167 193 0
166 192 0
165 192 0
165 192 0
165 191 0
165 191 0
165 192 0
165 191 0
166 192 0
165 192 0
164 191 0
165 192 0
164 190 0
165 192 0
164 192 0
164 191 0
165 193 0
165 193 0
163 190 0
163 190 0
163 191 0
164 192 0
163 191 0
162 190 0
163 191 0
163 191 0
161 189 0
164 191 0
164 192 0
162 190 0
164 191 0
162 190 0
164 191 0
164 191 0
164 191 0
164 191 0
163 191 0
164 192 0
164 191 0
162 189 0
165 192 0
162 190 0
161 188 0
162 189 0
163 190 0
161 187 0
162 189 0
161 188 0
164 190 0
162 188 0
160 186 0
158 185 0
162 188 0
159 186 0
162 189 0
161 187 0
160 186 0
160 186 0
158 184 0
163 189 0
162 188 0
162 187 0
160 185 0
158 183 0
156 181 0
158 183 0
157 182 0
159 183 0
158 182 0
160 184 0
156 181 0
157 181 0
154 178 0
146 170 0
151 175 0
159 183 0
150 173 0
145 169 0
158 182 0
150 173 0
153 177 0
154 178 0
153 177 0
144 168 0
149 172 0
146 169 0
143 166 0
149 172 0
150 173 0
144 167 0
146 169 0
141 164 0
142 164 0
146 169 0
148 171 0
135 158 0
146 169 0
130 153 0
131 153 0
131 153 0
137 159 0
118 140 0
137 159 0
130 151 0
131 152 0
122 143 0
126 149 0
125 146 0
133 154 0
124 145 0
120 141 0
122 142 0
113 133 0
123 143 0
119 139 0
111 131 0
111 130 0
98 118 0
107 126 0
102 122 0
99 118 0
115 134 0
101 119 0
100 119 0
95 113 0
90 108 0
99 118 0
82 98 0
75 92 0
78 94 0
88 104 0
79 95 0
73 89 0
83 98 0
81 96 0
65 79 0
71 86 0
71 86 0
67 82 0
50 64 0
72 85 0
62 76 0
51 65 0
57 69 0
56 69 0
57 70 0
41 53 0
57 67 0
49 60 0
57 68 0
58 69 0
34 43 0
44 55 0
46 54 0
44 53 0
44 53 0
38 46 0
39 48 0
44 54 0
47 56 0
44 52 0
29 38 0
40 48 0
45 52 0
52 59 0
50 58 0
34 42 0
41 48 0
40 50 0
42 49 0
45 53 0
44 54 0
40 49 0
56 66 0
47 57 0
47 55 0
27 36 0
52 64 0
52 61 0
71 80 0
56 64 0
53 65 0
67 80 0
65 78 0
54 66 0
75 87 0
52 63 0
56 69 0
71 84 0
77 88 0
85 98 0
69 81 0
65 78 0
75 87 0
71 86 0
94 109 0
83 96 0
83 97 0
78 90 0
98 112 0
91 107 0
78 92 0
82 94 0
83 95 0
87 102 0
92 106 0
100 114 0
98 114 0
99 115 0
94 110 0
91 104 0
98 112 0
112 125 0
102 116 0
90 102 0
109 125 0
109 126 0
101 114 0
99 112 0
114 129 0
99 114 0
98 113 0
101 116 0
99 111 0
125 140 0
116 131 0
122 136 0
121 135 0
115 129 0
113 126 0
112 124 0
122 134 0
117 129 0
115 131 0
123 132 0
116 132 0
115 130 0
115 126 0
114 126 0
118 130 0
124 136 0
103 113 0
116 127 0
120 130 0
121 135 0
121 130 0
120 126 0
109 118 0
116 125 0
120 126 0
115 124 0
114 122 0
126 132 0
118 121 0
117 125 0
114 120 0
119 119 0
120 122 0
122 125 0
113 114 0
116 121 0
115 116 0
108 109 0
113 112 0
120 119 0
123 124 0
117 115 0
120 119 0
122 126 0
111 107 0
119 116 0
120 114 0
120 114 0
117 112 0
121 113 0
113 106 0
112 105 0
124 120 0
119 109 0
106 96 0
115 103 0
107 95 0
119 110 0
100 89 0
110 100 0
114 105 0
109 99 0
114 103 0
109 96 0
105 93 0
105 91 0
104 88 0
103 89 0
112 102 0
110 97 0
108 97 0
103 90 0
108 95 0
112 98 0
113 99 0
121 110 0
111 95 0
113 101 0
122 112 0
117 106 0
121 110 0
119 109 0
123 113 0
117 107 0
129 119 0
127 119 0
131 124 0
130 122 0
130 120 0
138 132 0
133 128 0
142 139 0
133 126 0
137 130 0
136 130 0
140 136 0
139 134 0
144 142 0
144 141 0
146 144 0
149 148 0
147 147 0
146 142 0
150 151 0
151 153 0
153 154 0
151 155 0
156 160 0
156 162 0
155 160 0
154 161 0
155 157 0
153 157 0
157 163 0
158 166 0
158 164 0
163 170 0
161 173 0
158 168 0
161 169 0
164 174 0
162 174 0
162 175 0
162 176 0
163 175 0
160 171 0
163 175 0
163 176 0
163 175 0
163 179 0
164 178 0
165 179 0
163 177 0
162 176 0
166 182 0
165 179 0
165 182 0
172 197 0
171 196 0
171 196 0
172 196 0
172 196 0
171 195 0
171 195 0
172 196 0
171 195 0
172 196 0
172 196 0
171 195 0
172 196 0
170 195 0
171 196 0
171 196 0
170 195 0
171 196 0
171 196 0
171 196 0
171 196 0
169 194 0
169 194 0
170 195 0
170 195 0
170 195 0
169 194 0
169 194 0
170 195 0
170 195 0
169 194 0
167 193 0
168 194 0
168 193 0
169 195 0
169 194 0
168 194 0
167 194 0
168 194 0
167 193 0
168 194 0
167 194 0
165 192 0
166 192 0
165 192 0
166 192 0
167 193 0
164 190 0
166 193 0
166 193 0
165 192 0
165 192 0
165 192 0
164 191 0
166 193 0
165 192 0
164 191 0
164 191 0
164 192 0
164 191 0
164 192 0
164 191 0
163 191 0
163 191 0
164 191 0
164 192 0
163 191 0
164 192 0
163 190 0
163 191 0
164 191 0
164 191 0
163 190 0
162 189 0
162 190 0
162 189 0
164 191 0
163 191 0
162 190 0
164 191 0
164 190 0
162 189 0
164 190 0
162 189 0
166 192 0
162 189 0
159 186 0
164 191 0
163 189 0
161 188 0
162 188 0
163 189 0
160 186 0
161 187 0
152 178 0
160 185 0
165 191 0
159 184 0
156 180 0
157 183 0
156 181 0
157 182 0
158 182 0
157 181 0
149 173 0
159 183 0
148 172 0
152 177 0
156 181 0
150 174 0
145 170 0
153 177 0
156 180 0
150 174 0
153 177 0
149 173 0
157 180 0
149 172 0
155 178 0
148 172 0
149 172 0
144 167 0
152 175 0
151 174 0
140 163 0
145 168 0
142 165 0
141 164 0
147 169 0
133 156 0
132 154 0
141 164 0
142 165 0
136 158 0
132 154 0
138 160 0
139 162 0
135 157 0
129 151 0
131 153 0
130 151 0
136 158 0
126 147 0
130 152 0
124 146 0
127 147 0
119 141 0
111 132 0
123 144 0
118 139 0
123 144 0
111 132 0
117 137 0
105 124 0
125 145 0
118 139 0
115 134 0
98 117 0
105 124 0
102 121 0
92 112 0
91 108 0
105 123 0
93 112 0
98 117 0
99 117 0
95 112 0
79 96 0
86 101 0
105 121 0
82 99 0
87 104 0
79 95 0
76 93 0
75 90 0
63 76 0
71 85 0
49 62 0
61 74 0
76 92 0
59 73 0
55 67 0
71 83 0
37 48 0
59 71 0
44 53 0
64 75 0
49 58 0
55 66 0
57 68 0
50 60 0
50 59 0
44 53 0
48 58 0
36 46 0
54 64 0
35 45 0
38 47 0
42 51 0
34 43 0
42 50 0
50 57 0
40 48 0
37 46 0
46 57 0
42 51 0
48 57 0
57 66 0
54 66 0
54 64 0
42 51 0
43 52 0
53 64 0
49 58 0
68 77 0
55 67 0
52 64 0
53 65 0
49 59 0
75 86 0
64 76 0
60 74 0
64 78 0
91 103 0
71 83 0
68 81 0
83 97 0
83 94 0
78 92 0
70 83 0
80 93 0
77 89 0
95 109 0
86 102 0
89 104 0
91 106 0
78 91 0
76 91 0
94 109 0
84 98 0
87 101 0
87 100 0
92 108 0
102 116 0
108 123 0
99 114 0
94 110 0
101 115 0
104 118 0
95 109 0
99 114 0
104 120 0
108 124 0
108 122 0
102 114 0
109 124 0
100 117 0
109 124 0
111 123 0
112 127 0
115 131 0
120 133 0
120 136 0
115 129 0
103 119 0
123 137 0
111 126 0
123 136 0
113 125 0
116 128 0
114 126 0
109 123 0
114 127 0
120 131 0
122 135 0
117 130 0
124 136 0
110 121 0
123 131 0
111 121 0
115 125 0
119 128 0
116 125 0
117 126 0
123 133 0
122 130 0
120 128 0
125 134 0
125 134 0
118 122 0
123 129 0
118 123 0
121 128 0
119 125 0
128 134 0
122 128 0
118 123 0
118 124 0
121 125 0
125 128 0
123 121 0
118 117 0
125 128 0
123 122 0
125 127 0
128 128 0
116 116 0
117 116 0
117 116 0
125 120 0
115 114 0
117 112 0
121 115 0
118 112 0
116 109 0
116 112 0
117 111 0
120 112 0
126 122 0
117 110 0
112 102 0
112 103 0
114 107 0
114 105 0
123 114 0
122 113 0
115 108 0
115 103 0
114 103 0
105 93 0
116 104 0
116 106 0
112 98 0
111 99 0
116 105 0
111 96 0
108 94 0
115 104 0
115 103 0
112 99 0
111 98 0
113 100 0
121 110 0
123 114 0
121 110 0
122 111 0
130 122 0
124 113 0
120 110 0
121 112 0
127 117 0
124 115 0
132 127 0
129 118 0
134 122 0
138 132 0
138 132 0
138 133 0
143 139 0
141 138 0
141 140 0
144 141 0
143 143 0
151 151 0
140 136 0
149 150 0
146 146 0
151 153 0
153 157 0
153 154 0
153 153 0
147 150 0
152 157 0
151 153 0
156 160 0
155 160 0
162 169 0
159 166 0
156 162 0
158 164 0
160 167 0
159 164 0
159 170 0
161 171 0
159 169 0
159 167 0
160 171 0
159 172 0
159 168 0
164 176 0
162 177 0
164 176 0
162 174 0
161 175 0
160 170 0
162 175 0
163 176 0
163 181 0
163 178 0
163 178 0
172 196 0
171 196 0
171 195 0
170 195 0
172 196 0
172 196 0
171 196 0
172 196 0
171 195 0
171 195 0
169 193 0
171 196 0
171 196 0
170 194 0
170 195 0
171 196 0
171 195 0
170 194 0
170 195 0
170 195 0
171 196 0
170 195 0
170 195 0
168 192 0
170 195 0
168 193 0
169 195 0
170 195 0
170 195 0
169 194 0
168 194 0
169 195 0
169 194 0
169 194 0
168 194 0
167 193 0
167 193 0
167 193 0
167 193 0
168 194 0
166 192 0
165 191 0
167 194 0
167 193 0
166 192 0
166 193 0
166 192 0
167 193 0
166 193 0
164 191 0
167 194 0
167 193 0
164 191 0
166 193 0
165 193 0
164 191 0
164 191 0
165 192 0
163 191 0
165 192 0
165 192 0
164 191 0
163 190 0
163 191 0
164 191 0
163 190 0
162 190 0
162 189 0
163 190 0
164 192 0
163 191 0
164 192 0
164 191 0
165 192 0
164 191 0
165 192 0
164 191 0
166 192 0
165 192 0
163 190 0
163 190 0
162 189 0
165 191 0
161 187 0
162 187 0
159 185 0
162 187 0
159 185 0
155 181 0
164 190 0
163 189 0
164 190 0
161 186 0
165 191 0
156 181 0
161 187 0
154 179 0
159 185 0
162 187 0
158 183 0
163 188 0
155 179 0
162 187 0
156 181 0
160 184 0
158 182 0
156 180 0
158 182 0
157 181 0
152 176 0
151 175 0
152 176 0
154 179 0
158 182 0
157 180 0
150 173 0
153 177 0
151 174 0
154 177 0
148 172 0
146 169 0
156 180 0
157 180 0
143 166 0
148 171 0
149 172 0
142 166 0
145 168 0
141 163 0
144 167 0
141 164 0
135 157 0
139 161 0
147 170 0
135 157 0
137 159 0
138 160 0
132 153 0
131 153 0
126 148 0
131 153 0
133 155 0
130 151 0
133 155 0
127 148 0
119 140 0
114 134 0
129 150 0
125 146 0
128 149 0
110 130 0
118 139 0
112 133 0
114 133 0
117 138 0
118 138 0
112 132 0
100 119 0
100 119 0
110 129 0
100 119 0
108 126 0
93 110 0
96 113 0
105 123 0
90 109 0
90 108 0
88 105 0
72 90 0
86 103 0
88 105 0
83 100 0
74 90 0
84 100 0
73 88 0
84 100 0
68 84 0
74 87 0
71 87 0
77 92 0
62 74 0
62 76 0
69 82 0
47 61 0
74 87 0
60 73 0
57 70 0
54 64 0
54 65 0
47 59 0
66 77 0
47 57 0
57 67 0
40 51 0
45 56 0
40 52 0
57 67 0
47 56 0
40 49 0
53 63 0
62 73 0
57 67 0
49 60 0
47 56 0
53 65 0
44 53 0
42 53 0
57 67 0
48 58 0
43 54 0
42 54 0
54 66 0
62 72 0
63 77 0
47 56 0
52 64 0
64 76 0
67 78 0
73 86 0
70 81 0
62 73 0
57 71 0
67 82 0
70 83 0
54 66 0
68 79 0
72 85 0
68 82 0
72 86 0
77 90 0
84 98 0
71 85 0
70 85 0
89 103 0
83 96 0
74 91 0
89 104 0
100 114 0
87 103 0
86 99 0
90 106 0
83 98 0
86 102 0
86 101 0
104 122 0
91 106 0
106 122 0
101 118 0
103 119 0
93 108 0
107 122 0
108 123 0
110 127 0
99 113 0
98 111 0
108 124 0
113 128 0
98 113 0
115 128 0
107 123 0
105 117 0
116 130 0
116 132 0
106 120 0
121 135 0
113 128 0
104 117 0
115 126 0
112 126 0
117 128 0
117 130 0
104 118 0
130 144 0
121 134 0
110 122 0
121 134 0
108 118 0
115 124 0
111 120 0
123 135 0
121 131 0
127 141 0
121 132 0
128 140 0
124 134 0
107 117 0
126 136 0
127 134 0
120 129 0
122 130 0
124 131 0
119 124 0
123 130 0
125 134 0
135 144 0
123 129 0
118 123 0
125 131 0
120 127 0
118 123 0
134 138 0
114 117 0
119 121 0
127 131 0
125 128 0
126 125 0
124 125 0
120 121 0
122 123 0
124 124 0
116 112 0
127 123 0
126 124 0
119 113 0
110 106 0
125 120 0
125 120 0
123 120 0
129 125 0
108 100 0
124 116 0
131 128 0
117 109 0
120 112 0
122 114 0
117 107 0
115 105 0
104 94 0
119 109 0
120 111 0
117 109 0
119 108 0
119 106 0
111 102 0
120 109 0
118 108 0
119 109 0
116 105 0
121 108 0
117 106 0
120 109 0
117 106 0
121 111 0
113 102 0
117 104 0
116 106 0
131 122 0
122 112 0
132 124 0
128 120 0
122 112 0
129 121 0
130 123 0
124 116 0
135 128 0
140 137 0
141 136 0
136 131 0
134 129 0
142 135 0
147 143 0
142 138 0
147 143 0
143 139 0
145 142 0
144 141 0
143 141 0
146 148 0
149 146 0
151 153 0
149 149 0
150 150 0
152 155 0
154 158 0
155 159 0
149 150 0
152 155 0
154 160 0
154 158 0
155 161 0
160 170 0
156 162 0
158 167 0
157 166 0
158 165 0
161 171 0
161 171 0
160 169 0
160 168 0
162 173 0
163 176 0
163 176 0
163 175 0
166 181 0
164 177 0
164 181 0
161 172 0
164 179 0
164 180 0
165 184 0
170 195 0
171 196 0
169 194 0
171 196 0
173 197 0
172 196 0
171 195 0
170 196 0
170 195 0
171 196 0
172 196 0
170 195 0
171 195 0
172 196 0
169 194 0
171 196 0
171 196 0
171 196 0
170 196 0
170 195 0
168 193 0
170 195 0
169 194 0
170 195 0
169 194 0
169 194 0
170 195 0
169 194 0
169 194 0
169 194 0
169 194 0
169 194 0
169 195 0
167 194 0
168 194 0
167 193 0
166 191 0
167 193 0
167 192 0
166 192 0
167 193 0
165 192 0
166 193 0
166 193 0
168 194 0
167 193 0
166 193 0
165 191 0
165 191 0
165 192 0
167 193 0
165 192 0
167 193 0
165 192 0
163 189 0
165 192 0
165 192 0
164 190 0
165 192 0
163 191 0
165 192 0
163 190 0
165 192 0
163 191 0
163 190 0
164 190 0
163 190 0
163 190 0
166 193 0
165 192 0
165 192 0
164 191 0
163 189 0
165 192 0
164 190 0
166 193 0
162 189 0
165 191 0
162 188 0
168 194 0
161 188 0
162 188 0
165 191 0
163 190 0
162 188 0
162 188 0
162 188 0
165 190 0
161 187 0
164 189 0
162 188 0
162 187 0
163 188 0
161 186 0
163 188 0
160 185 0
157 181 0
159 184 0
158 183 0
161 186 0
161 185 0
160 185 0
155 180 0
155 179 0
161 185 0
155 180 0
159 182 0
157 181 0
153 177 0
156 179 0
157 181 0
155 179 0
155 178 0
156 180 0
157 181 0
155 179 0
149 172 0
150 174 0
150 173 0
143 167 0
143 166 0
155 178 0
142 165 0
147 169 0
148 171 0
140 164 0
144 167 0
146 169 0
137 160 0
141 164 0
142 164 0
137 160 0
137 158 0
143 166 0
134 157 0
137 159 0
139 161 0
141 163 0
135 157 0
142 164 0
131 153 0
122 144 0
138 160 0
132 154 0
128 149 0
123 145 0
117 138 0
117 137 0
126 147 0
114 135 0
117 137 0
120 141 0
124 144 0
103 124 0
105 125 0
110 131 0
109 129 0
107 127 0
113 132 0
100 119 0
83 102 0
122 141 0
102 121 0
102 120 0
93 111 0
89 106 0
92 110 0
90 106 0
76 93 0
80 95 0
94 112 0
85 101 0
79 94 0
72 88 0
79 96 0
90 107 0
72 88 0
86 101 0
64 80 0
55 71 0
67 81 0
67 81 0
75 89 0
59 73 0
56 71 0
55 66 0
74 87 0
55 68 0
55 66 0
60 73 0
69 82 0
55 68 0
52 64 0
51 62 0
44 55 0
53 64 0
55 68 0
44 55 0
45 54 0
42 53 0
42 53 0
56 66 0
58 71 0
43 54 0
48 60 0
56 67 0
41 51 0
46 57 0
54 67 0
58 70 0
49 61 0
61 75 0
37 49 0
62 74 0
62 74 0
72 84 0
71 84 0
55 67 0
62 76 0
64 77 0
68 82 0
67 79 0
63 76 0
79 91 0
82 96 0
61 75 0
80 94 0
85 101 0
77 91 0
87 100 0
75 87 0
85 100 0
84 97 0
82 98 0
92 106 0
92 106 0
89 105 0
90 105 0
95 109 0
88 103 0
104 121 0
97 109 0
95 110 0
98 112 0
109 127 0
99 115 0
105 120 0
94 108 0
83 96 0
109 125 0
105 119 0
111 125 0
112 126 0
107 121 0
102 118 0
107 121 0
118 134 0
123 137 0
127 142 0
108 122 0
111 126 0
121 137 0
115 131 0
119 134 0
105 118 0
119 137 0
106 121 0
118 133 0
105 116 0
127 141 0
121 131 0
123 137 0
118 130 0
126 139 0
120 133 0
117 131 0
127 137 0
125 137 0
121 132 0
117 128 0
113 123 0
129 141 0
135 148 0
123 134 0
129 142 0
122 134 0
114 122 0
114 123 0
128 137 0
130 140 0
119 127 0
125 134 0
129 138 0
124 134 0
121 130 0
127 133 0
128 135 0
123 130 0
129 138 0
125 131 0
134 140 0
118 122 0
118 121 0
123 123 0
132 134 0
128 132 0
127 127 0
132 132 0
126 126 0
127 127 0
125 124 0
130 127 0
123 121 0
124 123 0
130 130 0
127 123 0
125 119 0
124 121 0
128 125 0
126 119 0
124 121 0
121 115 0
120 112 0
127 122 0
126 119 0
126 120 0
123 118 0
124 116 0
130 122 0
127 115 0
121 112 0
125 113 0
126 115 0
125 116 0
119 110 0
114 103 0
120 110 0
122 111 0
124 113 0
121 112 0
118 108 0
121 112 0
127 118 0
122 111 0
131 121 0
129 119 0
119 107 0
124 116 0
125 117 0
138 133 0
134 128 0
126 117 0
130 120 0
130 122 0
134 127 0
137 131 0
136 128 0
133 128 0
141 138 0
141 136 0
140 135 0
147 146 0
137 133 0
144 142 0
146 142 0
146 144 0
148 149 0
148 148 0
151 156 0
150 152 0
145 144 0
149 150 0
149 150 0
152 154 0
155 158 0
152 153 0
156 163 0
156 158 0
154 157 0
159 165 0
157 162 0
157 166 0
155 159 0
157 164 0
157 166 0
158 165 0
160 166 0
157 164 0
160 168 0
162 175 0
159 166 0
160 170 0
162 173 0
163 174 0
160 170 0
159 171 0
164 179 0
163 176 0
164 179 0
163 177 0
172 196 0
171 195 0
172 197 0
172 196 0
172 196 0
171 196 0
173 197 0
171 196 0
172 197 0
171 196 0
171 195 0
171 196 0
171 196 0
171 196 0
170 195 0
172 196 0
170 195 0
171 196 0
170 194 0
169 194 0
170 195 0
169 195 0
170 195 0
170 195 0
169 195 0
170 195 0
169 194 0
169 195 0
168 194 0
169 195 0
168 194 0
167 194 0
166 192 0
168 194 0
166 192 0
168 193 0
166 193 0
167 193 0
169 194 0
166 192 0
167 193 0
166 192 0
166 192 0
165 193 0
166 192 0
167 193 0
166 193 0
165 192 0
166 192 0
167 193 0
166 192 0
164 191 0
165 192 0
166 193 0
166 193 0
165 193 0
164 191 0
164 191 0
165 192 0
165 191 0
166 193 0
164 191 0
165 191 0
164 191 0
163 190 0
166 193 0
165 191 0
165 192 0
165 192 0
164 191 0
163 190 0
159 186 0
164 191 0
166 192 0
165 192 0
162 188 0
165 191 0
165 191 0
162 188 0
163 189 0
164 190 0
161 186 0
165 191 0
163 189 0
163 188 0
162 187 0
163 189 0
158 184 0
155 181 0
162 187 0
160 185 0
163 188 0
160 186 0
160 185 0
162 187 0
161 186 0
155 179 0
162 186 0
160 184 0
157 182 0
157 181 0
163 187 0
152 176 0
160 185 0
157 181 0
157 181 0
161 185 0
159 184 0
157 180 0
162 186 0
152 176 0
156 180 0
153 176 0
147 171 0
147 171 0
158 181 0
146 170 0
143 166 0
143 166 0
155 178 0
142 165 0
145 168 0
148 171 0
144 166 0
143 166 0
143 166 0
155 179 0
144 167 0
143 166 0
150 173 0
137 160 0
145 168 0
139 161 0
145 168 0
143 165 0
121 143 0
139 161 0
130 152 0
142 164 0
133 154 0
136 158 0
118 141 0
134 156 0
135 156 0
119 139 0
133 155 0
125 146 0
133 154 0
122 143 0
130 151 0
115 136 0
118 137 0
115 135 0
114 135 0
109 129 0
110 130 0
109 129 0
109 129 0
112 131 0
117 136 0
99 118 0
100 119 0
97 117 0
119 139 0
92 111 0
95 112 0
100 117 0
91 110 0
79 98 0
77 95 0
87 105 0
88 105 0
87 102 0
81 97 0
81 96 0
85 101 0
68 82 0
87 103 0
92 108 0
76 91 0
85 101 0
63 77 0
64 77 0
69 84 0
78 92 0
70 83 0
52 65 0
59 72 0
54 68 0
63 76 0
52 65 0
61 74 0
70 83 0
51 64 0
62 75 0
60 72 0
62 75 0
44 58 0
65 77 0
47 58 0
60 73 0
57 69 0
56 69 0
62 75 0
61 76 0
54 67 0
65 78 0
49 61 0
54 67 0
62 74 0
56 70 0
58 70 0
71 83 0
65 77 0
64 76 0
68 81 0
66 79 0
58 70 0
72 85 0
69 83 0
80 91 0
67 81 0
83 99 0
88 102 0
79 92 0
75 89 0
75 89 0
84 99 0
86 102 0
84 100 0
93 107 0
69 84 0
68 86 0
82 99 0
83 98 0
91 105 0
86 100 0
104 120 0
94 110 0
89 104 0
100 115 0
95 110 0
96 112 0
100 116 0
107 122 0
104 119 0
109 124 0
101 117 0
110 127 0
105 119 0
92 107 0
100 118 0
107 123 0
106 124 0
113 130 0
108 125 0
121 139 0
103 115 0
105 119 0
116 129 0
103 117 0
121 136 0
113 129 0
118 135 0
118 130 0
117 134 0
116 128 0
122 135 0
119 134 0
119 134 0
117 133 0
114 128 0
110 122 0
110 124 0
113 128 0
125 140 0
127 143 0
121 134 0
121 134 0
128 141 0
117 130 0
122 134 0
131 147 0
119 130 0
129 140 0
132 144 0
120 130 0
124 134 0
130 143 0
121 131 0
126 135 0
119 127 0
126 133 0
125 133 0
112 120 0
123 132 0
123 130 0
126 132 0
127 134 0
133 138 0
126 133 0
130 134 0
116 122 0
130 137 0
125 129 0
132 136 0
125 128 0
122 125 0
125 128 0
122 124 0
124 128 0
123 121 0
128 126 0
125 124 0
129 129 0
125 126 0
127 127 0
123 123 0
129 129 0
131 127 0
132 128 0
124 119 0
129 126 0
119 115 0
129 123 0
123 120 0
134 127 0
124 117 0
132 126 0
132 128 0
124 117 0
123 116 0
120 110 0
124 117 0
126 119 0
125 116 0
124 118 0
130 122 0
129 119 0
125 113 0
128 121 0
121 112 0
129 124 0
126 118 0
133 126 0
124 115 0
126 118 0
131 124 0
134 125 0
131 125 0
129 119 0
126 117 0
126 117 0
136 127 0
134 126 0
136 132 0
135 126 0
139 132 0
139 135 0
141 135 0
139 134 0
142 140 0
140 135 0
145 142 0
141 135 0
144 141 0
144 141 0
144 141 0
144 145 0
150 152 0
147 148 0
146 146 0
151 150 0
147 147 0
155 157 0
154 157 0
153 156 0
152 155 0
153 156 0
153 157 0
159 165 0
157 164 0
158 166 0
160 171 0
157 164 0
153 160 0
158 166 0
159 167 0
162 172 0
158 169 0
159 165 0
161 170 0
160 171 0
160 173 0
159 169 0
166 178 0
164 179 0
161 172 0
162 174 0
165 178 0
173 197 0
172 196 0
172 197 0
171 195 0
170 195 0
171 195 0
171 196 0
172 196 0
170 194 0
172 196 0
170 195 0
170 195 0
169 194 0
171 195 0
169 195 0
170 194 0
170 195 0
170 195 0
169 194 0
169 194 0
171 195 0
169 195 0
169 194 0
170 195 0
169 194 0
168 194 0
169 195 0
167 193 0
168 193 0
168 194 0
169 194 0
168 194 0
167 193 0
167 193 0
167 192 0
167 193 0
166 192 0
167 193 0
168 194 0
167 194 0
166 193 0
167 194 0
166 192 0
166 192 0
166 193 0
165 192 0
167 193 0
164 190 0
167 193 0
165 192 0
165 191 0
166 193 0
166 193 0
164 191 0
167 193 0
162 189 0
166 193 0
165 193 0
166 192 0
164 191 0
165 192 0
166 192 0
164 191 0
165 191 0
164 191 0
163 190 0
166 193 0
164 190 0
165 191 0
164 191 0
164 190 0
165 192 0
166 193 0
161 187 0
165 191 0
164 191 0
162 189 0
160 186 0
162 187 0
159 185 0
164 190 0
163 189 0
167 193 0
162 188 0
166 192 0
164 190 0
161 186 0
165 191 0
163 188 0
159 184 0
164 189 0
161 186 0
155 180 0
165 189 0
163 187 0
157 181 0
160 184 0
162 186 0
158 182 0
155 180 0
160 185 0
158 182 0
157 181 0
151 175 0
160 184 0
153 176 0
161 185 0
156 180 0
156 180 0
151 175 0
152 175 0
146 170 0
154 178 0
146 170 0
152 175 0
149 172 0
151 175 0
153 176 0
147 170 0
154 177 0
148 172 0
141 164 0
145 168 0
146 169 0
149 172 0
140 162 0
137 160 0
148 171 0
136 158 0
151 173 0
142 164 0
141 164 0
139 161 0
134 157 0
136 158 0
139 162 0
145 167 0
138 161 0
148 170 0
127 150 0
122 144 0
135 157 0
142 163 0
127 149 0
130 152 0
128 149 0
117 139 0
118 139 0
110 132 0
120 141 0
111 132 0
120 142 0
115 135 0
103 123 0
120 140 0
125 145 0
116 137 0
115 135 0
113 133 0
109 128 0
106 124 0
112 132 0
113 132 0
99 118 0
93 110 0
97 116 0
96 114 0
92 110 0
88 106 0
89 105 0
84 101 0
92 110 0
73 91 0
86 101 0
68 85 0
95 112 0
83 99 0
72 88 0
67 83 0
78 94 0
74 89 0
65 79 0
69 83 0
74 91 0
78 93 0
71 86 0
62 77 0
72 87 0
70 84 0
78 92 0
66 79 0
72 86 0
65 78 0
70 84 0
66 80 0
53 65 0
55 68 0
70 82 0
58 72 0
76 91 0
69 82 0
55 67 0
61 73 0
70 83 0
65 79 0
52 65 0
58 71 0
68 81 0
66 79 0
55 68 0
80 93 0
61 76 0
82 98 0
61 76 0
82 95 0
81 95 0
70 84 0
74 88 0
85 99 0
68 82 0
70 85 0
64 78 0
83 98 0
84 97 0
77 92 0
73 89 0
72 85 0
85 101 0
72 87 0
80 96 0
87 103 0
91 105 0
89 104 0
97 113 0
86 103 0
93 110 0
86 102 0
85 101 0
90 107 0
89 105 0
96 113 0
101 116 0
88 105 0
108 124 0
102 120 0
92 109 0
105 121 0
97 114 0
110 126 0
101 118 0
104 121 0
112 129 0
103 118 0
116 132 0
114 129 0
112 127 0
106 125 0
114 129 0
112 129 0
114 131 0
121 137 0
116 131 0
123 138 0
119 136 0
111 126 0
105 118 0
124 139 0
115 128 0
103 119 0
126 140 0
126 142 0
128 143 0
122 137 0
125 142 0
121 137 0
119 132 0
120 134 0
122 133 0
125 137 0
123 138 0
126 139 0
121 135 0
121 132 0
128 139 0
125 137 0
115 128 0
114 124 0
124 133 0
127 141 0
130 143 0
119 128 0
131 141 0
128 135 0
130 139 0
125 135 0
125 134 0
129 137 0
128 135 0
125 130 0
133 139 0
127 134 0
127 133 0
132 141 0
124 131 0
126 131 0
118 124 0
128 134 0
129 132 0
123 125 0
127 130 0
140 142 0
126 130 0
134 137 0
136 136 0
128 131 0
137 142 0
127 126 0
130 132 0
129 131 0
129 129 0
130 129 0
134 133 0
127 124 0
129 126 0
129 124 0
127 123 0
130 127 0
127 120 0
124 121 0
128 124 0
126 120 0
128 124 0
128 121 0
134 129 0
128 123 0
128 121 0
134 129 0
129 122 0
137 133 0
122 113 0
128 121 0
125 114 0
132 126 0
134 129 0
132 123 0
130 122 0
129 122 0
130 119 0
135 129 0
134 127 0
130 122 0
130 122 0
139 133 0
136 130 0
128 120 0
136 130 0
136 130 0
134 125 0
140 136 0
144 141 0
145 144 0
139 135 0
142 139 0
140 134 0
142 137 0
147 146 0
139 136 0
143 141 0
147 145 0
149 149 0
148 147 0
149 151 0
150 152 0
152 154 0
151 151 0
149 151 0
155 160 0
153 157 0
153 154 0
156 160 0
156 162 0
155 158 0
153 155 0
156 161 0
156 163 0
156 161 0
156 163 0
158 166 0
159 169 0
157 167 0
158 167 0
159 168 0
158 168 0
160 170 0
161 169 0
160 173 0
159 171 0
163 175 0
161 174 0
163 175 0
171 195 0
171 196 0
172 197 0
171 195 0
171 196 0
170 194 0
171 196 0
171 195 0
172 196 0
169 194 0
171 196 0
170 194 0
169 194 0
170 195 0
170 195 0
170 195 0
171 196 0
170 194 0
170 195 0
170 196 0
169 194 0
169 194 0
170 195 0
168 193 0
168 194 0
169 195 0
169 195 0
168 193 0
167 193 0
167 193 0
168 193 0
168 193 0
167 193 0
168 194 0
166 192 0
168 194 0
167 193 0
165 191 0
167 193 0
168 194 0
168 194 0
166 192 0
166 192 0
166 193 0
167 193 0
167 194 0
166 193 0
165 192 0
166 193 0
166 192 0
167 193 0
165 191 0
162 189 0
165 192 0
167 193 0
166 192 0
166 193 0
166 192 0
165 191 0
166 192 0
162 188 0
165 191 0
165 192 0
166 193 0
167 193 0
164 190 0
166 192 0
165 191 0
164 190 0
164 190 0
165 191 0
165 191 0
163 190 0
164 190 0
164 190 0
164 189 0
164 190 0
163 188 0
161 187 0
165 190 0
164 189 0
158 183 0
163 188 0
159 183 0
163 188 0
163 188 0
161 186 0
161 186 0
164 189 0
160 185 0
161 186 0
162 186 0
160 185 0
159 183 0
158 182 0
159 184 0
157 181 0
155 179 0
158 183 0
163 188 0
160 184 0
159 183 0
160 183 0
160 184 0
154 178 0
159 183 0
156 180 0
154 178 0
152 175 0
155 180 0
155 179 0
148 172 0
148 171 0
147 171 0
146 170 0
145 169 0
150 173 0
153 176 0
150 174 0
145 168 0
154 178 0
151 174 0
148 171 0
136 159 0
142 165 0
140 163 0
140 163 0
144 167 0
144 166 0
138 160 0
146 168 0
141 163 0
141 163 0
134 157 0
141 164 0
134 156 0
133 156 0
127 149 0
137 159 0
134 155 0
132 154 0
133 155 0
121 142 0
122 143 0
126 148 0
125 146 0
130 151 0
126 147 0
123 144 0
125 146 0
124 144 0
117 138 0
108 129 0
122 141 0
111 130 0
117 138 0
115 135 0
116 137 0
109 128 0
103 123 0
113 133 0
105 125 0
107 126 0
101 120 0
106 125 0
93 113 0
99 118 0
85 103 0
98 116 0
92 110 0
92 111 0
86 105 0
83 100 0
76 93 0
86 102 0
85 103 0
79 94 0
78 94 0
76 93 0
76 94 0
89 107 0
81 98 0
93 109 0
78 95 0
56 72 0
75 90 0
82 98 0
72 87 0
64 80 0
71 86 0
73 88 0
68 82 0
77 91 0
63 77 0
80 93 0
63 77 0
70 84 0
68 82 0
63 75 0
63 77 0
72 86 0
66 78 0
70 84 0
65 78 0
63 76 0
67 80 0
81 96 0
63 78 0
68 80 0
47 62 0
69 84 0
80 94 0
75 90 0
80 96 0
67 81 0
86 102 0
72 88 0
71 86 0
84 100 0
73 89 0
70 84 0
79 93 0
75 93 0
85 101 0
73 89 0
84 98 0
78 93 0
86 102 0
75 92 0
78 95 0
86 103 0
89 106 0
86 102 0
85 102 0
77 92 0
90 108 0
95 111 0
84 100 0
91 108 0
100 114 0
104 118 0
100 116 0
100 117 0
97 115 0
109 124 0
96 111 0
104 121 0
103 122 0
115 131 0
101 115 0
104 118 0
105 120 0
113 128 0
90 108 0
108 123 0
104 121 0
109 125 0
105 120 0
106 122 0
101 118 0
115 135 0
114 131 0
125 144 0
123 139 0
119 135 0
122 137 0
122 137 0
118 134 0
117 133 0
109 126 0
131 146 0
126 143 0
126 139 0
121 134 0
131 145 0
127 142 0
122 135 0
122 135 0
127 143 0
128 138 0
124 139 0
127 140 0
131 146 0
125 138 0
121 132 0
122 135 0
129 144 0
126 136 0
126 139 0
130 141 0
124 132 0
130 139 0
133 143 0
125 136 0
125 137 0
127 136 0
129 138 0
137 146 0
136 147 0
128 137 0
136 144 0
127 134 0
126 132 0
129 136 0
134 136 0
128 132 0
134 142 0
132 136 0
127 134 0
139 145 0
125 130 0
125 128 0
136 140 0
136 138 0
130 132 0
137 139 0
132 133 0
129 130 0
130 129 0
129 128 0
132 134 0
135 135 0
131 127 0
135 134 0
135 134 0
133 132 0
136 135 0
135 131 0
134 129 0
129 127 0
136 133 0
126 123 0
131 128 0
138 134 0
130 125 0
132 128 0
130 125 0
131 125 0
133 125 0
128 120 0
125 116 0
133 128 0
126 118 0
142 138 0
128 121 0
126 122 0
135 131 0
141 137 0
135 132 0
139 135 0
136 129 0
134 130 0
132 124 0
135 126 0
137 132 0
143 138 0
138 133 0
139 136 0
139 135 0
146 141 0
145 143 0
145 142 0
140 138 0
138 134 0
139 134 0
143 139 0
141 135 0
145 143 0
139 136 0
146 145 0
145 142 0
146 144 0
151 153 0
147 151 0
149 148 0
152 152 0
148 149 0
151 155 0
152 155 0
154 158 0
157 160 0
156 160 0
153 160 0
158 164 0
157 160 0
155 158 0
155 159 0
160 167 0
159 166 0
159 166 0
158 168 0
161 168 0
158 167 0
160 166 0
159 169 0
162 173 0
162 172 0
158 166 0
163 175 0
160 172 0
172 196 0
170 194 0
173 197 0
171 196 0
171 195 0
171 195 0
172 196 0
170 195 0
172 196 0
168 193 0
170 195 0
171 195 0
171 196 0
172 196 0
170 195 0
171 195 0
171 196 0
171 195 0
171 196 0
169 195 0
170 195 0
170 195 0
169 194 0
168 194 0
168 194 0
168 193 0
171 196 0
169 195 0
167 193 0
169 194 0
167 193 0
168 194 0
167 193 0
168 194 0
168 194 0
168 194 0
168 194 0
167 193 0
168 194 0
168 193 0
166 192 0
167 193 0
166 192 0
166 193 0
165 191 0
166 192 0
166 192 0
165 191 0
164 191 0
166 192 0
166 192 0
166 192 0
168 194 0
166 192 0
162 189 0
166 192 0
165 192 0
164 191 0
165 191 0
165 191 0
164 190 0
165 192 0
166 193 0
165 192 0
163 189 0
165 191 0
167 193 0
164 190 0
164 190 0
165 191 0
166 191 0
164 190 0
163 189 0
167 192 0
163 189 0
168 194 0
164 189 0
166 191 0
164 190 0
164 189 0
164 190 0
165 190 0
161 186 0
166 192 0
157 182 0
166 191 0
159 184 0
163 188 0
162 187 0
157 182 0
162 186 0
156 180 0
164 189 0
159 184 0
158 183 0
161 185 0
160 184 0
161 186 0
159 183 0
162 186 0
155 178 0
157 181 0
157 180 0
161 185 0
151 175 0
157 180 0
156 179 0
153 176 0
157 180 0
154 178 0
151 175 0
153 177 0
154 177 0
154 178 0
149 173 0
154 177 0
151 174 0
146 169 0
148 171 0
144 167 0
139 162 0
145 168 0
143 166 0
143 165 0
151 175 0
142 165 0
142 165 0
137 160 0
135 158 0
135 158 0
138 161 0
133 155 0
139 161 0
138 161 0
139 162 0
147 169 0
124 146 0
138 160 0
137 160 0
124 145 0
130 152 0
136 158 0
112 135 0
132 154 0
124 146 0
133 154 0
129 150 0
119 140 0
119 139 0
123 145 0
122 143 0
122 143 0
132 154 0
110 130 0
118 140 0
112 132 0
108 128 0
105 125 0
108 127 0
112 131 0
115 134 0
90 110 0
95 114 0
102 121 0
104 123 0
108 127 0
95 114 0
109 128 0
88 108 0
88 107 0
96 114 0
89 107 0
85 102 0
91 108 0
94 112 0
89 107 0
84 101 0
102 119 0
94 112 0
81 98 0
92 108 0
81 97 0
79 97 0
84 100 0
94 111 0
76 92 0
83 99 0
78 94 0
74 89 0
71 87 0
83 97 0
70 86 0
76 91 0
75 90 0
77 91 0
92 109 0
75 90 0
66 80 0
67 82 0
77 92 0
67 83 0
78 94 0
70 85 0
63 75 0
79 93 0
70 86 0
65 79 0
81 94 0
78 91 0
67 83 0
64 79 0
78 92 0
71 86 0
93 108 0
79 93 0
79 93 0
81 95 0
82 98 0
66 81 0
78 92 0
85 101 0
81 98 0
77 93 0
83 99 0
94 111 0
77 94 0
81 97 0
84 101 0
87 101 0
90 107 0
97 113 0
83 100 0
88 104 0
102 118 0
93 108 0
78 91 0
95 112 0
102 118 0
100 117 0
97 114 0
101 118 0
109 127 0
95 112 0
101 117 0
99 116 0
106 123 0
109 124 0
119 135 0
95 113 0
110 126 0
111 127 0
116 132 0
117 135 0
104 121 0
104 121 0
112 127 0
113 129 0
108 126 0
107 124 0
121 138 0
109 127 0
113 129 0
118 134 0
119 137 0
112 125 0
108 123 0
123 138 0
128 143 0
113 130 0
118 135 0
124 141 0
116 130 0
129 144 0
131 147 0
115 128 0
128 141 0
120 135 0
127 141 0
128 142 0
127 141 0
135 148 0
129 143 0
120 132 0
128 142 0
124 137 0
116 127 0
124 137 0
129 141 0
122 132 0
122 135 0
134 147 0
133 149 0
138 149 0
129 141 0
134 143 0
129 140 0
141 150 0
136 146 0
131 141 0
131 138 0
135 144 0
129 135 0
131 139 0
135 142 0
136 145 0
129 133 0
137 142 0
134 141 0
131 135 0
132 136 0
140 144 0
130 135 0
127 130 0
133 138 0
133 137 0
127 129 0
134 136 0
130 131 0
133 134 0
133 132 0
137 138 0
144 145 0
125 126 0
138 139 0
141 140 0
138 137 0
130 129 0
132 131 0
135 134 0
130 126 0
133 131 0
133 130 0
132 130 0
134 130 0
133 129 0
141 140 0
135 132 0
139 133 0
132 126 0
124 117 0
126 122 0
132 129 0
140 136 0
134 129 0
134 128 0
136 132 0
133 123 0
136 133 0
134 129 0
141 138 0
137 129 0
132 126 0
139 136 0
139 134 0
143 139 0
139 135 0
137 131 0
142 138 0
137 132 0
138 134 0
139 135 0
147 146 0
146 142 0
143 142 0
142 139 0
144 144 0
141 137 0
145 143 0
149 151 0
149 150 0
149 147 0
149 148 0
149 148 0
146 146 0
149 148 0
153 158 0
152 156 0
154 155 0
151 152 0
153 156 0
153 159 0
154 158 0
158 163 0
154 157 0
153 161 0
159 167 0
157 164 0
155 161 0
159 168 0
158 164 0
159 168 0
159 167 0
161 170 0
160 171 0
158 164 0
160 168 0
163 170 0
162 174 0
162 175 0
163 174 0
170 195 0
170 195 0
173 197 0
172 196 0
171 195 0
171 195 0
170 194 0
171 196 0
171 196 0
169 194 0
169 194 0
170 195 0
172 196 0
169 194 0
169 195 0
169 194 0
171 196 0
169 195 0
170 195 0
169 194 0
168 194 0
169 194 0
169 195 0
168 194 0
169 194 0
169 195 0
168 193 0
169 194 0
169 195 0
169 194 0
168 194 0
167 193 0
168 194 0
168 194 0
166 192 0
167 193 0
167 193 0
168 193 0
168 194 0
167 193 0
167 193 0
168 194 0
167 193 0
167 193 0
167 193 0
166 192 0
167 193 0
165 191 0
167 193 0
168 194 0
166 191 0
165 191 0
166 193 0
165 191 0
165 192 0
167 193 0
164 190 0
167 193 0
166 193 0
168 194 0
166 192 0
164 190 0
165 191 0
164 191 0
167 193 0
164 190 0
162 188 0
166 191 0
164 189 0
167 192 0
162 188 0
164 190 0
166 192 0
164 189 0
161 187 0
162 188 0
164 189 0
164 189 0
167 193 0
158 184 0
162 188 0
162 187 0
162 187 0
164 190 0
163 188 0
161 185 0
162 187 0
163 188 0
157 182 0
159 184 0
155 180 0
160 185 0
157 181 0
159 183 0
156 180 0
162 186 0
152 176 0
160 184 0
161 185 0
159 184 0
156 180 0
156 180 0
155 179 0
157 181 0
150 174 0
150 174 0
154 178 0
157 181 0
158 182 0
150 174 0
158 182 0
151 175 0
152 175 0
142 166 0
153 177 0
156 179 0
143 167 0
151 174 0
145 170 0
150 173 0
151 174 0
150 173 0
145 168 0
150 173 0
140 163 0
143 167 0
142 165 0
140 163 0
143 166 0
136 159 0
137 160 0
134 156 0
140 162 0
137 160 0
143 165 0
131 153 0
137 159 0
136 158 0
126 148 0
124 145 0
128 149 0
128 151 0
125 148 0
125 147 0
132 155 0
136 158 0
118 140 0
124 146 0
123 145 0
121 141 0
119 140 0
126 148 0
120 141 0
120 142 0
128 149 0
100 120 0
115 136 0
108 128 0
102 122 0
108 127 0
95 114 0
117 137 0
112 132 0
100 120 0
101 120 0
100 120 0
97 116 0
91 110 0
87 105 0
85 105 0
88 106 0
93 111 0
101 119 0
100 118 0
98 117 0
73 91 0
89 107 0
85 101 0
72 90 0
100 119 0
81 99 0
88 105 0
83 100 0
72 90 0
80 96 0
64 80 0
84 100 0
72 88 0
78 93 0
62 77 0
79 95 0
82 98 0
76 91 0
70 85 0
73 88 0
73 88 0
74 88 0
80 96 0
60 75 0
68 82 0
67 82 0
68 83 0
86 102 0
48 64 0
69 85 0
84 99 0
86 101 0
75 91 0
73 88 0
61 74 0
82 98 0
75 87 0
67 82 0
81 97 0
97 113 0
75 91 0
74 88 0
84 101 0
80 95 0
91 106 0
75 89 0
85 99 0
93 110 0
91 106 0
93 108 0
89 106 0
102 119 0
80 95 0
75 91 0
92 109 0
96 114 0
91 108 0
89 105 0
100 116 0
93 110 0
94 112 0
96 112 0
99 115 0
101 118 0
112 131 0
106 123 0
95 112 0
106 123 0
95 111 0
91 106 0
103 120 0
94 108 0
92 108 0
104 119 0
108 125 0
113 131 0
112 128 0
122 139 0
112 129 0
111 129 0
114 131 0
109 126 0
111 128 0
113 129 0
108 125 0
124 140 0
99 117 0
108 122 0
118 135 0
119 137 0
116 133 0
123 140 0
117 132 0
116 131 0
128 144 0
121 136 0
127 145 0
133 146 0
134 151 0
117 134 0
128 144 0
139 155 0
129 144 0
122 138 0
126 140 0
127 140 0
128 142 0
114 129 0
127 140 0
132 145 0
130 141 0
126 136 0
131 141 0
137 151 0
128 138 0
140 149 0
120 130 0
133 145 0
134 146 0
134 147 0
131 140 0
119 130 0
129 141 0
140 148 0
136 144 0
131 140 0
129 141 0
137 144 0
131 139 0
126 133 0
131 138 0
128 132 0
142 149 0
133 139 0
132 140 0
141 144 0
133 139 0
132 138 0
126 130 0
138 145 0
133 138 0
141 145 0
131 133 0
139 145 0
134 135 0
132 136 0
133 134 0
129 130 0
136 139 0
133 131 0
139 138 0
130 132 0
139 139 0
128 126 0
136 135 0
137 136 0
137 135 0
139 137 0
136 135 0
140 142 0
132 130 0
136 134 0
143 143 0
134 128 0
135 133 0
140 137 0
134 129 0
135 130 0
140 137 0
141 139 0
144 144 0
141 138 0
133 129 0
134 129 0
137 133 0
140 137 0
138 137 0
136 132 0
146 144 0
130 126 0
137 136 0
142 139 0
145 145 0
142 139 0
143 138 0
138 132 0
147 144 0
136 133 0
140 136 0
151 151 0
141 142 0
140 138 0
146 145 0
140 133 0
144 144 0
149 150 0
147 145 0
146 146 0
147 150 0
154 155 0
150 152 0
146 148 0
149 153 0
152 156 0
156 162 0
155 158 0
154 157 0
152 155 0
153 157 0
155 159 0
152 155 0
152 156 0
155 160 0
158 164 0
154 158 0
155 163 0
162 169 0
159 166 0
160 167 0
159 168 0
158 167 0
159 171 0
158 169 0
160 170 0
160 171 0
172 196 0
171 196 0
171 195 0
171 196 0
171 195 0
172 196 0
171 195 0
170 195 0
172 196 0
171 195 0
171 196 0
170 194 0
170 195 0
170 195 0
170 195 0
170 195 0
170 195 0
169 194 0
168 193 0
170 195 0
169 194 0
168 194 0
168 194 0
168 194 0
169 194 0
169 194 0
170 195 0
169 195 0
168 193 0
168 194 0
168 193 0
168 194 0
169 194 0
166 193 0
165 191 0
168 194 0
168 194 0
167 193 0
167 193 0
166 192 0
168 194 0
167 193 0
167 193 0
166 192 0
166 192 0
165 192 0
168 193 0
166 192 0
168 193 0
167 193 0
166 192 0
168 194 0
166 192 0
165 190 0
166 192 0
164 190 0
168 194 0
165 191 0
165 191 0
165 191 0
167 193 0
164 190 0
167 192 0
166 192 0
160 186 0
167 192 0
164 190 0
163 188 0
167 193 0
163 188 0
164 189 0
164 189 0
165 190 0
164 189 0
164 190 0
167 192 0
165 190 0
161 187 0
164 189 0
167 191 0
160 185 0
162 187 0
162 187 0
164 189 0
163 187 0
160 184 0
160 184 0
162 187 0
159 183 0
155 180 0
160 184 0
157 181 0
154 178 0
162 186 0
164 188 0
163 187 0
156 181 0
158 182 0
152 177 0
157 182 0
156 180 0
160 184 0
156 179 0
156 180 0
151 175 0
153 177 0
154 178 0
150 174 0
156 180 0
148 171 0
157 180 0
154 178 0
152 176 0
152 175 0
154 177 0
144 167 0
150 175 0
151 174 0
149 172 0
155 179 0
147 171 0
140 163 0
144 167 0
150 173 0
144 167 0
146 169 0
135 157 0
141 165 0
142 165 0
132 154 0
147 170 0
142 165 0
138 161 0
138 162 0
135 157 0
131 153 0
133 156 0
127 150 0
149 171 0
141 165 0
131 154 0
122 144 0
133 154 0
138 160 0
122 144 0
132 154 0
124 147 0
128 149 0
115 136 0
123 144 0
118 140 0
117 139 0
126 147 0
121 142 0
116 137 0
124 145 0
123 143 0
111 130 0
101 122 0
119 139 0
105 125 0
115 135 0
106 126 0
94 114 0
109 128 0
105 125 0
110 130 0
104 124 0
94 113 0
94 113 0
101 120 0
92 110 0
94 112 0
94 112 0
96 115 0
90 107 0
93 111 0
90 107 0
72 90 0
86 104 0
95 111 0
83 101 0
84 101 0
85 102 0
78 95 0
76 94 0
88 104 0
84 100 0
89 104 0
72 88 0
73 88 0
74 91 0
80 94 0
82 99 0
72 86 0
78 93 0
72 90 0
71 86 0
86 102 0
77 93 0
62 77 0
67 83 0
68 85 0
88 104 0
67 83 0
79 94 0
85 99 0
80 96 0
89 105 0
73 89 0
85 102 0
78 94 0
89 104 0
80 94 0
80 96 0
81 98 0
88 104 0
77 91 0
74 91 0
61 77 0
86 101 0
85 102 0
85 100 0
82 98 0
72 88 0
83 101 0
94 113 0
89 107 0
87 104 0
96 112 0
95 111 0
90 106 0
101 118 0
95 114 0
85 103 0
107 125 0
108 126 0
100 116 0
99 116 0
99 117 0
100 118 0
93 110 0
112 131 0
114 133 0
109 126 0
113 130 0
102 121 0
104 123 0
109 126 0
110 127 0
109 125 0
110 128 0
121 140 0
107 126 0
115 133 0
115 134 0
120 138 0
116 133 0
118 136 0
106 124 0
112 129 0
118 136 0
125 141 0
113 131 0
116 135 0
125 143 0
133 149 0
124 139 0
130 146 0
122 138 0
117 134 0
119 136 0
128 143 0
131 147 0
130 146 0
118 133 0
131 146 0
125 140 0
126 142 0
118 132 0
127 140 0
127 142 0
133 150 0
132 147 0
128 141 0
129 143 0
129 139 0
132 148 0
118 130 0
136 148 0
128 141 0
124 136 0
128 141 0
131 143 0
125 134 0
136 147 0
131 143 0
132 140 0
136 145 0
136 146 0
131 139 0
126 133 0
134 140 0
135 148 0
138 146 0
137 144 0
139 145 0
132 142 0
140 150 0
143 147 0
133 140 0
132 138 0
131 135 0
137 142 0
140 144 0
135 143 0
132 133 0
133 137 0
130 136 0
131 135 0
134 137 0
134 138 0
141 146 0
136 139 0
142 144 0
139 143 0
141 144 0
138 141 0
139 143 0
140 139 0
137 139 0
140 139 0
138 136 0
137 137 0
137 135 0
140 142 0
135 133 0
136 135 0
146 143 0
136 131 0
141 136 0
138 133 0
140 138 0
142 141 0
137 133 0
139 139 0
135 133 0
143 140 0
144 142 0
139 133 0
139 133 0
141 138 0
146 143 0
142 138 0
139 133 0
146 146 0
138 137 0
144 143 0
142 136 0
142 139 0
141 136 0
140 136 0
147 145 0
145 143 0
135 133 0
141 138 0
148 146 0
149 149 0
146 145 0
153 155 0
152 153 0
149 150 0
153 157 0
148 146 0
148 148 0
155 157 0
148 149 0
153 157 0
153 156 0
153 154 0
153 157 0
154 159 0
154 158 0
155 159 0
158 166 0
151 155 0
152 156 0
156 161 0
157 164 0
154 162 0
157 162 0
157 164 0
155 163 0
159 166 0
159 169 0
158 168 0
162 169 0
156 165 0
161 172 0
160 168 0
171 196 0
172 196 0
171 196 0
170 195 0
172 196 0
169 194 0
170 196 0
171 196 0
172 196 0
171 195 0
171 196 0
170 195 0
170 195 0
169 194 0
171 196 0
169 194 0
170 195 0
169 194 0
171 196 0
168 194 0
170 195 0
168 194 0
169 194 0
170 195 0
168 193 0
167 192 0
169 194 0
167 193 0
170 195 0
168 193 0
169 195 0
169 194 0
168 194 0
169 194 0
168 193 0
169 194 0
166 192 0
166 192 0
168 194 0
167 193 0
168 194 0
167 193 0
168 193 0
169 194 0
167 193 0
166 192 0
168 194 0
167 193 0
167 193 0
167 193 0
168 194 0
164 190 0
167 192 0
166 192 0
168 194 0
166 192 0
164 190 0
168 194 0
165 191 0
166 192 0
165 191 0
167 192 0
168 194 0
166 192 0
167 193 0
166 191 0
166 192 0
162 187 0
162 187 0
163 189 0
166 191 0
163 187 0
163 188 0
167 192 0
161 186 0
163 188 0
164 189 0
165 190 0
160 185 0
161 186 0
166 191 0
163 188 0
157 181 0
162 186 0
161 186 0
163 187 0
164 188 0
164 189 0
163 187 0
165 189 0
152 176 0
155 179 0
157 181 0
155 180 0
159 183 0
157 182 0
159 183 0
159 183 0
161 185 0
151 175 0
154 178 0
150 174 0
154 178 0
159 183 0
155 179 0
154 177 0
153 176 0
153 176 0
159 183 0
155 179 0
156 180 0
156 179 0
154 177 0
146 170 0
154 177 0
143 167 0
149 172 0
153 177 0
146 169 0
156 179 0
148 172 0
151 174 0
145 168 0
143 167 0
144 168 0
154 177 0
135 158 0
140 163 0
133 155 0
139 162 0
141 164 0
138 160 0
138 161 0
141 164 0
138 161 0
132 154 0
144 166 0
131 154 0
128 151 0
131 152 0
141 164 0
127 150 0
141 162 0
136 158 0
129 151 0
131 153 0
125 146 0
129 150 0
121 142 0
115 136 0
127 148 0
130 151 0
121 141 0
124 146 0
122 144 0
114 136 0
125 146 0
108 129 0
116 136 0
111 131 0
109 129 0
109 129 0
116 136 0
106 125 0
100 120 0
107 126 0
99 118 0
110 131 0
107 126 0
93 111 0
108 126 0
107 126 0
100 119 0
104 122 0
83 103 0
99 119 0
90 108 0
96 114 0
95 114 0
87 106 0
92 110 0
92 110 0
84 102 0
91 109 0
87 103 0
88 105 0
90 109 0
89 106 0
80 96 0
79 97 0
77 95 0
85 103 0
90 106 0
79 95 0
79 94 0
85 100 0
72 88 0
80 94 0
73 90 0
78 95 0
88 104 0
72 89 0
85 102 0
71 86 0
71 86 0
86 104 0
91 106 0
89 105 0
82 98 0
75 90 0
78 95 0
79 95 0
75 92 0
83 100 0
82 99 0
87 104 0
98 116 0
98 114 0
87 104 0
90 105 0
96 113 0
97 113 0
99 117 0
98 114 0
91 109 0
81 97 0
87 104 0
93 110 0
106 125 0
96 112 0
92 108 0
90 107 0
100 116 0
94 111 0
93 110 0
111 129 0
97 115 0
111 129 0
99 117 0
95 112 0
94 111 0
110 128 0
109 127 0
108 126 0
114 131 0
95 110 0
117 133 0
114 133 0
108 124 0
111 129 0
109 129 0
114 133 0
108 127 0
119 136 0
123 142 0
111 129 0
106 123 0
112 130 0
112 130 0
121 139 0
121 137 0
120 139 0
130 148 0
119 137 0
115 132 0
127 144 0
125 144 0
118 139 0
118 134 0
135 152 0
119 136 0
133 150 0
123 138 0
121 138 0
127 144 0
132 150 0
126 141 0
125 141 0
125 142 0
127 143 0
122 136 0
131 145 0
135 152 0
130 142 0
125 140 0
135 149 0
137 152 0
137 154 0
130 144 0
135 150 0
126 140 0
140 155 0
135 145 0
129 142 0
135 145 0
124 136 0
136 147 0
130 142 0
133 142 0
130 141 0
134 143 0
136 148 0
135 148 0
134 143 0
139 152 0
141 150 0
135 146 0
133 142 0
140 151 0
150 159 0
142 153 0
134 140 0
140 148 0
131 137 0
129 135 0
129 136 0
140 148 0
144 152 0
138 146 0
135 138 0
138 144 0
135 138 0
141 147 0
142 149 0
141 146 0
141 143 0
139 144 0
138 141 0
137 140 0
145 148 0
140 140 0
142 141 0
142 146 0
137 137 0
144 147 0
136 136 0
132 131 0
149 150 0
139 137 0
137 136 0
141 139 0
140 136 0
140 140 0
136 131 0
135 133 0
138 136 0
140 138 0
139 138 0
143 145 0
144 144 0
139 138 0
141 141 0
138 133 0
141 140 0
137 133 0
139 135 0
145 145 0
145 144 0
142 140 0
145 142 0
143 141 0
143 141 0
143 143 0
147 144 0
144 144 0
147 147 0
141 137 0
147 146 0
146 146 0
142 138 0
145 145 0
143 142 0
149 147 0
147 146 0
150 153 0
147 147 0
149 152 0
149 152 0
153 155 0
150 154 0
151 151 0
154 153 0
150 152 0
155 159 0
155 159 0
154 156 0
155 157 0
150 154 0
153 156 0
157 164 0
156 162 0
157 163 0
162 171 0
159 166 0
160 170 0
154 163 0
158 164 0
154 164 0
158 166 0
157 165 0
171 196 0
171 196 0
170 195 0
169 194 0
171 196 0
170 195 0
170 195 0
172 196 0
169 194 0
171 196 0
171 196 0
169 194 0
169 194 0
169 194 0
169 194 0
169 194 0
169 195 0
170 195 0
169 194 0
170 195 0
171 196 0
169 194 0
169 194 0
169 195 0
168 193 0
169 194 0
169 195 0
168 194 0
169 195 0
169 195 0
167 193 0
167 193 0
167 193 0
168 194 0
169 195 0
167 193 0
168 193 0
166 192 0
168 193 0
168 193 0
167 193 0
167 193 0
168 194 0
168 193 0
168 193 0
168 194 0
165 192 0
168 194 0
166 192 0
166 192 0
169 193 0
165 191 0
167 193 0
165 191 0
167 193 0
167 193 0
167 193 0
165 191 0
166 191 0
164 190 0
163 188 0
162 187 0
165 191 0
167 192 0
165 191 0
167 193 0
166 191 0
165 190 0
167 192 0
165 190 0
164 190 0
163 188 0
163 188 0
163 188 0
160 185 0
161 186 0
162 187 0
164 189 0
162 186 0
166 190 0
163 188 0
160 185 0
159 184 0
163 188 0
162 187 0
159 184 0
162 187 0
153 177 0
163 187 0
157 181 0
162 186 0
162 186 0
163 187 0
162 186 0
157 181 0
161 185 0
156 179 0
163 187 0
156 180 0
154 178 0
157 181 0
154 178 0
157 180 0
151 175 0
163 187 0
151 175 0
159 183 0
148 172 0
150 174 0
152 176 0
153 177 0
152 175 0
149 172 0
163 187 0
151 174 0
147 171 0
151 175 0
146 169 0
151 174 0
147 170 0
143 166 0
150 174 0
146 169 0
147 170 0
138 160 0
145 169 0
146 168 0
143 166 0
144 167 0
144 167 0
146 169 0
141 165 0
139 162 0
145 168 0
135 157 0
142 165 0
134 156 0
142 164 0
144 166 0
137 159 0
141 163 0
133 154 0
136 158 0
133 155 0
124 145 0
126 148 0
129 150 0
116 137 0
115 137 0
133 154 0
123 144 0
122 142 0
121 141 0
124 145 0
127 148 0
126 147 0
117 138 0
127 148 0
117 139 0
105 125 0
113 133 0
112 133 0
113 132 0
118 139 0
115 134 0
111 130 0
108 127 0
108 128 0
117 137 0
98 118 0
114 134 0
103 122 0
100 120 0
104 123 0
107 127 0
103 121 0
96 114 0
103 122 0
95 112 0
86 103 0
98 117 0
88 106 0
77 93 0
83 103 0
83 101 0
92 109 0
90 108 0
89 107 0
80 97 0
75 93 0
88 106 0
89 106 0
77 95 0
90 107 0
84 101 0
85 102 0
85 100 0
75 92 0
76 93 0
85 102 0
81 97 0
84 101 0
85 102 0
76 92 0
91 107 0
86 104 0
87 103 0
82 98 0
76 91 0
86 103 0
88 105 0
97 115 0
93 110 0
78 95 0
81 98 0
86 103 0
85 103 0
92 109 0
94 112 0
93 110 0
105 123 0
84 100 0
89 107 0
94 113 0
95 114 0
93 110 0
94 111 0
78 96 0
101 119 0
100 118 0
88 104 0
110 128 0
94 112 0
107 125 0
98 114 0
110 129 0
117 135 0
98 117 0
106 125 0
104 122 0
118 136 0
90 107 0
106 123 0
111 129 0
108 126 0
95 112 0
115 132 0
104 124 0
117 137 0
123 142 0
110 126 0
120 139 0
111 129 0
125 143 0
118 138 0
119 136 0
119 138 0
120 139 0
125 145 0
129 148 0
117 133 0
122 141 0
116 136 0
124 145 0
126 143 0
127 144 0
126 143 0
125 142 0
124 142 0
127 144 0
123 140 0
122 138 0
125 143 0
124 139 0
129 145 0
125 138 0
126 143 0
138 154 0
137 153 0
127 143 0
128 144 0
124 141 0
128 143 0
126 142 0
139 155 0
129 144 0
134 146 0
134 149 0
120 135 0
123 137 0
126 141 0
131 145 0
127 140 0
140 154 0
138 151 0
128 136 0
136 148 0
131 144 0
134 148 0
137 153 0
140 154 0
134 145 0
139 152 0
134 145 0
137 150 0
142 151 0
136 146 0
132 142 0
137 146 0
134 141 0
139 148 0
142 152 0
138 146 0
140 146 0
137 145 0
132 135 0
137 145 0
132 137 0
142 148 0
142 147 0
135 140 0
143 150 0
140 145 0
139 144 0
143 147 0
141 147 0
142 146 0
141 143 0
135 138 0
136 141 0
136 137 0
143 145 0
139 143 0
137 140 0
142 141 0
140 140 0
139 139 0
141 145 0
140 143 0
143 143 0
134 131 0
136 135 0
142 141 0
141 136 0
140 135 0
146 143 0
140 139 0
135 131 0
140 141 0
139 134 0
141 140 0
144 143 0
143 142 0
146 144 0
141 136 0
144 141 0
146 146 0
139 137 0
149 150 0
142 140 0
139 138 0
146 146 0
146 148 0
146 146 0
145 144 0
145 141 0
150 148 0
148 148 0
150 151 0
151 154 0
150 148 0
153 157 0
150 154 0
151 151 0
149 151 0
146 145 0
149 152 0
155 160 0
155 156 0
148 152 0
156 159 0
149 151 0
157 161 0
153 159 0
151 153 0
152 155 0
153 157 0
155 160 0
152 156 0
154 159 0
157 162 0
159 165 0
158 162 0
156 164 0
150 155 0
158 165 0
156 162 0
159 168 0
161 168 0
161 168 0
171 195 0
171 195 0
170 195 0
170 195 0
171 196 0
171 196 0
170 196 0
172 197 0
170 195 0
170 195 0
170 195 0
170 195 0
169 194 0
170 195 0
170 195 0
169 195 0
169 195 0
170 194 0
169 195 0
170 195 0
168 194 0
169 195 0
170 195 0
167 192 0
169 194 0
169 195 0
167 192 0
169 194 0
169 194 0
169 194 0
168 193 0
169 195 0
169 194 0
167 193 0
169 194 0
167 192 0
168 194 0
167 193 0
167 193 0
167 192 0
168 193 0
168 193 0
168 194 0
169 194 0
168 193 0
168 193 0
167 192 0
168 193 0
167 193 0
168 193 0
166 191 0
169 194 0
166 192 0
167 193 0
164 190 0
164 190 0
163 189 0
163 189 0
165 191 0
167 192 0
166 191 0
165 190 0
162 188 0
166 191 0
166 192 0
165 191 0
160 185 0
163 188 0
164 189 0
164 189 0
162 187 0
164 189 0
167 192 0
161 186 0
163 188 0
159 184 0
163 187 0
165 190 0
164 189 0
163 187 0
159 184 0
162 186 0
160 185 0
167 192 0
164 188 0
163 187 0
160 184 0
167 192 0
156 180 0
163 187 0
162 186 0
164 188 0
155 179 0
160 184 0
158 183 0
156 180 0
160 184 0
151 175 0
157 181 0
161 185 0
157 181 0
160 183 0
154 177 0
152 175 0
150 174 0
154 178 0
157 181 0
146 169 0
156 180 0
152 176 0
154 178 0
156 180 0
149 173 0
152 176 0
154 178 0
144 168 0
147 170 0
154 178 0
146 170 0
148 171 0
142 166 0
149 173 0
147 170 0
140 162 0
141 165 0
148 171 0
142 166 0
142 166 0
134 157 0
138 161 0
139 162 0
136 159 0
138 160 0
136 159 0
142 165 0
137 160 0
144 167 0
146 169 0
145 168 0
135 157 0
134 157 0
129 151 0
125 148 0
124 146 0
132 154 0
123 144 0
132 154 0
128 150 0
129 151 0
117 139 0
115 136 0
123 145 0
124 145 0
121 142 0
126 148 0
123 145 0
122 143 0
119 140 0
113 133 0
120 142 0
109 130 0
109 131 0
101 122 0
106 125 0
106 126 0
111 132 0
106 127 0
116 136 0
107 127 0
102 122 0
109 128 0
89 109 0
116 135 0
105 123 0
93 112 0
93 112 0
100 119 0
95 114 0
94 112 0
80 98 0
93 110 0
95 114 0
102 121 0
96 114 0
99 116 0
90 108 0
96 115 0
85 102 0
99 118 0
101 118 0
93 110 0
87 106 0
77 95 0
92 109 0
104 121 0
86 104 0
91 109 0
90 108 0
87 104 0
82 98 0
94 112 0
87 105 0
83 100 0
90 107 0
91 108 0
90 108 0
85 101 0
94 111 0
78 94 0
71 88 0
94 111 0
89 106 0
96 114 0
83 101 0
86 105 0
87 103 0
98 117 0
93 110 0
81 98 0
98 116 0
95 111 0
103 121 0
89 108 0
96 114 0
90 107 0
98 115 0
90 108 0
103 120 0
104 123 0
94 112 0
99 115 0
98 118 0
115 134 0
95 113 0
92 110 0
115 133 0
104 123 0
109 127 0
108 125 0
106 125 0
104 121 0
111 130 0
111 127 0
107 125 0
119 138 0
106 125 0
115 132 0
115 134 0
103 121 0
117 136 0
122 140 0
115 132 0
121 139 0
108 127 0
110 129 0
114 131 0
113 130 0
112 131 0
121 137 0
128 144 0
130 147 0
113 130 0
121 138 0
119 137 0
129 147 0
112 126 0
134 151 0
121 138 0
122 138 0
130 149 0
119 134 0
129 147 0
124 139 0
127 143 0
121 135 0
126 142 0
129 148 0
135 150 0
130 147 0
131 147 0
130 145 0
137 153 0
132 146 0
138 156 0
137 154 0
131 148 0
132 146 0
131 147 0
130 144 0
138 152 0
138 151 0
139 155 0
136 149 0
138 152 0
136 147 0
137 152 0
137 150 0
139 153 0
137 150 0
135 149 0
128 143 0
141 153 0
133 145 0
134 147 0
136 144 0
135 146 0
135 147 0
135 144 0
133 143 0
137 148 0
133 144 0
141 146 0
137 149 0
133 141 0
135 141 0
135 144 0
142 147 0
146 155 0
141 151 0
131 139 0
136 144 0
144 151 0
148 154 0
134 141 0
146 151 0
141 149 0
144 150 0
145 153 0
143 147 0
143 145 0
139 143 0
139 144 0
138 141 0
146 148 0
142 145 0
144 150 0
146 148 0
145 146 0
142 146 0
140 146 0
140 141 0
144 148 0
147 148 0
142 143 0
139 142 0
141 140 0
144 144 0
145 146 0
145 143 0
144 149 0
147 145 0
141 140 0
148 151 0
144 142 0
141 143 0
144 144 0
138 137 0
145 143 0
145 144 0
143 142 0
145 145 0
145 145 0
146 144 0
147 148 0
146 146 0
150 150 0
148 148 0
147 147 0
146 146 0
146 145 0
149 149 0
152 155 0
151 151 0
150 154 0
147 146 0
146 147 0
149 151 0
153 154 0
154 157 0
150 153 0
148 151 0
152 155 0
154 158 0
150 149 0
155 161 0
158 163 0
155 160 0
156 164 0
156 160 0
155 160 0
154 160 0
158 166 0
157 163 0
161 166 0
159 168 0
161 172 0
157 164 0
158 167 0
162 169 0
157 163 0
171 195 0
171 195 0
170 195 0
171 195 0
172 196 0
171 196 0
171 196 0
170 195 0
169 194 0
170 195 0
170 195 0
169 194 0
172 196 0
169 194 0
168 193 0
171 196 0
170 195 0
170 195 0
169 194 0
170 196 0
169 195 0
170 195 0
168 194 0
168 194 0
168 193 0
169 195 0
169 195 0
167 193 0
169 194 0
169 194 0
169 194 0
167 193 0
168 193 0
170 195 0
165 190 0
169 194 0
167 193 0
169 194 0
167 192 0
166 192 0
169 195 0
168 194 0
168 193 0
166 191 0
166 192 0
166 192 0
167 192 0
167 193 0
169 194 0
165 191 0
168 193 0
168 193 0
165 190 0
167 192 0
165 191 0
169 194 0
170 195 0
163 189 0
165 190 0
169 194 0
163 188 0
166 192 0
168 193 0
168 193 0
166 191 0
165 190 0
165 190 0
164 190 0
163 187 0
163 187 0
165 189 0
167 192 0
162 186 0
159 184 0
162 187 0
164 188 0
163 188 0
165 190 0
164 188 0
164 189 0
164 188 0
166 190 0
162 187 0
165 190 0
161 186 0
161 185 0
160 184 0
157 181 0
162 187 0
163 187 0
156 180 0
155 179 0
165 190 0
159 183 0
160 185 0
159 183 0
163 187 0
161 185 0
160 184 0
155 179 0
153 177 0
161 186 0
156 180 0
153 177 0
151 174 0
152 175 0
148 172 0
157 181 0
153 177 0
154 178 0
155 178 0
149 172 0
148 172 0
150 173 0
142 166 0
149 173 0
138 162 0
146 170 0
148 170 0
142 166 0
142 165 0
152 176 0
146 169 0
135 159 0
140 164 0
150 173 0
147 170 0
148 171 0
142 165 0
137 160 0
140 162 0
140 162 0
143 165 0
146 169 0
129 151 0
139 162 0
136 159 0
137 160 0
140 162 0
130 153 0
130 152 0
135 157 0
134 157 0
118 139 0
126 149 0
140 162 0
137 158 0
138 159 0
122 143 0
124 145 0
118 138 0
123 143 0
116 138 0
135 156 0
129 151 0
114 134 0
123 145 0
121 142 0
118 138 0
118 139 0
122 141 0
113 135 0
101 122 0
100 120 0
116 137 0
110 131 0
113 134 0
123 144 0
111 131 0
110 130 0
115 135 0
101 121 0
108 129 0
100 118 0
111 130 0
107 125 0
93 112 0
95 115 0
94 114 0
90 109 0
97 115 0
99 118 0
92 110 0
92 110 0
99 118 0
98 116 0
93 112 0
93 112 0
90 108 0
94 112 0
87 106 0
79 97 0
90 107 0
97 115 0
99 117 0
84 104 0
78 94 0
86 104 0
102 121 0
91 110 0
90 108 0
94 112 0
74 90 0
96 114 0
87 104 0
100 117 0
88 106 0
88 106 0
94 111 0
97 114 0
94 112 0
93 110 0
95 113 0
86 103 0
85 101 0
90 108 0
84 100 0
99 118 0
90 108 0
95 113 0
103 121 0
105 121 0
93 112 0
99 116 0
100 120 0
92 109 0
91 110 0
107 126 0
97 116 0
106 125 0
107 123 0
104 120 0
93 111 0
105 122 0
116 135 0
112 130 0
105 121 0
95 113 0
123 143 0
107 124 0
108 126 0
114 135 0
114 133 0
110 128 0
102 122 0
115 133 0
112 130 0
113 131 0
110 127 0
120 139 0
110 128 0
113 133 0
120 139 0
120 137 0
116 134 0
124 142 0
128 147 0
123 141 0
117 135 0
121 137 0
129 149 0
132 151 0
115 132 0
114 132 0
112 128 0
120 139 0
122 139 0
129 145 0
122 141 0
121 138 0
112 125 0
136 153 0
124 140 0
127 143 0
122 139 0
126 142 0
117 133 0
132 148 0
135 152 0
122 138 0
137 152 0
134 151 0
125 140 0
131 149 0
138 154 0
140 156 0
122 135 0
137 152 0
132 147 0
131 146 0
132 145 0
127 143 0
134 149 0
135 148 0
135 151 0
131 148 0
134 148 0
144 159 0
141 154 0
129 143 0
139 154 0
141 155 0
137 151 0
137 147 0
142 155 0
142 152 0
142 152 0
134 144 0
138 153 0
136 148 0
140 153 0
138 149 0
140 151 0
135 141 0
138 145 0
143 155 0
143 151 0
148 157 0
142 154 0
147 155 0
141 148 0
140 144 0
138 144 0
141 147 0
140 148 0
144 150 0
137 140 0
141 146 0
149 155 0
144 150 0
141 147 0
133 137 0
137 142 0
144 147 0
144 148 0
142 147 0
142 148 0
134 136 0
142 143 0
147 148 0
140 140 0
145 150 0
141 145 0
146 147 0
145 148 0
147 150 0
144 144 0
146 151 0
147 151 0
150 148 0
142 144 0
140 139 0
148 146 0
147 148 0
146 145 0
143 142 0
148 152 0
152 153 0
143 145 0
146 146 0
151 154 0
145 145 0
143 147 0
145 145 0
147 148 0
148 148 0
147 148 0
143 142 0
149 150 0
149 150 0
147 147 0
146 145 0
150 151 0
156 159 0
150 149 0
148 149 0
152 153 0
148 151 0
153 156 0
150 155 0
151 152 0
151 155 0
150 153 0
156 160 0
157 162 0
153 156 0
153 154 0
157 160 0
154 158 0
157 164 0
154 158 0
157 163 0
151 155 0
153 156 0
155 159 0
160 168 0
155 163 0
155 162 0
158 168 0
161 174 0
172 196 0
171 195 0
170 195 0
172 196 0
172 196 0
170 195 0
171 196 0
169 194 0
171 196 0
170 195 0
170 195 0
170 195 0
170 195 0
170 195 0
170 195 0
170 195 0
171 196 0
169 194 0
168 193 0
170 195 0
169 194 0
167 193 0
169 194 0
167 192 0
168 193 0
169 195 0
169 194 0
169 194 0
166 192 0
167 193 0
168 194 0
167 193 0
170 195 0
169 194 0
169 194 0
167 193 0
168 193 0
168 194 0
169 194 0
167 193 0
169 194 0
168 194 0
170 195 0
167 192 0
168 193 0
168 193 0
168 193 0
167 192 0
166 191 0
167 192 0
164 189 0
166 191 0
168 194 0
165 191 0
166 191 0
168 193 0
167 192 0
168 193 0
167 192 0
169 193 0
168 192 0
166 190 0
165 190 0
165 190 0
167 193 0
163 188 0
167 192 0
164 189 0
165 190 0
163 188 0
166 191 0
162 186 0
162 186 0
164 189 0
165 190 0
166 191 0
165 190 0
165 190 0
157 181 0
164 189 0
157 182 0
157 182 0
161 186 0
160 184 0
158 183 0
162 186 0
165 190 0
158 182 0
158 182 0
162 186 0
161 184 0
158 182 0
158 182 0
161 185 0
155 179 0
158 182 0
158 181 0
160 183 0
162 186 0
158 183 0
157 181 0
155 179 0
152 177 0
156 180 0
154 177 0
156 180 0
148 172 0
154 177 0
152 175 0
151 175 0
154 178 0
145 168 0
153 177 0
151 175 0
146 170 0
146 169 0
146 167 0
145 169 0
148 171 0
151 175 0
148 171 0
145 168 0
150 173 0
145 168 0
144 167 0
151 174 0
139 162 0
145 168 0
143 167 0
135 158 0
139 161 0
140 163 0
148 171 0
142 165 0
136 158 0
134 156 0
135 158 0
133 155 0
135 157 0
129 152 0
129 151 0
140 163 0
129 150 0
126 147 0
120 141 0
140 163 0
128 151 0
126 148 0
131 151 0
130 151 0
122 143 0
132 153 0
123 146 0
136 158 0
126 148 0
118 140 0
117 139 0
124 145 0
107 129 0
122 143 0
118 139 0
113 134 0
106 126 0
109 130 0
125 146 0
112 132 0
111 131 0
117 136 0
107 128 0
106 127 0
112 133 0
112 133 0
111 130 0
105 126 0
106 126 0
98 117 0
97 117 0
99 118 0
99 119 0
99 119 0
75 94 0
106 126 0
100 119 0
96 115 0
91 111 0
100 119 0
105 123 0
104 123 0
99 119 0
106 124 0
101 119 0
95 113 0
101 118 0
92 111 0
95 114 0
88 106 0
93 110 0
99 118 0
96 114 0
98 115 0
91 109 0
90 107 0
78 96 0
99 119 0
83 100 0
94 112 0
81 98 0
85 103 0
105 123 0
100 119 0
97 115 0
93 112 0
85 104 0
104 123 0
96 115 0
84 101 0
86 105 0
108 126 0
100 118 0
101 119 0
99 117 0
112 130 0
96 116 0
95 114 0
100 119 0
96 115 0
100 119 0
96 113 0
98 116 0
106 124 0
112 130 0
105 126 0
109 130 0
107 124 0
109 128 0
100 119 0
112 131 0
113 133 0
105 124 0
113 132 0
107 126 0
111 129 0
105 125 0
110 128 0
118 138 0
109 127 0
120 139 0
110 130 0
112 129 0
124 144 0
120 140 0
125 145 0
112 131 0
116 136 0
113 132 0
124 144 0
112 131 0
116 134 0
117 137 0
121 139 0
124 144 0
120 140 0
128 147 0
127 145 0
126 144 0
116 134 0
128 149 0
128 147 0
134 153 0
122 142 0
129 148 0
133 152 0
133 151 0
129 146 0
127 143 0
131 148 0
135 150 0
132 151 0
128 145 0
132 148 0
129 148 0
133 151 0
130 147 0
141 159 0
118 136 0
131 147 0
130 146 0
133 148 0
141 156 0
142 158 0
137 151 0
131 147 0
139 154 0
136 151 0
137 154 0
136 150 0
138 152 0
138 151 0
135 150 0
139 154 0
136 149 0
134 147 0
139 154 0
139 152 0
140 151 0
140 152 0
142 154 0
138 151 0
147 159 0
142 153 0
139 154 0
147 159 0
138 150 0
142 152 0
135 145 0
150 160 0
141 153 0
141 147 0
143 150 0
142 151 0
137 145 0
137 143 0
140 146 0
145 153 0
142 150 0
143 148 0
146 153 0
142 148 0
139 146 0
142 150 0
147 153 0
145 152 0
141 148 0
138 141 0
145 151 0
147 154 0
144 149 0
138 142 0
141 143 0
141 146 0
145 148 0
148 153 0
140 143 0
144 148 0
146 149 0
149 155 0
146 147 0
152 156 0
149 154 0
153 153 0
146 149 0
143 144 0
149 149 0
146 147 0
142 142 0
147 148 0
143 144 0
149 152 0
147 148 0
147 149 0
146 148 0
150 152 0
145 144 0
148 149 0
138 136 0
152 157 0
151 151 0
148 147 0
151 150 0
146 145 0
147 146 0
149 150 0
149 152 0
147 147 0
151 153 0
148 150 0
152 152 0
150 152 0
152 155 0
151 153 0
154 155 0
155 160 0
151 156 0
152 158 0
153 159 0
152 156 0
156 160 0
156 163 0
160 166 0
156 160 0
153 154 0
156 163 0
153 154 0
154 160 0
160 166 0
155 164 0
162 172 0
155 162 0
159 169 0
157 164 0
170 195 0
170 195 0
171 196 0
170 195 0
169 195 0
171 195 0
170 195 0
171 195 0
171 196 0
169 194 0
170 195 0
171 195 0
167 192 0
170 194 0
169 194 0
169 195 0
169 194 0
170 195 0
169 194 0
169 194 0
170 195 0
169 194 0
172 196 0
169 194 0
170 195 0
167 192 0
167 192 0
169 194 0
169 194 0
169 194 0
169 195 0
169 195 0
168 193 0
167 193 0
168 193 0
169 194 0
169 194 0
169 194 0
170 195 0
168 194 0
165 190 0
168 193 0
170 195 0
168 193 0
167 192 0
168 194 0
167 192 0
169 194 0
166 192 0
169 194 0
167 192 0
164 189 0
165 191 0
167 192 0
166 191 0
163 188 0
166 190 0
165 190 0
168 193 0
162 187 0
166 191 0
164 189 0
161 186 0
165 191 0
164 188 0
167 191 0
162 187 0
160 185 0
165 190 0
163 187 0
162 186 0
162 186 0
162 187 0
161 185 0
165 189 0
161 186 0
163 188 0
159 182 0
160 185 0
161 185 0
161 185 0
165 190 0
158 183 0
158 183 0
165 189 0
156 180 0
164 188 0
159 183 0
155 179 0
160 184 0
159 183 0
159 183 0
158 182 0
163 188 0
155 179 0
158 182 0
160 184 0
161 185 0
155 178 0
159 183 0
157 181 0
152 175 0
152 176 0
154 178 0
154 178 0
141 164 0
155 179 0
150 174 0
151 174 0
149 173 0
150 174 0
159 183 0
145 168 0
150 173 0
148 171 0
146 170 0
148 171 0
146 169 0
152 174 0
146 168 0
154 178 0
151 175 0
156 179 0
149 173 0
133 155 0
142 165 0
136 159 0
148 172 0
150 173 0
141 164 0
139 162 0
144 166 0
141 165 0
137 160 0
145 168 0
143 166 0
134 156 0
129 151 0
143 165 0
135 158 0
132 155 0
132 154 0
129 151 0
133 156 0
134 156 0
135 158 0
130 153 0
130 152 0
121 144 0
130 151 0
123 145 0
127 149 0
123 144 0
118 141 0
133 154 0
117 140 0
102 123 0
112 133 0
124 145 0
124 146 0
113 134 0
110 131 0
115 136 0
99 120 0
113 134 0
109 129 0
106 127 0
124 145 0
109 130 0
118 138 0
111 132 0
111 132 0
109 130 0
115 135 0
100 120 0
117 138 0
103 123 0
100 120 0
106 126 0
91 110 0
95 113 0
104 124 0
107 127 0
104 123 0
93 113 0
104 123 0
102 121 0
85 105 0
89 108 0
83 103 0
96 114 0
86 106 0
96 115 0
103 121 0
82 101 0
95 113 0
91 109 0
100 118 0
88 105 0
90 109 0
98 115 0
87 104 0
95 114 0
94 113 0
91 110 0
95 115 0
95 114 0
94 113 0
97 114 0
92 111 0
102 121 0
85 103 0
106 125 0
96 116 0
97 114 0
105 125 0
97 115 0
99 118 0
116 134 0
79 98 0
98 117 0
91 110 0
99 117 0
102 120 0
93 112 0
90 108 0
107 126 0
102 120 0
104 123 0
107 125 0
103 122 0
105 125 0
102 121 0
107 124 0
106 125 0
106 126 0
109 130 0
111 131 0
109 128 0
111 130 0
112 132 0
106 124 0
109 128 0
109 125 0
121 141 0
110 127 0
113 133 0
119 138 0
113 131 0
107 125 0
127 145 0
110 128 0
116 136 0
124 143 0
123 140 0
121 140 0
117 136 0
120 137 0
122 139 0
127 147 0
122 140 0
120 138 0
122 141 0
121 138 0
132 151 0
124 144 0
119 137 0
131 149 0
141 161 0
128 146 0
122 137 0
124 141 0
129 148 0
123 141 0
137 156 0
130 150 0
131 147 0
124 140 0
133 150 0
134 153 0
130 146 0
130 147 0
128 145 0
137 153 0
137 154 0
131 146 0
136 152 0
140 154 0
134 148 0
136 152 0
130 144 0
129 143 0
142 158 0
136 151 0
136 151 0
143 159 0
141 157 0
143 158 0
138 152 0
140 154 0
137 151 0
140 154 0
134 145 0
138 151 0
141 154 0
141 154 0
142 155 0
141 153 0
137 149 0
143 158 0
144 155 0
134 148 0
144 154 0
138 149 0
137 149 0
144 155 0
139 152 0
144 155 0
144 153 0
147 157 0
142 150 0
141 155 0
134 144 0
144 155 0
133 140 0
138 145 0
144 152 0
141 150 0
145 153 0
145 149 0
141 145 0
144 150 0
149 153 0
146 154 0
148 152 0
144 149 0
140 145 0
147 149 0
148 154 0
144 145 0
145 150 0
146 149 0
148 154 0
150 151 0
148 152 0
145 149 0
148 153 0
148 153 0
142 143 0
146 152 0
148 151 0
143 146 0
141 140 0
148 149 0
146 149 0
151 155 0
146 144 0
144 146 0
151 152 0
149 149 0
148 149 0
146 148 0
147 149 0
156 160 0
150 154 0
157 159 0
148 151 0
144 144 0
148 151 0
145 142 0
143 143 0
150 151 0
154 158 0
148 147 0
148 151 0
147 149 0
151 154 0
154 155 0
150 150 0
153 156 0
150 151 0
155 158 0
154 156 0
158 160 0
156 161 0
158 165 0
154 159 0
155 161 0
152 160 0
155 161 0
154 158 0
154 162 0
157 164 0
152 155 0
155 158 0
161 169 0
156 164 0
155 162 0
161 165 0
158 165 0
170 195 0
171 196 0
171 195 0
169 194 0
169 193 0
171 196 0
169 194 0
170 195 0
170 195 0
170 195 0
170 195 0
169 194 0
171 196 0
170 195 0
169 194 0
170 195 0
170 195 0
170 195 0
168 193 0
169 195 0
170 195 0
169 195 0
170 195 0
170 195 0
169 194 0
169 195 0
168 193 0
169 194 0
169 194 0
170 195 0
168 193 0
169 194 0
167 193 0
167 192 0
169 194 0
167 193 0
167 193 0
170 195 0
170 195 0
167 193 0
168 193 0
167 193 0
169 194 0
167 192 0
168 193 0
169 194 0
165 190 0
170 195 0
166 191 0
166 191 0
165 190 0
166 191 0
163 188 0
168 192 0
167 192 0
168 192 0
165 190 0
167 193 0
161 185 0
167 192 0
164 189 0
163 188 0
165 190 0
163 187 0
166 190 0
160 185 0
168 192 0
162 188 0
162 187 0
167 192 0
163 187 0
157 181 0
166 191 0
167 191 0
159 184 0
162 186 0
156 181 0
164 188 0
162 187 0
163 187 0
160 185 0
161 185 0
163 188 0
163 187 0
156 180 0
162 186 0
161 185 0
162 186 0
158 182 0
158 183 0
156 180 0
158 182 0
159 184 0
158 182 0
155 179 0
153 177 0
155 179 0
153 176 0
159 183 0
161 185 0
154 178 0
156 180 0
155 179 0
160 184 0
154 177 0
153 177 0
155 179 0
154 178 0
151 175 0
142 166 0
152 175 0
152 175 0
152 175 0
152 176 0
151 173 0
154 177 0
146 170 0
155 178 0
154 177 0
146 169 0
143 167 0
153 176 0
140 163 0
146 169 0
144 166 0
140 164 0
144 168 0
146 168 0
138 161 0
143 165 0
137 160 0
140 162 0
136 159 0
143 165 0
141 163 0
136 158 0
139 163 0
138 161 0
136 159 0
133 155 0
131 153 0
136 158 0
119 141 0
126 147 0
128 151 0
133 155 0
129 151 0
122 144 0
137 158 0
124 146 0
129 151 0
137 159 0
133 154 0
120 142 0
126 147 0
120 142 0
122 144 0
128 149 0
116 138 0
126 149 0
113 135 0
119 140 0
120 141 0
108 129 0
118 140 0
100 120 0
120 141 0
110 131 0
108 129 0
117 139 0
110 131 0
105 126 0
112 132 0
106 127 0
109 129 0
109 130 0
107 127 0
120 140 0
100 119 0
105 126 0
108 128 0
104 123 0
95 114 0
107 127 0
95 115 0
99 119 0
104 123 0
112 133 0
86 106 0
96 116 0
92 111 0
93 112 0
103 122 0
98 118 0
95 114 0
93 112 0
96 114 0
102 121 0
101 121 0
84 104 0
92 111 0
90 108 0
99 118 0
105 124 0
90 110 0
95 115 0
90 110 0
102 121 0
103 121 0
96 115 0
114 133 0
91 109 0
98 115 0
96 115 0
92 112 0
102 120 0
101 119 0
98 117 0
93 111 0
102 122 0
101 118 0
103 122 0
99 118 0
101 120 0
108 128 0
109 129 0
111 131 0
115 135 0
93 113 0
99 118 0
112 132 0
114 135 0
111 130 0
110 130 0
119 137 0
102 121 0
112 132 0
113 132 0
119 139 0
118 138 0
105 124 0
105 124 0
107 124 0
114 134 0
117 135 0
114 133 0
119 139 0
118 136 0
116 137 0
114 132 0
116 137 0
122 142 0
119 139 0
119 139 0
122 142 0
117 137 0
120 137 0
129 146 0
125 142 0
126 144 0
121 139 0
133 152 0
123 141 0
135 155 0
109 130 0
120 135 0
125 143 0
122 141 0
124 143 0
119 138 0
124 142 0
124 141 0
131 150 0
134 153 0
129 150 0
134 153 0
128 146 0
133 150 0
126 142 0
129 146 0
122 142 0
138 153 0
139 156 0
133 152 0
138 154 0
134 150 0
129 146 0
137 154 0
137 156 0
139 155 0
132 150 0
132 151 0
138 154 0
141 159 0
133 151 0
141 158 0
129 144 0
138 155 0
144 158 0
140 155 0
140 155 0
134 148 0
143 158 0
127 142 0
139 152 0
139 151 0
145 158 0
134 148 0
142 154 0
138 151 0
145 159 0
142 155 0
147 161 0
135 147 0
141 150 0
138 148 0
143 155 0
148 161 0
137 148 0
142 152 0
136 148 0
144 153 0
141 150 0
143 152 0
147 157 0
139 148 0
140 147 0
142 149 0
147 157 0
140 149 0
142 149 0
152 161 0
150 159 0
141 148 0
144 150 0
143 149 0
147 152 0
146 150 0
149 153 0
148 156 0
141 143 0
147 153 0
151 156 0
151 156 0
143 148 0
146 150 0
146 147 0
147 152 0
145 146 0
147 149 0
145 149 0
146 147 0
144 145 0
148 148 0
145 150 0
147 150 0
152 157 0
149 152 0
150 151 0
149 152 0
155 160 0
153 163 0
150 152 0
154 157 0
144 142 0
150 155 0
148 149 0
149 152 0
152 154 0
150 154 0
151 153 0
153 155 0
151 153 0
151 154 0
149 155 0
152 153 0
151 152 0
152 156 0
152 155 0
149 154 0
151 154 0
149 150 0
152 154 0
154 156 0
150 156 0
152 155 0
154 160 0
154 160 0
155 160 0
154 159 0
157 161 0
155 159 0
157 163 0
156 163 0
153 161 0
159 166 0
156 165 0
157 164 0
158 164 0
160 170 0
170 195 0
171 195 0
170 195 0
169 194 0
170 195 0
170 195 0
171 195 0
170 195 0
170 195 0
169 194 0
171 196 0
170 195 0
170 195 0
170 195 0
170 195 0
170 195 0
170 195 0
169 195 0
169 195 0
168 193 0
170 195 0
167 192 0
169 194 0
169 194 0
168 193 0
168 193 0
169 195 0
167 192 0
169 195 0
169 194 0
170 195 0
168 193 0
169 193 0
169 194 0
168 193 0
166 191 0
169 194 0
169 194 0
169 194 0
167 192 0
167 192 0
169 194 0
169 194 0
170 195 0
169 194 0
165 191 0
167 192 0
167 192 0
165 190 0
169 194 0
166 191 0
169 194 0
164 189 0
167 192 0
170 195 0
165 190 0
167 192 0
167 192 0
164 189 0
166 192 0
166 191 0
166 190 0
169 194 0
164 189 0
165 190 0
163 187 0
163 188 0
164 189 0
162 186 0
162 186 0
162 186 0
164 188 0
161 185 0
163 188 0
164 189 0
165 190 0
159 183 0
162 186 0
160 184 0
161 185 0
167 192 0
163 187 0
161 185 0
165 189 0
163 187 0
153 178 0
158 183 0
159 183 0
162 187 0
157 181 0
157 182 0
159 182 0
160 184 0
158 182 0
160 183 0
153 176 0
152 175 0
163 187 0
149 173 0
156 181 0
150 174 0
151 175 0
155 180 0
156 179 0
158 181 0
159 184 0
149 172 0
153 177 0
151 174 0
148 173 0
158 182 0
147 171 0
151 175 0
149 172 0
149 172 0
154 178 0
147 170 0
150 174 0
145 168 0
156 180 0
155 178 0
142 166 0
148 172 0
150 173 0
142 165 0
132 156 0
144 167 0
139 162 0
145 167 0
137 161 0
144 167 0
135 159 0
147 170 0
131 154 0
133 155 0
131 153 0
139 162 0
142 165 0
147 170 0
135 157 0
133 155 0
144 166 0
130 153 0
137 159 0
135 158 0
133 156 0
133 155 0
131 152 0
130 152 0
136 157 0
121 143 0
112 134 0
135 157 0
114 135 0
127 150 0
126 149 0
127 148 0
123 144 0
130 152 0
121 142 0
120 140 0
125 145 0
108 130 0
123 145 0
120 142 0
115 136 0
111 132 0
122 143 0
108 129 0
107 127 0
112 132 0
112 133 0
119 139 0
110 130 0
112 131 0
108 128 0
103 123 0
108 129 0
110 129 0
105 126 0
93 114 0
104 123 0
108 128 0
108 127 0
104 124 0
113 133 0
98 117 0
102 122 0
90 110 0
105 125 0
109 129 0
92 111 0
92 111 0
95 113 0
99 119 0
94 113 0
108 127 0
87 105 0
90 108 0
97 116 0
98 116 0
87 106 0
94 114 0
106 127 0
92 111 0
110 129 0
99 118 0
100 119 0
105 125 0
100 119 0
103 123 0
99 117 0
113 133 0
115 134 0
108 128 0
99 118 0
91 111 0
98 116 0
98 116 0
109 128 0
102 122 0
104 124 0
102 121 0
109 126 0
108 128 0
108 128 0
108 128 0
106 124 0
113 132 0
112 131 0
101 120 0
106 125 0
110 130 0
110 129 0
110 129 0
118 136 0
108 128 0
111 130 0
113 133 0
116 135 0
120 140 0
110 129 0
124 145 0
104 123 0
116 136 0
119 139 0
119 138 0
118 139 0
126 147 0
124 146 0
121 141 0
124 144 0
123 142 0
117 134 0
125 143 0
122 142 0
118 136 0
129 147 0
121 142 0
124 144 0
124 143 0
125 145 0
121 140 0
131 150 0
122 140 0
132 151 0
135 155 0
135 156 0
130 151 0
138 158 0
134 154 0
137 156 0
124 143 0
134 153 0
132 152 0
129 145 0
127 146 0
131 148 0
137 155 0
135 153 0
131 150 0
136 152 0
136 154 0
138 155 0
129 147 0
137 158 0
134 151 0
135 152 0
140 159 0
138 154 0
144 164 0
128 145 0
140 158 0
132 147 0
140 156 0
140 157 0
142 160 0
136 152 0
140 155 0
143 158 0
136 150 0
132 147 0
136 153 0
140 153 0
138 154 0
141 157 0
142 157 0
146 158 0
138 150 0
137 151 0
140 154 0
145 158 0
138 147 0
139 149 0
136 148 0
144 154 0
142 153 0
148 158 0
143 155 0
144 155 0
140 149 0
140 152 0
141 150 0
144 153 0
148 161 0
142 150 0
146 155 0
143 152 0
141 149 0
147 155 0
140 149 0
139 143 0
140 151 0
139 144 0
143 150 0
141 148 0
146 158 0
141 145 0
154 161 0
144 151 0
152 159 0
148 154 0
152 157 0
149 152 0
152 157 0
144 148 0
150 155 0
145 149 0
150 158 0
148 151 0
152 157 0
143 144 0
141 143 0
143 149 0
147 154 0
146 150 0
151 155 0
149 152 0
150 152 0
148 151 0
145 147 0
149 151 0
145 148 0
152 155 0
150 153 0
155 160 0
153 156 0
152 155 0
152 157 0
150 154 0
151 154 0
149 153 0
154 159 0
153 160 0
153 157 0
152 154 0
153 156 0
150 153 0
150 153 0
158 164 0
153 156 0
155 159 0
153 159 0
153 155 0
154 158 0
154 160 0
152 154 0
152 155 0
153 156 0
153 157 0
155 159 0
157 164 0
154 158 0
154 158 0
157 164 0
154 160 0
152 156 0
159 167 0
157 162 0
155 159 0
171 195 0
171 195 0
170 194 0
171 195 0
170 195 0
169 194 0
171 196 0
168 193 0
171 196 0
170 194 0
170 195 0
168 193 0
170 195 0
169 194 0
171 195 0
169 193 0
169 194 0
167 193 0
170 195 0
170 194 0
169 194 0
168 194 0
169 193 0
170 195 0
169 194 0
167 191 0
167 192 0
166 192 0
168 193 0
168 193 0
167 192 0
168 193 0
168 193 0
170 194 0
168 193 0
170 195 0
167 192 0
170 195 0
168 192 0
167 193 0
168 193 0
168 192 0
166 191 0
165 190 0
167 192 0
165 190 0
167 192 0
168 193 0
170 195 0
169 194 0
170 195 0
168 193 0
171 195 0
164 189 0
164 189 0
168 193 0
166 190 0
166 190 0
164 189 0
168 193 0
169 194 0
170 195 0
164 189 0
166 191 0
166 191 0
163 187 0
163 188 0
166 190 0
165 189 0
164 188 0
158 182 0
164 189 0
165 189 0
164 188 0
157 181 0
158 183 0
168 192 0
164 188 0
165 189 0
163 187 0
164 188 0
161 186 0
164 188 0
162 187 0
157 181 0
160 184 0
161 185 0
155 178 0
159 183 0
157 180 0
161 186 0
156 180 0
159 182 0
156 180 0
156 181 0
159 183 0
155 179 0
156 180 0
156 180 0
150 174 0
154 178 0
151 175 0
155 179 0
155 179 0
151 175 0
158 182 0
156 180 0
148 171 0
158 182 0
148 172 0
153 177 0
152 176 0
154 177 0
150 173 0
153 176 0
154 178 0
152 175 0
150 172 0
146 169 0
151 174 0
148 172 0
149 173 0
143 166 0
151 175 0
140 163 0
142 166 0
147 170 0
151 174 0
141 164 0
137 160 0
142 164 0
140 162 0
142 165 0
135 158 0
142 165 0
135 158 0
131 154 0
137 160 0
138 161 0
142 164 0
142 164 0
134 156 0
133 156 0
129 152 0
131 155 0
131 154 0
140 163 0
132 155 0
128 149 0
129 151 0
126 148 0
123 146 0
134 156 0
125 147 0
125 147 0
122 144 0
122 143 0
121 142 0
123 144 0
123 144 0
123 144 0
122 143 0
114 136 0
124 146 0
123 146 0
120 142 0
123 144 0
121 143 0
112 133 0
111 132 0
106 127 0
105 125 0
108 128 0
112 132 0
110 131 0
120 142 0
109 130 0
105 125 0
101 122 0
104 124 0
107 128 0
102 123 0
106 126 0
120 140 0
110 129 0
112 132 0
101 121 0
101 121 0
108 128 0
107 126 0
100 119 0
97 116 0
103 123 0
102 123 0
102 123 0
97 116 0
95 115 0
113 132 0
100 119 0
98 118 0
99 118 0
89 108 0
97 116 0
104 123 0
96 116 0
101 119 0
110 129 0
100 120 0
108 127 0
94 113 0
105 126 0
103 122 0
104 122 0
111 131 0
103 123 0
103 122 0
101 120 0
103 121 0
107 126 0
102 122 0
110 129 0
96 115 0
114 134 0
104 124 0
108 128 0
108 127 0
120 140 0
92 110 0
120 140 0
112 132 0
116 136 0
112 133 0
101 119 0
114 135 0
104 124 0
110 130 0
111 130 0
114 134 0
114 132 0
108 124 0
119 140 0
112 133 0
108 126 0
120 141 0
114 133 0
118 136 0
117 137 0
110 130 0
114 134 0
123 141 0
119 138 0
118 139 0
121 141 0
118 137 0
129 150 0
124 145 0
122 142 0
119 138 0
117 135 0
120 140 0
121 140 0
119 137 0
122 141 0
115 135 0
121 141 0
118 137 0
131 151 0
128 148 0
126 144 0
127 146 0
127 146 0
130 149 0
141 159 0
118 135 0
130 147 0
145 165 0
135 155 0
129 147 0
131 148 0
134 150 0
127 146 0
126 145 0
135 154 0
140 160 0
141 154 0
137 156 0
141 159 0
137 156 0
140 158 0
132 149 0
139 156 0
144 160 0
136 154 0
139 155 0
142 157 0
142 158 0
145 162 0
135 152 0
137 154 0
142 157 0
131 149 0
148 164 0
143 155 0
136 150 0
138 153 0
138 150 0
141 156 0
140 154 0
139 153 0
143 158 0
139 151 0
148 161 0
138 152 0
145 156 0
143 156 0
146 157 0
143 154 0
142 157 0
142 153 0
142 153 0
143 154 0
143 154 0
147 159 0
142 153 0
144 156 0
134 141 0
140 151 0
148 158 0
146 154 0
142 149 0
145 153 0
147 154 0
147 156 0
142 150 0
152 164 0
150 158 0
144 153 0
150 159 0
151 159 0
146 152 0
152 159 0
151 159 0
145 152 0
148 155 0
146 152 0
144 149 0
143 150 0
147 152 0
148 152 0
150 154 0
143 150 0
153 157 0
147 150 0
151 155 0
143 147 0
153 157 0
145 152 0
151 156 0
147 152 0
150 153 0
146 152 0
155 164 0
151 154 0
147 149 0
155 161 0
150 155 0
157 162 0
150 151 0
155 160 0
151 154 0
153 157 0
145 146 0
149 152 0
151 155 0
151 156 0
152 158 0
150 155 0
155 158 0
152 155 0
155 159 0
154 156 0
157 164 0
156 160 0
154 157 0
156 165 0
156 163 0
153 157 0
156 158 0
154 160 0
157 162 0
157 166 0
151 155 0
155 160 0
156 162 0
152 157 0
157 165 0
157 164 0
157 161 0
155 159 0
157 165 0
169 194 0
169 194 0
170 195 0
170 195 0
168 194 0
171 196 0
170 195 0
170 195 0
170 195 0
169 194 0
170 194 0
169 194 0
169 194 0
169 194 0
170 195 0
168 192 0
170 195 0
169 194 0
171 195 0
169 194 0
169 194 0
168 194 0
169 194 0
169 194 0
170 195 0
169 193 0
169 194 0
167 192 0
168 193 0
167 192 0
171 195 0
168 193 0
170 195 0
165 190 0
169 194 0
169 194 0
170 195 0
168 193 0
170 195 0
168 193 0
165 190 0
168 193 0
165 190 0
166 191 0
166 191 0
167 192 0
168 193 0
168 193 0
166 191 0
168 193 0
167 192 0
165 190 0
167 192 0
167 192 0
167 192 0
167 192 0
166 190 0
169 194 0
165 189 0
168 192 0
164 188 0
166 190 0
167 192 0
163 187 0
165 190 0
165 189 0
163 188 0
166 190 0
160 184 0
163 187 0
166 190 0
166 191 0
160 185 0
163 188 0
159 183 0
161 185 0
162 186 0
164 189 0
164 188 0
164 188 0
170 194 0
162 187 0
159 183 0
166 190 0
159 183 0
160 183 0
156 179 0
162 186 0
158 182 0
158 181 0
159 183 0
157 180 0
155 179 0
162 186 0
150 174 0
157 181 0
160 184 0
154 178 0
160 184 0
154 178 0
154 177 0
156 181 0
159 184 0
152 177 0
154 178 0
159 183 0
154 178 0
151 175 0
151 174 0
158 182 0
150 174 0
159 182 0
149 172 0
149 172 0
142 165 0
141 165 0
151 173 0
146 169 0
142 166 0
156 179 0
157 181 0
145 168 0
142 166 0
138 161 0
150 173 0
139 162 0
140 163 0
143 166 0
145 169 0
145 168 0
149 172 0
134 157 0
140 164 0
131 155 0
137 160 0
125 148 0
135 158 0
139 162 0
142 164 0
131 154 0
131 154 0
139 162 0
127 150 0
132 154 0
147 170 0
130 153 0
126 147 0
133 155 0
123 144 0
135 157 0
127 149 0
119 141 0
111 133 0
127 148 0
133 155 0
120 142 0
122 143 0
121 142 0
110 131 0
111 132 0
126 148 0
115 137 0
117 140 0
122 143 0
124 147 0
125 147 0
108 129 0
113 134 0
115 135 0
115 136 0
116 137 0
107 127 0
120 142 0
121 143 0
118 139 0
104 125 0
107 128 0
106 127 0
111 132 0
121 141 0
112 132 0
107 127 0
108 129 0
109 130 0
108 129 0
112 134 0
100 121 0
98 117 0
110 130 0
100 120 0
108 127 0
105 124 0
108 128 0
104 124 0
91 110 0
99 118 0
106 125 0
93 114 0
94 115 0
98 117 0
101 121 0
114 134 0
110 131 0
112 132 0
115 134 0
103 124 0
97 117 0
107 127 0
100 120 0
101 119 0
113 134 0
106 124 0
105 125 0
103 122 0
104 123 0
112 131 0
111 131 0
100 120 0
97 117 0
105 124 0
112 131 0
114 134 0
110 129 0
99 120 0
104 125 0
115 137 0
115 134 0
105 125 0
108 127 0
110 129 0
120 140 0
115 135 0
112 131 0
112 133 0
113 133 0
108 128 0
118 138 0
108 128 0
119 140 0
115 134 0
117 137 0
113 134 0
110 129 0
113 133 0
135 154 0
117 136 0
125 145 0
122 142 0
128 150 0
125 146 0
126 145 0
115 135 0
117 137 0
121 142 0
121 139 0
121 141 0
117 137 0
123 144 0
128 149 0
126 147 0
117 134 0
123 141 0
129 150 0
119 140 0
130 151 0
131 150 0
133 150 0
120 137 0
130 150 0
125 144 0
130 149 0
118 139 0
124 144 0
132 152 0
138 158 0
138 157 0
135 155 0
135 153 0
137 154 0
131 150 0
133 151 0
132 151 0
127 147 0
127 144 0
135 155 0
139 156 0
144 163 0
138 157 0
131 148 0
133 151 0
128 144 0
139 160 0
132 148 0
130 145 0
134 151 0
135 148 0
132 149 0
135 152 0
139 156 0
140 156 0
144 160 0
139 154 0
137 156 0
140 157 0
140 158 0
134 149 0
137 151 0
139 152 0
135 150 0
136 148 0
147 162 0
141 154 0
140 155 0
145 161 0
147 162 0
140 155 0
147 159 0
146 156 0
143 157 0
143 153 0
139 156 0
142 154 0
145 156 0
141 150 0
142 154 0
142 153 0
141 149 0
146 156 0
143 148 0
146 156 0
144 152 0
145 156 0
150 161 0
145 155 0
151 160 0
151 159 0
145 157 0
136 143 0
147 156 0
145 154 0
154 164 0
147 152 0
153 162 0
149 158 0
148 153 0
155 166 0
151 156 0
148 154 0
153 159 0
148 156 0
150 154 0
148 155 0
149 155 0
151 155 0
148 155 0
151 159 0
150 153 0
154 159 0
153 155 0
148 150 0
146 149 0
151 155 0
147 152 0
152 157 0
148 153 0
153 157 0
150 154 0
153 160 0
151 153 0
152 157 0
153 161 0
152 157 0
149 152 0
156 162 0
153 160 0
153 155 0
152 156 0
159 162 0
153 158 0
151 157 0
152 156 0
149 149 0
151 156 0
155 162 0
153 157 0
155 162 0
157 165 0
152 158 0
155 160 0
153 157 0
156 166 0
156 164 0
158 167 0
161 168 0
160 167 0
155 162 0
155 161 0
157 163 0
159 168 0
157 165 0
167 192 0
170 195 0
170 195 0
168 193 0
170 195 0
170 195 0
170 195 0
169 193 0
171 195 0
170 195 0
170 195 0
171 195 0
169 195 0
170 195 0
169 194 0
171 196 0
168 193 0
171 196 0
171 196 0
169 193 0
168 193 0
169 194 0
170 195 0
170 195 0
169 194 0
169 193 0
171 196 0
169 194 0
168 193 0
169 194 0
170 194 0
167 192 0
167 191 0
168 194 0
169 194 0
170 194 0
162 186 0
164 189 0
168 193 0
167 192 0
165 190 0
167 191 0
164 189 0
168 192 0
168 193 0
169 194 0
166 191 0
168 193 0
165 190 0
169 193 0
171 196 0
167 191 0
165 189 0
164 188 0
166 191 0
166 191 0
163 188 0
165 189 0
167 191 0
165 189 0
168 193 0
165 190 0
163 188 0
168 193 0
163 187 0
166 191 0
161 185 0
164 189 0
163 187 0
160 185 0
166 191 0
163 187 0
165 189 0
161 186 0
159 184 0
164 188 0
165 190 0
159 183 0
156 180 0
165 189 0
165 189 0
156 180 0
159 184 0
162 186 0
160 185 0
157 182 0
163 188 0
155 179 0
164 188 0
153 178 0
158 182 0
153 178 0
158 181 0
158 182 0
157 182 0
156 180 0
160 184 0
151 175 0
155 178 0
158 183 0
151 175 0
149 173 0
155 178 0
154 178 0
153 176 0
161 184 0
154 178 0
154 178 0
154 178 0
156 180 0
148 171 0
145 168 0
152 175 0
147 171 0
154 178 0
161 184 0
145 169 0
149 172 0
152 176 0
147 170 0
148 171 0
144 167 0
151 174 0
140 163 0
147 170 0
146 169 0
143 166 0
139 161 0
146 170 0
148 171 0
139 162 0
138 161 0
139 162 0
143 166 0
143 166 0
147 170 0
139 162 0
137 160 0
135 157 0
136 159 0
132 154 0
132 156 0
126 148 0
125 147 0
138 161 0
131 153 0
126 148 0
133 155 0
130 153 0
132 154 0
128 150 0
136 158 0
136 158 0
129 152 0
131 153 0
119 140 0
137 158 0
125 147 0
130 152 0
119 140 0
119 141 0
121 143 0
126 148 0
115 137 0
123 144 0
125 145 0
124 146 0
117 138 0
119 140 0
128 150 0
127 150 0
108 128 0
114 134 0
110 131 0
118 139 0
117 139 0
111 131 0
118 139 0
112 133 0
119 140 0
106 127 0
113 134 0
107 128 0
117 138 0
110 130 0
109 130 0
102 122 0
99 120 0
99 120 0
102 122 0
108 128 0
103 123 0
103 123 0
120 141 0
119 139 0
116 136 0
100 121 0
106 127 0
109 129 0
100 119 0
102 121 0
94 114 0
102 123 0
100 120 0
112 132 0
89 108 0
107 126 0
109 129 0
112 134 0
98 117 0
112 133 0
102 122 0
110 130 0
95 114 0
104 125 0
107 127 0
106 127 0
105 125 0
102 122 0
107 128 0
115 136 0
111 132 0
119 140 0
106 127 0
106 127 0
119 139 0
116 136 0
116 136 0
112 133 0
113 133 0
119 139 0
113 131 0
118 139 0
110 131 0
106 126 0
114 133 0
118 139 0
112 131 0
126 148 0
120 140 0
114 135 0
111 131 0
116 137 0
113 134 0
118 139 0
123 143 0
113 132 0
124 145 0
108 126 0
125 146 0
114 134 0
121 141 0
123 144 0
125 146 0
126 146 0
123 144 0
124 145 0
126 147 0
117 138 0
124 144 0
125 146 0
118 137 0
117 134 0
131 149 0
126 147 0
130 146 0
129 146 0
126 146 0
132 153 0
135 155 0
142 161 0
134 154 0
134 154 0
132 148 0
142 162 0
140 160 0
130 149 0
134 154 0
135 156 0
129 149 0
129 147 0
130 150 0
133 152 0
141 162 0
138 155 0
139 159 0
138 156 0
132 152 0
140 157 0
138 157 0
135 151 0
140 157 0
135 150 0
142 160 0
144 162 0
131 148 0
143 159 0
147 163 0
138 154 0
135 152 0
137 154 0
141 157 0
145 161 0
147 166 0
134 147 0
136 150 0
143 159 0
141 161 0
142 156 0
138 152 0
149 165 0
149 164 0
147 159 0
142 157 0
146 162 0
136 151 0
142 153 0
143 157 0
137 149 0
145 158 0
143 156 0
141 152 0
134 143 0
139 150 0
149 163 0
143 151 0
139 153 0
148 156 0
151 162 0
147 159 0
148 160 0
146 159 0
148 161 0
141 148 0
146 156 0
146 155 0
153 165 0
146 158 0
149 160 0
147 155 0
148 157 0
145 153 0
146 154 0
151 159 0
155 163 0
148 156 0
149 157 0
146 155 0
144 153 0
150 158 0
154 161 0
152 159 0
148 153 0
152 162 0
155 162 0
153 158 0
151 159 0
150 156 0
155 161 0
153 163 0
151 156 0
150 158 0
148 152 0
146 150 0
151 155 0
152 157 0
151 155 0
148 151 0
153 158 0
149 154 0
156 162 0
149 155 0
152 157 0
147 150 0
157 162 0
151 153 0
150 153 0
153 157 0
151 158 0
150 152 0
154 160 0
150 155 0
156 163 0
151 156 0
154 160 0
154 158 0
157 165 0
158 163 0
152 157 0
155 160 0
158 164 0
158 164 0
159 168 0
155 161 0
157 163 0
155 163 0
154 160 0
153 157 0
157 162 0
158 167 0
169 193 0
170 195 0
172 196 0
171 196 0
170 195 0
171 196 0
169 194 0
170 194 0
171 195 0
172 196 0
171 196 0
169 195 0
170 195 0
171 195 0
171 196 0
167 192 0
171 196 0
169 194 0
170 194 0
168 194 0
169 194 0
168 193 0
170 194 0
170 195 0
167 192 0
169 194 0
169 194 0
168 193 0
168 193 0
170 194 0
169 194 0
168 193 0
169 194 0
165 190 0
169 193 0
166 191 0
168 192 0
168 193 0
167 192 0
170 195 0
167 192 0
166 191 0
166 191 0
167 192 0
169 194 0
167 192 0
167 191 0
165 190 0
168 192 0
168 193 0
165 189 0
166 190 0
165 189 0
169 193 0
164 189 0
164 188 0
168 193 0
167 191 0
168 193 0
162 187 0
163 188 0
168 192 0
161 185 0
166 190 0
162 186 0
163 187 0
166 190 0
165 190 0
166 190 0
160 185 0
166 191 0
158 182 0
163 187 0
166 190 0
160 183 0
161 184 0
161 185 0
162 186 0
161 185 0
162 186 0
159 184 0
164 188 0
159 183 0
162 185 0
159 183 0
163 187 0
151 175 0
162 186 0
155 178 0
159 183 0
164 189 0
158 182 0
160 184 0
154 178 0
155 178 0
156 180 0
156 180 0
156 179 0
152 176 0
158 183 0
152 176 0
160 183 0
153 177 0
151 176 0
149 173 0
149 173 0
145 169 0
154 178 0
153 177 0
153 177 0
153 177 0
141 166 0
151 175 0
151 174 0
145 168 0
145 168 0
154 178 0
156 179 0
147 172 0
152 175 0
139 163 0
151 174 0
146 169 0
151 175 0
144 167 0
145 168 0
138 161 0
142 166 0
141 165 0
138 161 0
131 154 0
139 162 0
135 157 0
138 162 0
143 166 0
145 168 0
139 163 0
134 157 0
138 160 0
135 158 0
136 159 0
141 164 0
132 155 0
134 157 0
133 154 0
132 155 0
131 154 0
129 152 0
136 158 0
135 158 0
142 164 0
121 144 0
134 157 0
119 142 0
116 137 0
130 152 0
133 156 0
120 142 0
125 148 0
128 150 0
110 132 0
126 147 0
122 143 0
120 142 0
117 137 0
115 136 0
117 138 0
126 148 0
98 120 0
121 143 0
105 125 0
105 126 0
121 142 0
115 137 0
118 139 0
116 137 0
119 140 0
116 137 0
123 143 0
109 131 0
108 129 0
115 136 0
111 131 0
99 120 0
110 131 0
106 127 0
107 128 0
104 125 0
108 127 0
103 124 0
97 118 0
113 134 0
107 128 0
99 119 0
107 127 0
100 121 0
121 141 0
117 138 0
108 129 0
113 133 0
101 121 0
104 126 0
108 127 0
108 128 0
100 120 0
111 129 0
115 136 0
114 135 0
103 123 0
109 128 0
113 134 0
110 130 0
109 129 0
103 124 0
106 126 0
110 130 0
103 123 0
110 130 0
108 128 0
113 134 0
111 132 0
112 132 0
103 122 0
117 138 0
116 136 0
110 131 0
112 132 0
115 135 0
116 136 0
119 140 0
113 134 0
116 137 0
118 138 0
124 145 0
113 134 0
125 146 0
119 139 0
117 139 0
117 138 0
107 129 0
107 125 0
122 142 0
116 136 0
124 143 0
118 137 0
127 147 0
117 138 0
118 140 0
117 136 0
131 152 0
120 139 0
121 142 0
122 143 0
121 140 0
132 152 0
121 142 0
127 146 0
134 154 0
133 154 0
134 155 0
127 147 0
129 148 0
136 156 0
129 149 0
130 147 0
130 150 0
126 145 0
132 150 0
131 152 0
125 144 0
124 141 0
130 148 0
137 156 0
128 147 0
130 149 0
136 156 0
138 158 0
138 156 0
131 153 0
135 154 0
129 148 0
133 153 0
140 160 0
135 153 0
140 158 0
143 163 0
136 156 0
129 145 0
143 162 0
150 168 0
134 152 0
146 165 0
140 160 0
142 160 0
136 153 0
142 159 0
138 158 0
141 161 0
141 159 0
140 157 0
134 151 0
141 158 0
145 158 0
146 164 0
135 150 0
143 159 0
142 157 0
133 148 0
142 158 0
138 153 0
141 156 0
136 149 0
131 144 0
139 152 0
141 155 0
142 157 0
146 162 0
144 158 0
135 149 0
146 159 0
141 157 0
148 162 0
147 159 0
139 151 0
138 151 0
149 159 0
151 165 0
152 163 0
150 164 0
144 149 0
149 161 0
151 163 0
150 161 0
151 160 0
142 155 0
151 162 0
150 160 0
142 153 0
145 157 0
152 160 0
153 162 0
147 155 0
149 159 0
155 163 0
145 155 0
151 163 0
155 164 0
151 159 0
153 163 0
147 155 0
149 156 0
152 160 0
145 151 0
154 163 0
149 155 0
143 152 0
153 161 0
150 157 0
150 157 0
154 161 0
146 150 0
152 154 0
150 155 0
150 154 0
158 164 0
149 155 0
148 154 0
153 159 0
154 160 0
160 168 0
152 156 0
157 162 0
156 163 0
151 156 0
157 162 0
157 164 0
157 162 0
153 160 0
151 155 0
155 157 0
153 160 0
153 161 0
153 158 0
153 157 0
155 161 0
155 162 0
157 162 0
155 160 0
151 155 0
153 160 0
159 168 0
154 159 0
158 165 0
155 160 0
154 163 0
159 168 0
158 165 0
156 163 0
153 158 0
157 161 0
171 195 0
172 196 0
171 195 0
172 196 0
169 194 0
170 195 0
169 194 0
168 193 0
170 195 0
169 194 0
170 195 0
169 194 0
169 194 0
171 195 0
170 194 0
169 194 0
169 194 0
168 193 0
170 194 0
170 195 0
170 195 0
168 193 0
169 194 0
168 193 0
171 195 0
171 196 0
169 194 0
169 194 0
167 192 0
168 193 0
169 194 0
168 193 0
169 194 0
168 193 0
171 196 0
170 195 0
169 194 0
165 190 0
168 193 0
169 194 0
170 194 0
167 192 0
166 190 0
167 192 0
165 190 0
167 192 0
165 190 0
166 191 0
170 194 0
170 194 0
169 193 0
166 190 0
168 192 0
168 193 0
164 189 0
162 186 0
161 186 0
163 188 0
165 190 0
163 188 0
164 188 0
163 187 0
163 187 0
163 187 0
162 186 0
160 185 0
163 187 0
166 190 0
166 191 0
164 188 0
162 186 0
161 185 0
161 185 0
163 187 0
165 190 0
160 184 0
164 188 0
163 187 0
158 182 0
159 183 0
159 183 0
163 187 0
162 186 0
159 184 0
159 183 0
165 189 0
161 185 0
158 181 0
161 185 0
156 181 0
161 185 0
155 179 0
153 177 0
155 179 0
150 173 0
152 175 0
155 179 0
156 180 0
160 184 0
157 181 0
151 175 0
153 177 0
150 175 0
157 181 0
155 178 0
155 179 0
152 176 0
153 178 0
151 175 0
155 179 0
152 176 0
157 180 0
149 172 0
150 173 0
154 178 0
148 171 0
150 173 0
145 169 0
151 175 0
144 168 0
141 164 0
149 173 0
149 173 0
144 168 0
149 173 0
138 161 0
145 169 0
145 167 0
151 175 0
142 166 0
148 171 0
136 159 0
140 164 0
137 160 0
139 161 0
136 158 0
139 162 0
135 158 0
133 156 0
137 160 0
138 162 0
140 163 0
134 157 0
136 159 0
135 159 0
133 157 0
135 158 0
129 152 0
134 157 0
135 157 0
131 154 0
134 156 0
129 151 0
129 152 0
126 149 0
124 146 0
126 148 0
122 144 0
132 154 0
134 157 0
127 149 0
121 142 0
129 151 0
122 144 0
117 138 0
115 136 0
117 138 0
127 149 0
123 145 0
123 145 0
130 150 0
121 143 0
124 147 0
128 149 0
116 137 0
110 130 0
118 138 0
114 135 0
117 138 0
116 137 0
99 120 0
109 130 0
114 134 0
112 133 0
99 120 0
105 125 0
113 133 0
115 136 0
122 144 0
113 135 0
107 128 0
115 136 0
109 129 0
112 132 0
98 119 0
121 142 0
106 128 0
99 119 0
120 140 0
113 134 0
115 137 0
119 140 0
109 129 0
114 134 0
107 128 0
106 127 0
105 124 0
123 144 0
119 140 0
104 125 0
106 126 0
100 120 0
115 135 0
108 128 0
115 135 0
113 133 0
110 130 0
111 133 0
108 127 0
106 125 0
102 123 0
119 138 0
118 138 0
110 130 0
115 137 0
124 144 0
112 133 0
116 136 0
120 140 0
97 116 0
132 154 0
122 144 0
118 138 0
122 140 0
119 140 0
121 141 0
121 141 0
119 139 0
109 129 0
112 133 0
119 138 0
121 142 0
128 148 0
127 147 0
133 153 0
123 143 0
127 148 0
131 151 0
123 142 0
135 156 0
122 143 0
128 147 0
128 148 0
132 152 0
125 147 0
126 146 0
127 147 0
131 150 0
132 153 0
136 155 0
132 151 0
129 148 0
133 152 0
122 143 0
132 152 0
130 149 0
124 143 0
131 151 0
143 164 0
135 156 0
126 144 0
124 145 0
127 145 0
130 150 0
133 152 0
139 158 0
137 157 0
137 156 0
134 154 0
136 156 0
144 166 0
141 160 0
139 157 0
133 152 0
129 147 0
139 156 0
141 157 0
132 150 0
134 152 0
142 162 0
134 153 0
129 147 0
140 158 0
135 153 0
142 158 0
132 149 0
143 161 0
140 156 0
134 150 0
135 151 0
143 163 0
142 161 0
138 152 0
140 158 0
145 162 0
142 157 0
148 163 0
139 157 0
147 164 0
140 157 0
148 165 0
145 162 0
144 162 0
141 155 0
146 162 0
146 159 0
137 152 0
138 150 0
148 161 0
138 151 0
149 162 0
147 160 0
140 149 0
147 161 0
142 153 0
142 152 0
138 150 0
146 158 0
141 154 0
144 156 0
150 164 0
152 166 0
146 156 0
145 159 0
153 165 0
143 154 0
146 157 0
144 155 0
144 154 0
145 156 0
150 161 0
146 158 0
144 153 0
152 163 0
149 159 0
151 160 0
142 151 0
151 159 0
150 157 0
155 160 0
150 157 0
150 161 0
157 167 0
152 161 0
144 150 0
150 159 0
153 162 0
152 159 0
153 162 0
150 158 0
152 162 0
152 159 0
154 161 0
153 159 0
155 161 0
152 157 0
152 155 0
150 156 0
150 157 0
157 163 0
147 153 0
153 160 0
154 161 0
154 158 0
157 166 0
153 160 0
156 165 0
151 157 0
152 160 0
154 162 0
157 162 0
153 158 0
155 163 0
156 165 0
157 167 0
158 165 0
155 160 0
152 158 0
155 161 0
154 158 0
153 158 0
156 161 0
157 164 0
150 155 0
155 164 0
157 163 0
158 166 0
158 165 0
156 164 0
162 174 0
171 196 0
170 194 0
170 195 0
171 195 0
169 194 0
171 195 0
168 192 0
169 194 0
172 196 0
170 195 0
169 194 0
171 196 0
169 194 0
168 193 0
171 196 0
168 192 0
170 195 0
170 195 0
170 195 0
168 192 0
169 194 0
170 195 0
169 193 0
169 193 0
169 194 0
168 193 0
164 189 0
170 194 0
167 192 0
166 191 0
167 192 0
168 193 0
167 192 0
170 194 0
167 192 0
168 192 0
167 192 0
169 194 0
168 193 0
167 192 0
163 188 0
170 194 0
164 189 0
168 192 0
168 193 0
166 190 0
167 192 0
166 191 0
167 191 0
167 191 0
168 193 0
166 189 0
163 187 0
167 192 0
170 194 0
166 190 0
165 190 0
165 190 0
166 191 0
166 191 0
162 186 0
164 188 0
165 190 0
159 183 0
165 189 0
164 189 0
164 189 0
166 189 0
165 190 0
164 189 0
164 188 0
160 184 0
163 187 0
164 188 0
156 180 0
163 188 0
164 189 0
159 183 0
159 184 0
163 187 0
160 185 0
154 178 0
158 182 0
155 179 0
160 184 0
166 190 0
157 181 0
160 184 0
159 182 0
162 185 0
155 180 0
160 184 0
160 184 0
155 179 0
154 177 0
162 187 0
151 175 0
156 179 0
161 184 0
151 174 0
155 178 0
156 179 0
153 177 0
146 170 0
153 177 0
151 175 0
147 171 0
159 183 0
150 175 0
150 175 0
146 170 0
145 168 0
147 170 0
154 178 0
147 170 0
153 177 0
156 180 0
148 172 0
154 177 0
152 177 0
143 166 0
145 169 0
147 171 0
149 171 0
150 173 0
146 169 0
141 164 0
143 166 0
143 166 0
140 164 0
148 171 0
138 161 0
134 157 0
130 151 0
143 167 0
137 159 0
137 159 0
140 163 0
137 160 0
137 160 0
139 162 0
135 158 0
132 155 0
134 157 0
135 157 0
128 151 0
136 159 0
130 153 0
130 151 0
123 146 0
128 151 0
132 155 0
127 149 0
134 156 0
127 151 0
124 146 0
127 149 0
127 150 0
133 156 0
120 142 0
122 144 0
127 149 0
126 148 0
127 149 0
115 137 0
133 155 0
130 152 0
122 144 0
121 141 0
115 137 0
104 126 0
116 137 0
115 136 0
119 141 0
118 139 0
115 136 0
124 145 0
123 145 0
116 137 0
114 135 0
114 135 0
121 142 0
109 130 0
116 137 0
107 128 0
109 130 0
115 136 0
120 141 0
109 130 0
112 132 0
109 130 0
108 129 0
111 132 0
115 136 0
112 133 0
110 130 0
119 139 0
109 129 0
106 127 0
119 141 0
122 143 0
110 132 0
116 136 0
109 130 0
110 130 0
105 126 0
112 133 0
121 143 0
121 141 0
118 139 0
113 133 0
116 136 0
105 126 0
106 125 0
120 141 0
99 119 0
114 136 0
119 139 0
109 128 0
113 134 0
112 132 0
104 124 0
109 130 0
114 134 0
115 136 0
122 145 0
106 126 0
117 138 0
113 134 0
120 139 0
113 134 0
122 142 0
121 141 0
116 138 0
115 135 0
120 138 0
112 131 0
117 136 0
119 140 0
119 138 0
122 141 0
132 154 0
115 134 0
120 139 0
123 142 0
123 139 0
126 148 0
129 150 0
125 146 0
125 146 0
134 155 0
118 138 0
131 153 0
128 148 0
129 147 0
121 141 0
127 149 0
125 144 0
123 143 0
130 151 0
130 149 0
127 147 0
129 148 0
129 149 0
133 152 0
131 150 0
139 160 0
134 155 0
124 144 0
141 162 0
139 160 0
138 158 0
134 154 0
134 154 0
137 157 0
131 151 0
144 164 0
143 163 0
131 151 0
137 157 0
138 159 0
149 170 0
132 152 0
131 148 0
135 155 0
139 159 0
139 156 0
138 156 0
138 156 0
138 158 0
135 153 0
140 158 0
134 153 0
136 152 0
143 161 0
138 157 0
140 157 0
134 149 0
146 165 0
139 157 0
133 150 0
143 159 0
137 155 0
138 157 0
144 161 0
142 158 0
139 156 0
138 156 0
146 164 0
145 160 0
135 150 0
140 157 0
143 159 0
144 159 0
144 160 0
141 156 0
145 162 0
142 157 0
139 155 0
144 158 0
146 161 0
148 165 0
140 154 0
146 158 0
138 150 0
145 159 0
150 166 0
146 158 0
141 153 0
144 160 0
148 160 0
148 158 0
149 160 0
149 162 0
150 162 0
153 166 0
142 151 0
147 159 0
152 161 0
149 163 0
149 159 0
153 167 0
146 158 0
145 152 0
149 158 0
152 161 0
152 161 0
151 161 0
152 166 0
145 157 0
152 159 0
153 164 0
155 165 0
146 156 0
147 156 0
154 164 0
153 160 0
152 158 0
154 162 0
154 162 0
149 156 0
157 166 0
158 169 0
149 157 0
150 155 0
150 156 0
148 157 0
148 153 0
155 161 0
155 163 0
157 164 0
155 161 0
155 162 0
159 169 0
155 163 0
152 159 0
152 160 0
155 163 0
155 164 0
155 158 0
155 162 0
154 161 0
156 160 0
155 160 0
155 161 0
153 157 0
156 165 0
158 167 0
155 163 0
159 166 0
158 166 0
160 169 0
157 163 0
151 156 0
154 159 0
153 160 0
157 166 0
154 160 0
155 164 0
159 169 0
171 195 0
167 192 0
171 196 0
170 195 0
169 194 0
170 195 0
171 196 0
171 195 0
168 193 0
169 194 0
167 192 0
171 195 0
168 193 0
167 191 0
167 193 0
168 193 0
169 193 0
165 190 0
169 193 0
168 193 0
172 196 0
166 191 0
170 195 0
167 192 0
168 193 0
169 194 0
169 194 0
166 191 0
169 194 0
171 196 0
169 193 0
166 191 0
169 194 0
169 193 0
167 191 0
169 193 0
166 191 0
166 191 0
167 192 0
166 191 0
167 192 0
165 190 0
166 191 0
167 191 0
169 194 0
166 190 0
169 193 0
170 195 0
165 189 0
165 189 0
168 193 0
167 191 0
164 188 0
165 190 0
165 190 0
162 187 0
164 188 0
163 187 0
166 191 0
162 187 0
162 186 0
162 186 0
160 184 0
163 188 0
164 188 0
164 189 0
168 193 0
166 189 0
165 189 0
166 191 0
158 182 0
161 184 0
160 184 0
164 188 0
163 187 0
162 187 0
160 185 0
157 181 0
159 184 0
160 185 0
159 184 0
162 186 0
158 182 0
162 186 0
160 184 0
158 182 0
157 180 0
161 185 0
153 177 0
151 174 0
150 174 0
163 187 0
156 180 0
161 185 0
157 182 0
160 185 0
158 182 0
160 184 0
158 181 0
152 176 0
154 178 0
149 172 0
157 181 0
153 177 0
149 172 0
158 182 0
150 174 0
151 174 0
152 176 0
152 175 0
150 173 0
155 179 0
151 175 0
152 176 0
149 173 0
143 166 0
149 173 0
152 176 0
148 171 0
145 169 0
154 177 0
148 171 0
150 173 0
152 175 0
143 167 0
151 173 0
150 173 0
143 167 0
141 165 0
149 173 0
149 172 0
152 176 0
138 161 0
144 167 0
146 168 0
139 162 0
140 161 0
133 156 0
137 160 0
134 159 0
131 154 0
144 167 0
133 156 0
131 154 0
134 157 0
132 156 0
131 154 0
135 157 0
135 158 0
135 158 0
126 148 0
128 151 0
132 154 0
125 147 0
134 156 0
129 152 0
134 156 0
132 155 0
136 159 0
122 144 0
120 143 0
131 154 0
127 150 0
122 145 0
120 141 0
119 140 0
129 151 0
124 146 0
120 141 0
121 142 0
123 145 0
119 141 0
119 140 0
109 129 0
119 140 0
111 132 0
121 142 0
127 148 0
109 132 0
112 133 0
105 125 0
112 133 0
113 135 0
124 146 0
122 143 0
114 134 0
120 140 0
117 137 0
114 136 0
99 119 0
121 144 0
110 130 0
118 140 0
106 127 0
111 132 0
114 136 0
114 135 0
126 147 0
120 140 0
120 140 0
114 135 0
108 127 0
119 141 0
115 136 0
102 124 0
103 124 0
107 128 0
112 132 0
110 131 0
112 133 0
122 144 0
108 129 0
109 130 0
121 142 0
118 139 0
117 136 0
122 142 0
115 135 0
113 133 0
116 138 0
124 143 0
117 138 0
129 151 0
117 138 0
120 140 0
113 134 0
122 144 0
127 147 0
124 146 0
114 135 0
133 153 0
112 132 0
123 144 0
121 143 0
110 131 0
121 143 0
121 140 0
124 144 0
125 145 0
123 145 0
121 143 0
115 135 0
115 136 0
125 144 0
126 147 0
126 148 0
130 149 0
124 145 0
125 145 0
115 137 0
123 144 0
119 142 0
127 147 0
128 149 0
124 145 0
119 139 0
126 147 0
125 145 0
136 157 0
132 153 0
135 155 0
127 147 0
122 143 0
123 144 0
138 159 0
135 156 0
131 151 0
135 155 0
142 163 0
135 155 0
136 157 0
137 159 0
139 159 0
133 154 0
134 154 0
135 154 0
131 149 0
133 154 0
128 148 0
139 159 0
130 148 0
138 159 0
138 159 0
130 150 0
137 157 0
139 160 0
136 153 0
139 159 0
133 151 0
135 155 0
139 157 0
142 162 0
137 156 0
138 156 0
145 164 0
146 165 0
143 161 0
129 147 0
140 156 0
141 159 0
148 166 0
150 169 0
140 158 0
137 155 0
139 154 0
147 164 0
143 159 0
147 164 0
137 152 0
149 166 0
144 160 0
139 154 0
146 163 0
141 155 0
140 154 0
144 161 0
149 164 0
141 155 0
146 157 0
151 167 0
147 162 0
147 164 0
143 156 0
145 159 0
151 164 0
151 164 0
146 160 0
147 161 0
142 152 0
145 157 0
146 158 0
151 165 0
149 165 0
146 158 0
140 150 0
148 158 0
150 163 0
151 163 0
146 158 0
145 156 0
152 164 0
148 161 0
145 157 0
156 168 0
153 163 0
151 162 0
151 161 0
151 161 0
153 164 0
152 163 0
154 165 0
152 161 0
157 169 0
155 165 0
155 165 0
152 159 0
154 163 0
153 160 0
150 159 0
151 158 0
151 156 0
149 157 0
151 159 0
152 161 0
158 164 0
156 165 0
147 154 0
152 159 0
155 164 0
150 158 0
159 166 0
149 158 0
155 162 0
152 160 0
154 160 0
156 165 0
153 161 0
151 160 0
156 162 0
157 166 0
149 156 0
154 160 0
156 164 0
158 165 0
154 161 0
155 163 0
160 167 0
156 164 0
154 162 0
157 161 0
156 161 0
159 166 0
160 166 0
159 166 0
159 168 0
156 163 0
157 163 0
158 166 0
154 162 0
158 165 0
168 193 0
170 195 0
171 196 0
169 194 0
169 193 0
170 195 0
169 194 0
170 195 0
170 195 0
171 195 0
170 194 0
172 196 0
169 194 0
167 191 0
169 194 0
167 192 0
168 193 0
167 192 0
169 193 0
170 195 0
171 195 0
168 192 0
168 193 0
170 194 0
167 192 0
171 195 0
167 192 0
169 194 0
169 193 0
169 193 0
170 194 0
168 192 0
167 191 0
171 195 0
166 190 0
169 193 0
167 192 0
166 190 0
170 195 0
168 192 0
166 190 0
170 194 0
168 193 0
166 190 0
162 187 0
168 192 0
164 189 0
165 189 0
167 191 0
164 188 0
166 190 0
170 195 0
163 188 0
168 192 0
168 192 0
167 191 0
164 189 0
165 190 0
165 189 0
165 189 0
165 189 0
162 186 0
165 190 0
160 184 0
163 187 0
162 187 0
162 187 0
166 190 0
165 190 0
164 189 0
166 191 0
161 185 0
161 185 0
163 187 0
165 190 0
157 181 0
157 181 0
165 189 0
160 184 0
160 184 0
161 184 0
163 187 0
160 184 0
160 184 0
164 187 0
162 186 0
161 185 0
159 183 0
156 180 0
157 181 0
162 186 0
158 181 0
160 184 0
160 184 0
148 172 0
155 180 0
152 176 0
158 182 0
157 180 0
157 182 0
155 179 0
156 181 0
157 179 0
152 175 0
149 173 0
148 171 0
151 175 0
147 170 0
155 179 0
143 167 0
146 170 0
141 166 0
152 176 0
153 176 0
152 176 0
153 177 0
146 171 0
153 177 0
146 170 0
147 170 0
150 174 0
145 169 0
152 176 0
150 173 0
149 172 0
147 171 0
140 164 0
148 171 0
140 163 0
146 170 0
138 160 0
139 163 0
138 161 0
143 165 0
136 159 0
147 170 0
149 171 0
144 169 0
127 150 0
147 171 0
130 152 0
148 172 0
138 161 0
132 155 0
130 153 0
140 163 0
135 158 0
132 155 0
130 153 0
131 153 0
128 151 0
128 151 0
121 145 0
132 154 0
128 150 0
124 147 0
125 148 0
137 160 0
133 156 0
125 147 0
135 157 0
136 159 0
122 144 0
134 157 0
126 148 0
126 147 0
132 155 0
130 152 0
121 144 0
124 147 0
129 152 0
118 141 0
120 141 0
115 137 0
118 140 0
133 155 0
124 145 0
115 137 0
123 144 0
124 147 0
113 136 0
128 150 0
122 144 0
114 135 0
127 149 0
119 141 0
113 135 0
128 151 0
118 138 0
112 133 0
116 137 0
107 127 0
112 132 0
118 139 0
111 132 0
124 145 0
106 128 0
114 134 0
119 141 0
119 141 0
114 135 0
118 139 0
115 137 0
116 138 0
123 145 0
115 137 0
124 147 0
100 120 0
112 132 0
113 134 0
110 129 0
120 141 0
113 133 0
121 141 0
122 142 0
109 129 0
110 132 0
112 132 0
116 137 0
124 144 0
122 143 0
123 144 0
116 138 0
110 131 0
122 143 0
115 135 0
120 140 0
121 141 0
118 139 0
119 139 0
116 137 0
123 143 0
119 140 0
126 149 0
129 151 0
128 149 0
118 140 0
117 138 0
124 146 0
123 145 0
134 156 0
125 146 0
132 152 0
119 140 0
121 142 0
130 151 0
126 147 0
122 142 0
124 146 0
119 139 0
134 155 0
134 155 0
129 148 0
130 150 0
119 141 0
125 146 0
130 152 0
117 137 0
132 153 0
135 157 0
134 155 0
137 159 0
135 152 0
133 154 0
138 158 0
137 160 0
130 152 0
138 160 0
135 157 0
136 158 0
136 155 0
136 155 0
137 157 0
136 156 0
141 162 0
136 157 0
137 157 0
135 155 0
145 168 0
134 153 0
136 156 0
139 158 0
137 158 0
135 155 0
133 153 0
143 163 0
132 152 0
137 155 0
134 153 0
144 164 0
139 158 0
135 152 0
142 161 0
137 157 0
142 162 0
137 155 0
143 160 0
140 158 0
140 159 0
142 160 0
142 160 0
147 164 0
147 161 0
146 162 0
145 162 0
149 168 0
148 166 0
142 157 0
145 164 0
140 157 0
150 167 0
139 156 0
150 166 0
143 161 0
146 163 0
145 161 0
141 160 0
149 164 0
143 158 0
149 166 0
146 161 0
146 161 0
146 160 0
147 161 0
149 161 0
148 161 0
142 157 0
148 160 0
151 166 0
140 154 0
149 164 0
148 162 0
143 154 0
144 156 0
151 166 0
150 163 0
148 158 0
146 158 0
150 167 0
149 161 0
152 165 0
149 160 0
150 160 0
151 166 0
149 161 0
146 158 0
149 158 0
146 155 0
153 164 0
153 165 0
154 161 0
150 160 0
156 168 0
155 167 0
154 166 0
146 153 0
148 157 0
153 165 0
154 161 0
152 164 0
150 157 0
154 161 0
154 164 0
154 164 0
152 159 0
155 163 0
154 161 0
151 157 0
149 152 0
156 166 0
155 164 0
156 166 0
156 166 0
157 166 0
158 165 0
153 160 0
154 163 0
151 155 0
156 162 0
154 160 0
149 157 0
157 163 0
158 169 0
160 168 0
153 161 0
155 163 0
157 165 0
155 162 0
157 163 0
156 165 0
156 161 0
155 162 0
155 162 0
158 166 0
158 168 0
155 163 0
155 161 0
159 166 0
159 170 0
160 168 0
171 195 0
170 195 0
170 194 0
171 195 0
170 195 0
171 195 0
170 195 0
170 195 0
169 193 0
169 194 0
171 195 0
170 195 0
170 195 0
172 196 0
167 191 0
168 193 0
168 193 0
169 193 0
169 194 0
169 194 0
166 191 0
169 194 0
167 192 0
166 191 0
167 191 0
170 194 0
169 193 0
167 192 0
167 191 0
167 191 0
167 192 0
167 191 0
167 191 0
168 192 0
168 192 0
168 193 0
166 191 0
167 192 0
163 188 0
169 193 0
168 193 0
165 189 0
169 193 0
171 195 0
164 188 0
164 188 0
164 188 0
163 187 0
168 192 0
165 189 0
165 190 0
167 192 0
168 193 0
167 191 0
163 188 0
164 189 0
165 189 0
164 189 0
162 187 0
163 187 0
162 186 0
165 189 0
163 187 0
164 188 0
164 188 0
166 190 0
164 188 0
164 188 0
164 188 0
166 189 0
163 188 0
163 187 0
160 184 0
155 179 0
167 191 0
164 189 0
165 189 0
162 186 0
160 184 0
158 182 0
161 185 0
160 184 0
160 185 0
160 184 0
155 178 0
157 180 0
158 182 0
163 186 0
159 183 0
157 181 0
166 189 0
156 180 0
152 176 0
155 180 0
160 184 0
160 183 0
157 181 0
154 177 0
156 180 0
151 175 0
160 184 0
156 180 0
160 185 0
154 178 0
153 178 0
153 177 0
154 178 0
155 179 0
154 177 0
152 176 0
159 183 0
144 168 0
144 168 0
149 172 0
144 168 0
148 172 0
151 175 0
147 170 0
148 171 0
157 181 0
149 172 0
146 170 0
156 178 0
146 170 0
145 169 0
142 165 0
145 168 0
146 169 0
151 175 0
141 164 0
144 168 0
142 165 0
147 171 0
148 171 0
133 156 0
140 164 0
136 158 0
141 165 0
144 166 0
129 152 0
136 160 0
146 170 0
136 158 0
131 154 0
133 156 0
135 158 0
137 160 0
141 164 0
138 160 0
135 159 0
124 147 0
136 158 0
130 152 0
128 151 0
138 161 0
129 151 0
120 143 0
127 150 0
132 155 0
138 160 0
120 143 0
125 147 0
126 149 0
120 142 0
128 150 0
137 159 0
117 139 0
109 133 0
133 154 0
120 142 0
120 142 0
123 145 0
121 142 0
119 140 0
116 138 0
122 145 0
115 138 0
119 141 0
129 150 0
125 147 0
124 147 0
125 147 0
121 142 0
119 141 0
119 140 0
119 140 0
122 144 0
118 140 0
114 136 0
115 136 0
108 131 0
123 146 0
107 129 0
117 140 0
122 144 0
112 133 0
115 136 0
115 135 0
111 134 0
119 141 0
115 137 0
112 134 0
117 139 0
122 143 0
119 141 0
127 149 0
120 140 0
113 135 0
110 130 0
115 137 0
121 142 0
118 138 0
118 139 0
115 137 0
114 136 0
129 149 0
111 131 0
118 139 0
113 134 0
117 137 0
107 126 0
116 136 0
109 129 0
117 137 0
111 133 0
121 141 0
118 138 0
117 138 0
110 132 0
113 134 0
121 142 0
128 149 0
123 145 0
123 145 0
122 145 0
118 140 0
123 145 0
120 140 0
125 145 0
127 148 0
127 148 0
122 141 0
122 145 0
132 154 0
119 141 0
118 139 0
121 141 0
131 152 0
125 148 0
126 147 0
123 144 0
124 144 0
136 156 0
137 158 0
131 151 0
136 157 0
130 150 0
126 146 0
133 155 0
131 152 0
128 150 0
125 147 0
122 144 0
124 143 0
134 155 0
136 156 0
139 159 0
133 154 0
133 154 0
141 163 0
140 162 0
130 149 0
142 165 0
136 156 0
143 163 0
129 149 0
129 149 0
142 162 0
133 152 0
134 155 0
134 156 0
139 159 0
133 152 0
133 155 0
140 159 0
138 155 0
140 159 0
138 159 0
137 156 0
132 150 0
138 156 0
132 150 0
136 156 0
142 162 0
137 154 0
143 162 0
139 157 0
143 163 0
148 167 0
144 161 0
142 160 0
143 163 0
144 163 0
142 159 0
148 165 0
141 159 0
137 155 0
140 157 0
145 164 0
139 155 0
146 166 0
143 157 0
148 166 0
145 161 0
140 158 0
144 164 0
145 161 0
155 173 0
142 159 0
145 163 0
146 161 0
143 159 0
149 166 0
149 165 0
155 167 0
145 160 0
150 164 0
145 155 0
149 162 0
147 159 0
149 165 0
148 161 0
145 158 0
147 160 0
154 167 0
149 162 0
151 167 0
153 168 0
143 154 0
149 162 0
149 163 0
150 162 0
149 159 0
149 161 0
149 159 0
146 160 0
152 165 0
147 157 0
151 163 0
152 165 0
148 162 0
155 169 0
152 165 0
155 164 0
151 160 0
151 160 0
153 166 0
156 167 0
149 158 0
158 170 0
152 162 0
155 167 0
153 162 0
154 165 0
154 163 0
152 163 0
148 156 0
152 163 0
153 160 0
156 163 0
152 159 0
154 160 0
153 160 0
154 158 0
154 160 0
153 161 0
159 169 0
147 153 0
151 162 0
155 159 0
157 166 0
153 161 0
155 163 0
154 163 0
153 160 0
154 163 0
157 167 0
154 160 0
151 157 0
151 158 0
156 166 0
156 165 0
157 165 0
155 161 0
159 168 0
156 161 0
159 169 0
154 159 0
157 169 0
161 172 0
168 193 0
169 194 0
171 195 0
167 192 0
171 195 0
168 193 0
169 194 0
166 191 0
168 192 0
168 193 0
170 194 0
168 192 0
170 195 0
167 192 0
169 194 0
169 194 0
167 192 0
169 194 0
170 194 0
171 196 0
167 192 0
169 193 0
168 193 0
170 195 0
169 193 0
170 195 0
168 193 0
166 191 0
164 189 0
169 194 0
167 192 0
171 196 0
164 188 0
171 195 0
166 190 0
166 190 0
166 191 0
166 190 0
167 191 0
168 192 0
172 197 0
164 189 0
170 194 0
164 189 0
166 191 0
166 191 0
168 193 0
169 194 0
160 185 0
162 187 0
164 189 0
164 188 0
165 189 0
165 189 0
166 190 0
161 185 0
168 192 0
160 184 0
164 189 0
167 191 0
165 189 0
159 184 0
166 190 0
165 189 0
159 183 0
165 189 0
163 187 0
164 189 0
159 183 0
155 179 0
156 180 0
162 187 0
163 187 0
161 184 0
163 187 0
160 184 0
161 185 0
163 186 0
160 184 0
161 185 0
162 187 0
161 184 0
159 183 0
162 186 0
163 187 0
158 182 0
161 185 0
158 183 0
159 183 0
154 179 0
157 182 0
155 180 0
158 181 0
153 177 0
157 181 0
152 176 0
153 177 0
159 183 0
161 185 0
153 177 0
151 176 0
155 180 0
154 177 0
160 183 0
150 174 0
154 178 0
154 178 0
148 172 0
150 175 0
146 169 0
140 164 0
150 174 0
154 177 0
146 170 0
155 179 0
149 173 0
145 168 0
149 173 0
152 175 0
148 171 0
145 169 0
146 171 0
139 163 0
144 168 0
147 170 0
145 170 0
134 158 0
140 164 0
144 169 0
144 168 0
145 168 0
140 163 0
141 165 0
137 161 0
144 167 0
147 171 0
132 155 0
145 168 0
142 165 0
134 156 0
140 162 0
136 159 0
138 161 0
135 158 0
141 164 0
127 150 0
136 159 0
128 151 0
137 160 0
138 161 0
136 158 0
131 154 0
126 148 0
133 155 0
136 159 0
139 162 0
131 154 0
128 150 0
131 153 0
121 142 0
130 153 0
123 146 0
129 151 0
127 150 0
123 145 0
126 148 0
125 148 0
121 143 0
126 149 0
116 138 0
127 149 0
117 139 0
124 147 0
120 141 0
130 153 0
124 146 0
115 137 0
114 136 0
114 135 0
121 142 0
118 140 0
121 143 0
118 138 0
112 133 0
119 139 0
120 141 0
121 142 0
119 140 0
118 139 0
121 142 0
110 131 0
116 137 0
118 141 0
125 147 0
125 147 0
112 134 0
117 137 0
121 143 0
118 139 0
117 139 0
110 132 0
122 144 0
110 131 0
113 134 0
122 143 0
116 137 0
124 146 0
116 137 0
108 129 0
112 132 0
126 146 0
119 141 0
115 136 0
120 141 0
122 143 0
120 141 0
114 136 0
116 136 0
123 145 0
122 143 0
119 141 0
118 140 0
129 150 0
114 135 0
120 140 0
128 149 0
114 136 0
114 134 0
116 138 0
121 142 0
126 148 0
117 137 0
120 140 0
119 139 0
115 136 0
119 141 0
116 137 0
129 151 0
134 156 0
120 142 0
119 140 0
127 149 0
121 142 0
129 150 0
126 149 0
120 141 0
135 158 0
136 158 0
134 156 0
121 142 0
119 140 0
124 145 0
144 164 0
133 155 0
134 154 0
134 156 0
134 156 0
126 147 0
124 145 0
125 147 0
140 163 0
136 159 0
137 157 0
128 149 0
128 148 0
134 154 0
131 151 0
142 162 0
138 158 0
138 158 0
134 155 0
131 150 0
136 157 0
139 158 0
135 155 0
130 151 0
135 155 0
142 165 0
136 157 0
126 144 0
134 153 0
139 159 0
135 150 0
140 161 0
133 152 0
139 159 0
142 162 0
141 160 0
139 160 0
137 157 0
139 157 0
142 162 0
145 165 0
140 159 0
135 154 0
149 167 0
135 154 0
141 161 0
142 159 0
149 168 0
143 161 0
139 157 0
147 166 0
144 162 0
148 168 0
140 156 0
143 162 0
151 169 0
141 159 0
143 160 0
145 162 0
137 155 0
147 162 0
146 164 0
154 171 0
142 158 0
149 165 0
144 159 0
149 166 0
142 161 0
146 161 0
145 162 0
145 161 0
147 165 0
147 164 0
145 160 0
149 163 0
150 165 0
149 163 0
146 160 0
149 164 0
146 162 0
152 166 0
148 164 0
151 163 0
149 164 0
151 165 0
152 166 0
152 164 0
149 162 0
152 165 0
148 160 0
146 158 0
154 168 0
148 160 0
152 165 0
149 164 0
151 164 0
152 164 0
148 161 0
147 161 0
151 164 0
148 158 0
155 165 0
157 170 0
155 164 0
152 164 0
151 164 0
153 165 0
157 166 0
151 161 0
155 166 0
153 160 0
153 163 0
148 156 0
154 165 0
151 160 0
153 162 0
149 161 0
152 162 0
152 162 0
154 164 0
157 166 0
154 166 0
158 170 0
152 159 0
158 167 0
154 164 0
158 166 0
154 162 0
154 164 0
153 159 0
159 172 0
156 163 0
156 163 0
155 164 0
155 163 0
157 166 0
156 164 0
158 166 0
154 165 0
157 164 0
158 168 0
157 164 0
158 168 0
158 167 0
158 168 0
155 165 0
160 166 0
158 170 0
171 195 0
171 196 0
169 194 0
167 192 0
168 193 0
169 193 0
169 194 0
171 196 0
170 194 0
171 195 0
168 193 0
169 193 0
169 193 0
170 195 0
167 192 0
167 191 0
166 191 0
170 194 0
168 193 0
171 195 0
169 194 0
166 189 0
170 194 0
169 194 0
169 194 0
168 193 0
168 193 0
168 193 0
170 194 0
166 190 0
169 193 0
171 196 0
163 186 0
167 191 0
171 195 0
168 192 0
167 192 0
169 193 0
169 193 0
168 192 0
162 186 0
167 191 0
165 189 0
165 190 0
169 193 0
167 191 0
162 187 0
165 189 0
166 190 0
164 189 0
163 187 0
166 191 0
168 192 0
164 189 0
167 191 0
164 188 0
168 192 0
165 189 0
163 187 0
163 187 0
162 187 0
165 190 0
165 189 0
159 183 0
166 190 0
161 185 0
163 187 0
162 186 0
164 188 0
162 186 0
163 188 0
160 184 0
161 185 0
162 187 0
160 184 0
162 186 0
160 184 0
154 178 0
163 187 0
156 181 0
157 181 0
162 186 0
156 181 0
162 186 0
156 181 0
153 178 0
159 183 0
158 182 0
160 183 0
155 179 0
154 177 0
162 185 0
155 179 0
159 183 0
150 173 0
157 180 0
149 173 0
150 174 0
161 185 0
149 173 0
154 178 0
152 177 0
152 176 0
154 177 0
160 184 0
151 175 0
152 175 0
150 174 0
155 179 0
153 177 0
153 177 0
154 178 0
158 183 0
150 174 0
150 173 0
151 174 0
149 172 0
145 169 0
148 172 0
149 172 0
155 178 0
149 172 0
146 170 0
152 176 0
142 165 0
146 170 0
149 173 0
147 171 0
151 174 0
140 164 0
139 162 0
147 171 0
143 166 0
144 168 0
144 167 0
151 174 0
138 161 0
137 161 0
137 160 0
138 162 0
140 164 0
139 163 0
144 168 0
143 166 0
132 156 0
141 164 0
133 158 0
133 156 0
132 155 0
136 158 0
125 148 0
128 150 0
136 159 0
129 151 0
122 145 0
133 156 0
132 155 0
135 159 0
124 146 0
126 149 0
135 158 0
121 144 0
119 141 0
137 160 0
131 154 0
131 153 0
122 145 0
123 146 0
125 147 0
115 138 0
126 149 0
135 159 0
128 150 0
130 153 0
130 153 0
110 132 0
120 142 0
119 141 0
132 153 0
123 145 0
126 147 0
125 146 0
120 141 0
120 142 0
113 135 0
123 146 0
130 151 0
124 147 0
120 142 0
119 139 0
119 139 0
117 138 0
120 141 0
117 139 0
123 143 0
117 138 0
118 140 0
121 143 0
123 144 0
123 145 0
114 136 0
124 147 0
119 140 0
126 147 0
115 136 0
125 148 0
129 151 0
119 142 0
111 132 0
121 143 0
128 149 0
119 141 0
120 141 0
122 144 0
119 142 0
118 139 0
122 144 0
115 136 0
117 137 0
115 136 0
122 145 0
120 141 0
124 146 0
124 146 0
120 140 0
129 151 0
127 148 0
116 137 0
122 143 0
115 136 0
128 149 0
127 149 0
130 151 0
124 145 0
121 142 0
129 151 0
114 135 0
121 143 0
127 149 0
132 153 0
137 157 0
126 147 0
128 150 0
121 143 0
130 153 0
121 143 0
125 144 0
133 155 0
131 153 0
137 159 0
139 160 0
128 148 0
122 144 0
121 142 0
120 142 0
124 145 0
140 161 0
132 152 0
132 154 0
134 156 0
127 148 0
140 162 0
127 147 0
136 157 0
134 155 0
135 156 0
129 150 0
116 137 0
136 156 0
141 162 0
126 146 0
131 152 0
133 152 0
132 154 0
139 158 0
142 164 0
140 159 0
139 159 0
141 161 0
140 160 0
141 160 0
143 165 0
135 154 0
137 158 0
141 161 0
137 156 0
137 158 0
137 155 0
145 162 0
142 162 0
136 156 0
133 150 0
140 159 0
144 163 0
144 163 0
139 159 0
137 155 0
141 160 0
146 164 0
146 163 0
140 159 0
139 157 0
145 165 0
141 161 0
142 159 0
140 159 0
140 160 0
143 161 0
141 158 0
145 164 0
136 154 0
139 157 0
153 173 0
149 167 0
144 161 0
149 165 0
141 158 0
141 160 0
145 159 0
148 165 0
146 162 0
146 160 0
140 156 0
147 163 0
148 164 0
152 168 0
146 163 0
151 166 0
144 155 0
149 168 0
150 166 0
147 165 0
149 165 0
146 158 0
145 161 0
149 163 0
143 158 0
145 159 0
150 164 0
145 161 0
142 154 0
151 164 0
151 163 0
155 170 0
148 160 0
153 166 0
152 166 0
151 163 0
148 159 0
154 166 0
157 169 0
155 167 0
147 159 0
156 171 0
154 167 0
150 160 0
154 165 0
150 163 0
156 166 0
155 167 0
153 163 0
158 167 0
157 168 0
154 165 0
153 161 0
151 160 0
156 166 0
152 162 0
153 163 0
156 165 0
155 165 0
156 167 0
155 168 0
158 172 0
160 169 0
157 167 0
155 164 0
154 162 0
155 164 0
154 163 0
154 164 0
158 169 0
160 172 0
155 163 0
152 162 0
157 165 0
156 164 0
158 168 0
156 163 0
160 166 0
159 170 0
153 162 0
159 167 0
152 159 0
163 172 0
155 163 0
156 165 0
157 168 0
155 162 0
158 166 0
170 195 0
168 193 0
171 196 0
170 194 0
171 195 0
169 194 0
168 193 0
170 195 0
169 193 0
171 195 0
171 196 0
172 196 0
169 193 0
170 194 0
170 195 0
171 195 0
171 195 0
168 193 0
167 192 0
169 194 0
169 194 0
169 193 0
170 194 0
170 193 0
172 196 0
165 190 0
167 192 0
168 193 0
167 191 0
168 192 0
171 195 0
167 192 0
165 189 0
169 192 0
168 192 0
169 194 0
167 191 0
166 190 0
169 193 0
163 187 0
165 190 0
170 194 0
163 187 0
166 190 0
167 192 0
167 192 0
168 192 0
164 189 0
164 189 0
166 190 0
166 191 0
166 191 0
166 191 0
169 193 0
168 192 0
167 191 0
163 187 0
164 189 0
162 187 0
164 188 0
165 189 0
164 189 0
159 183 0
163 188 0
162 186 0
166 191 0
165 189 0
161 186 0
159 184 0
158 182 0
159 183 0
164 188 0
160 184 0
160 184 0
159 182 0
160 184 0
163 187 0
155 179 0
161 185 0
157 182 0
160 185 0
158 182 0
157 182 0
156 181 0
162 187 0
157 181 0
157 181 0
160 184 0
156 181 0
160 185 0
151 174 0
160 184 0
152 176 0
157 180 0
158 181 0
153 178 0
151 175 0
152 176 0
156 180 0
155 179 0
149 174 0
148 172 0
158 182 0
155 179 0
159 183 0
152 176 0
156 180 0
150 174 0
158 181 0
156 180 0
145 168 0
150 174 0
150 175 0
147 171 0
146 170 0
151 175 0
153 177 0
143 167 0
145 168 0
143 167 0
131 155 0
148 172 0
144 168 0
150 174 0
147 171 0
144 168 0
145 170 0
150 174 0
140 164 0
145 168 0
150 173 0
146 170 0
145 168 0
147 171 0
141 165 0
140 164 0
142 165 0
139 163 0
140 163 0
127 151 0
129 151 0
144 167 0
142 166 0
143 166 0
139 163 0
144 167 0
138 161 0
137 161 0
128 151 0
137 160 0
132 155 0
126 148 0
126 149 0
142 166 0
127 149 0
138 160 0
140 162 0
131 154 0
124 146 0
130 153 0
122 144 0
134 157 0
138 161 0
126 148 0
123 146 0
121 143 0
130 153 0
133 156 0
137 160 0
126 148 0
124 146 0
113 135 0
130 153 0
119 141 0
133 156 0
129 151 0
120 142 0
126 148 0
126 149 0
119 141 0
126 148 0
115 138 0
127 150 0
124 147 0
120 141 0
120 143 0
125 147 0
123 144 0
123 144 0
122 144 0
121 144 0
119 140 0
119 141 0
129 150 0
124 146 0
126 148 0
117 139 0
118 139 0
126 147 0
121 143 0
124 146 0
128 151 0
117 140 0
116 137 0
114 135 0
121 142 0
124 145 0
126 149 0
115 135 0
121 144 0
115 135 0
124 146 0
128 151 0
107 128 0
120 141 0
124 146 0
128 150 0
125 146 0
125 148 0
127 150 0
122 142 0
127 149 0
116 137 0
122 142 0
122 144 0
109 130 0
123 144 0
114 135 0
124 148 0
125 147 0
119 141 0
122 144 0
129 150 0
128 149 0
121 141 0
122 143 0
122 143 0
125 147 0
131 153 0
120 140 0
120 142 0
129 153 0
126 146 0
122 143 0
126 148 0
118 140 0
129 151 0
135 158 0
129 149 0
129 150 0
140 162 0
121 140 0
131 152 0
128 149 0
130 152 0
133 154 0
138 157 0
131 152 0
133 156 0
131 152 0
134 156 0
131 152 0
132 155 0
136 158 0
138 158 0
138 160 0
134 155 0
133 154 0
129 150 0
125 147 0
140 162 0
141 161 0
146 167 0
137 156 0
143 164 0
143 164 0
137 157 0
138 157 0
138 158 0
135 156 0
147 168 0
129 149 0
142 163 0
142 163 0
139 161 0
137 156 0
137 158 0
143 165 0
139 157 0
144 163 0
144 165 0
131 151 0
143 162 0
145 165 0
142 161 0
145 163 0
144 164 0
148 169 0
151 173 0
150 170 0
149 167 0
144 162 0
150 171 0
148 167 0
143 162 0
138 154 0
142 160 0
140 159 0
147 168 0
143 161 0
146 164 0
144 166 0
141 158 0
147 165 0
147 165 0
146 164 0
145 160 0
144 159 0
143 161 0
148 165 0
144 163 0
152 167 0
143 159 0
147 164 0
149 165 0
148 165 0
148 164 0
145 160 0
147 163 0
148 167 0
152 171 0
147 163 0
149 163 0
150 162 0
148 162 0
145 160 0
148 164 0
152 165 0
153 166 0
153 165 0
147 163 0
153 165 0
151 167 0
150 164 0
149 163 0
153 168 0
150 164 0
152 164 0
153 167 0
150 165 0
148 160 0
149 164 0
152 162 0
148 158 0
151 165 0
154 163 0
154 164 0
156 169 0
151 163 0
153 163 0
155 168 0
158 170 0
152 163 0
153 166 0
154 166 0
156 164 0
151 160 0
154 161 0
154 164 0
153 162 0
154 165 0
154 161 0
157 167 0
156 167 0
154 163 0
154 165 0
156 168 0
156 164 0
156 164 0
158 166 0
157 167 0
156 166 0
153 160 0
157 167 0
155 164 0
155 166 0
155 163 0
155 167 0
156 167 0
159 168 0
155 165 0
158 165 0
160 172 0
156 165 0
159 166 0
159 167 0
159 170 0
157 171 0
164 174 0
158 169 0
171 196 0
167 192 0
169 194 0
170 195 0
171 196 0
170 195 0
171 196 0
169 193 0
169 194 0
169 193 0
171 195 0
169 194 0
170 195 0
168 193 0
170 194 0
171 196 0
167 192 0
164 189 0
167 192 0
168 193 0
170 194 0
167 192 0
168 192 0
167 191 0
169 194 0
167 192 0
168 193 0
171 195 0
169 193 0
169 192 0
167 191 0
165 189 0
165 190 0
169 193 0
165 189 0
168 192 0
168 192 0
170 194 0
170 194 0
167 192 0
165 189 0
163 188 0
164 189 0
170 195 0
165 189 0
165 190 0
162 187 0
170 194 0
169 193 0
162 186 0
161 185 0
162 187 0
165 189 0
161 185 0
165 189 0
164 188 0
160 184 0
165 189 0
164 189 0
164 188 0
157 182 0
170 194 0
162 187 0
166 190 0
162 186 0
162 186 0
163 187 0
163 187 0
163 187 0
161 186 0
157 181 0
167 191 0
163 188 0
160 185 0
162 186 0
152 176 0
160 184 0
160 184 0
160 185 0
160 184 0
161 185 0
164 188 0
161 185 0
159 184 0
156 180 0
157 181 0
162 186 0
154 178 0
158 182 0
155 180 0
153 177 0
163 187 0
153 176 0
158 182 0
153 177 0
154 178 0
159 183 0
150 174 0
152 176 0
162 187 0
152 176 0
158 182 0
156 180 0
151 175 0
153 178 0
157 181 0
151 175 0
146 171 0
150 174 0
153 177 0
155 178 0
152 176 0
154 178 0
145 169 0
148 172 0
148 173 0
150 175 0
147 171 0
155 179 0
155 179 0
142 165 0
149 172 0
152 176 0
140 165 0
145 169 0
142 165 0
148 172 0
147 172 0
146 170 0
140 164 0
142 166 0
142 165 0
138 162 0
132 155 0
140 164 0
143 167 0
138 161 0
138 161 0
135 158 0
142 166 0
135 158 0
136 159 0
143 166 0
125 148 0
136 159 0
135 158 0
139 162 0
142 165 0
132 155 0
140 163 0
132 155 0
131 154 0
134 157 0
134 157 0
135 158 0
142 166 0
130 153 0
135 158 0
130 153 0
141 164 0
138 161 0
126 149 0
135 158 0
126 148 0
139 162 0
129 152 0
115 137 0
118 141 0
129 153 0
121 144 0
123 145 0
128 150 0
122 144 0
130 152 0
125 148 0
121 143 0
132 154 0
121 143 0
118 140 0
114 136 0
120 142 0
126 147 0
126 148 0
123 144 0
119 142 0
121 143 0
123 145 0
126 147 0
119 142 0
128 151 0
124 146 0
117 138 0
118 141 0
120 142 0
114 136 0
113 134 0
119 141 0
117 140 0
123 145 0
124 148 0
115 136 0
126 149 0
126 148 0
115 136 0
123 145 0
120 142 0
125 145 0
123 146 0
127 147 0
129 152 0
122 144 0
123 145 0
120 142 0
113 134 0
128 150 0
120 140 0
122 144 0
122 142 0
125 147 0
118 140 0
126 147 0
122 144 0
126 147 0
119 141 0
130 151 0
117 138 0
126 149 0
130 152 0
133 155 0
122 143 0
127 149 0
128 151 0
126 147 0
138 160 0
132 153 0
123 144 0
124 144 0
126 146 0
119 140 0
120 141 0
126 145 0
128 149 0
130 152 0
134 156 0
125 147 0
125 148 0
125 146 0
131 153 0
129 150 0
133 153 0
130 152 0
129 150 0
138 159 0
137 159 0
134 157 0
137 160 0
126 148 0
128 150 0
133 155 0
137 157 0
133 154 0
136 158 0
135 155 0
130 152 0
137 157 0
133 155 0
134 156 0
124 146 0
137 157 0
134 155 0
141 163 0
143 164 0
136 157 0
137 159 0
133 153 0
136 158 0
133 156 0
139 160 0
138 158 0
137 158 0
136 157 0
139 159 0
137 158 0
141 163 0
150 171 0
144 163 0
136 156 0
143 163 0
142 163 0
145 167 0
146 168 0
136 155 0
142 163 0
140 158 0
148 168 0
147 167 0
143 162 0
140 161 0
142 161 0
139 158 0
141 158 0
145 166 0
139 158 0
146 163 0
144 164 0
136 157 0
147 167 0
143 161 0
146 164 0
146 165 0
147 164 0
142 162 0
148 164 0
141 158 0
144 161 0
146 164 0
144 163 0
142 160 0
143 162 0
149 166 0
142 158 0
147 165 0
149 166 0
145 160 0
151 166 0
153 170 0
147 163 0
154 167 0
153 169 0
145 159 0
149 165 0
152 168 0
147 162 0
147 160 0
150 165 0
152 168 0
153 169 0
154 171 0
154 169 0
151 165 0
155 167 0
147 161 0
150 166 0
155 168 0
144 154 0
150 161 0
150 162 0
154 170 0
148 161 0
150 164 0
147 162 0
153 166 0
151 165 0
154 168 0
152 162 0
154 163 0
152 166 0
153 165 0
151 164 0
156 166 0
155 166 0
151 161 0
154 166 0
156 167 0
155 167 0
152 163 0
151 159 0
150 160 0
160 173 0
153 164 0
152 163 0
161 174 0
152 161 0
155 168 0
157 166 0
155 170 0
153 162 0
155 162 0
157 167 0
156 165 0
151 160 0
156 167 0
158 167 0
156 166 0
155 164 0
159 167 0
161 172 0
161 172 0
155 163 0
160 169 0
155 164 0
160 168 0
154 164 0
156 166 0
157 166 0
156 164 0
155 164 0
160 171 0
157 168 0
159 168 0
169 193 0
168 192 0
170 194 0
168 193 0
171 195 0
171 195 0
169 194 0
170 195 0
168 193 0
167 192 0
170 194 0
170 195 0
170 194 0
168 193 0
169 194 0
171 196 0
170 195 0
170 194 0
168 192 0
169 194 0
167 191 0
166 190 0
170 194 0
170 194 0
166 191 0
165 189 0
168 193 0
171 195 0
171 195 0
169 193 0
168 193 0
167 191 0
167 191 0
167 191 0
165 190 0
168 193 0
166 191 0
167 191 0
167 192 0
167 191 0
165 189 0
167 191 0
162 186 0
166 191 0
170 194 0
163 188 0
164 188 0
164 188 0
165 190 0
166 189 0
163 188 0
165 190 0
164 189 0
163 187 0
165 189 0
166 190 0
157 181 0
165 189 0
166 189 0
165 188 0
163 188 0
163 187 0
167 191 0
161 186 0
162 187 0
167 191 0
164 188 0
153 177 0
163 187 0
159 183 0
161 185 0
158 183 0
160 185 0
157 182 0
160 184 0
156 180 0
159 183 0
162 187 0
159 184 0
163 187 0
155 179 0
157 181 0
157 181 0
159 183 0
152 176 0
155 179 0
162 186 0
157 181 0
159 184 0
154 177 0
160 184 0
160 185 0
162 186 0
153 177 0
160 184 0
148 173 0
156 180 0
156 180 0
159 183 0
158 182 0
161 184 0
147 170 0
158 182 0
156 181 0
151 175 0
154 178 0
158 182 0
158 181 0
149 173 0
151 176 0
149 172 0
148 172 0
144 167 0
150 174 0
157 182 0
151 175 0
145 170 0
144 167 0
148 171 0
155 179 0
155 179 0
148 172 0
151 175 0
146 169 0
147 172 0
150 174 0
146 169 0
144 168 0
148 171 0
138 162 0
144 169 0
147 170 0
138 161 0
147 170 0
142 165 0
141 165 0
143 167 0
142 165 0
145 168 0
135 160 0
150 174 0
139 163 0
139 163 0
136 159 0
146 170 0
141 164 0
135 158 0
130 153 0
137 161 0
129 152 0
147 171 0
127 151 0
139 163 0
138 162 0
142 165 0
133 156 0
129 153 0
136 159 0
136 160 0
133 156 0
135 159 0
131 154 0
126 149 0
131 153 0
132 155 0
116 139 0
124 146 0
134 156 0
124 147 0
115 138 0
134 156 0
128 151 0
127 150 0
132 155 0
124 146 0
132 155 0
129 152 0
131 154 0
131 153 0
129 151 0
130 152 0
128 152 0
124 147 0
126 148 0
127 150 0
125 147 0
119 140 0
120 143 0
127 148 0
126 149 0
123 143 0
121 143 0
125 147 0
113 136 0
114 135 0
118 140 0
134 156 0
131 153 0
117 139 0
126 148 0
125 148 0
126 148 0
125 147 0
129 151 0
125 147 0
120 141 0
126 148 0
125 146 0
124 146 0
119 141 0
114 136 0
125 146 0
128 149 0
130 153 0
126 149 0
123 144 0
119 140 0
129 151 0
125 145 0
124 146 0
124 146 0
125 147 0
128 149 0
132 152 0
116 138 0
119 140 0
113 136 0
121 143 0
116 137 0
127 150 0
121 143 0
125 147 0
118 141 0
124 145 0
130 152 0
133 155 0
123 144 0
124 146 0
125 145 0
131 153 0
130 152 0
128 151 0
140 162 0
138 161 0
128 148 0
126 147 0
120 141 0
128 149 0
128 150 0
122 142 0
130 152 0
130 152 0
135 157 0
130 152 0
129 151 0
127 150 0
138 160 0
137 159 0
124 144 0
148 169 0
137 160 0
141 163 0
132 154 0
132 153 0
131 152 0
130 151 0
138 159 0
132 151 0
140 161 0
132 152 0
141 162 0
135 156 0
147 170 0
133 154 0
145 165 0
140 161 0
137 157 0
137 160 0
142 164 0
135 156 0
141 163 0
137 157 0
136 158 0
141 163 0
138 159 0
141 161 0
144 166 0
140 161 0
139 156 0
134 156 0
148 168 0
147 168 0
139 159 0
142 162 0
141 161 0
142 159 0
142 162 0
144 163 0
144 166 0
142 161 0
149 170 0
138 158 0
140 158 0
147 168 0
146 164 0
147 164 0
148 167 0
148 166 0
146 163 0
140 158 0
146 164 0
150 168 0
135 151 0
146 167 0
148 166 0
141 159 0
152 170 0
151 168 0
148 163 0
150 169 0
141 157 0
152 170 0
139 158 0
147 164 0
148 164 0
149 167 0
150 166 0
151 167 0
146 164 0
149 167 0
153 170 0
154 172 0
151 168 0
152 167 0
148 166 0
153 168 0
155 172 0
149 165 0
146 160 0
149 165 0
151 166 0
155 170 0
149 162 0
157 171 0
150 163 0
152 166 0
148 161 0
154 165 0
157 170 0
154 169 0
153 168 0
153 167 0
149 162 0
150 162 0
151 164 0
153 166 0
157 170 0
156 170 0
152 163 0
155 168 0
152 166 0
156 169 0
156 168 0
153 164 0
156 165 0
153 167 0
156 168 0
153 163 0
152 161 0
156 166 0
154 165 0
152 161 0
156 165 0
152 159 0
151 162 0
155 165 0
159 171 0
157 169 0
153 163 0
157 166 0
158 167 0
156 164 0
158 169 0
154 165 0
157 172 0
156 165 0
151 160 0
154 163 0
159 168 0
157 167 0
157 167 0
161 172 0
156 168 0
157 166 0
160 172 0
160 169 0
155 162 0
161 170 0
156 165 0
161 173 0
171 195 0
171 195 0
170 194 0
169 194 0
168 193 0
171 195 0
172 196 0
171 196 0
169 193 0
166 191 0
171 195 0
168 192 0
168 192 0
168 193 0
167 192 0
170 195 0
169 193 0
165 190 0
169 194 0
169 193 0
170 194 0
168 193 0
167 191 0
166 190 0
165 190 0
169 194 0
164 188 0
167 192 0
166 191 0
165 190 0
168 192 0
170 194 0
167 192 0
166 191 0
163 187 0
166 190 0
168 193 0
168 192 0
165 189 0
163 187 0
166 191 0
168 192 0
164 188 0
167 191 0
169 193 0
167 191 0
165 189 0
168 193 0
165 189 0
165 190 0
161 186 0
163 188 0
165 189 0
166 191 0
163 188 0
164 189 0
166 190 0
162 186 0
165 190 0
161 186 0
155 179 0
159 183 0
153 178 0
166 190 0
159 182 0
165 189 0
164 189 0
163 188 0
164 188 0
164 188 0
162 187 0
159 183 0
159 184 0
162 186 0
158 183 0
159 184 0
161 185 0
157 180 0
163 187 0
164 187 0
158 182 0
158 183 0
158 182 0
165 190 0
157 181 0
157 181 0
157 182 0
156 180 0
156 180 0
163 187 0
152 177 0
155 180 0
157 181 0
155 179 0
157 181 0
149 174 0
157 180 0
160 185 0
156 181 0
151 175 0
156 180 0
149 172 0
149 172 0
156 180 0
154 178 0
152 177 0
160 185 0
146 170 0
148 172 0
158 182 0
143 166 0
150 173 0
152 176 0
151 175 0
152 177 0
156 180 0
152 177 0
151 175 0
143 167 0
135 158 0
146 171 0
144 168 0
147 171 0
145 169 0
144 168 0
149 173 0
150 174 0
149 172 0
145 169 0
144 167 0
129 152 0
149 173 0
149 173 0
140 163 0
139 162 0
141 165 0
133 156 0
143 166 0
147 171 0
145 168 0
141 166 0
138 162 0
133 157 0
142 166 0
147 170 0
144 167 0
137 162 0
136 159 0
133 156 0
144 168 0
132 156 0
137 160 0
134 157 0
137 160 0
129 152 0
132 156 0
143 166 0
138 162 0
133 156 0
127 149 0
136 159 0
134 158 0
126 149 0
131 154 0
125 148 0
133 155 0
120 142 0
133 155 0
135 158 0
133 156 0
138 160 0
125 147 0
120 142 0
128 151 0
128 150 0
130 152 0
132 155 0
124 146 0
127 148 0
117 138 0
131 153 0
120 142 0
122 144 0
117 138 0
126 147 0
120 144 0
121 143 0
117 140 0
126 148 0
129 151 0
133 155 0
124 147 0
119 141 0
125 147 0
134 157 0
127 149 0
120 142 0
117 138 0
119 141 0
124 145 0
116 138 0
125 148 0
125 147 0
114 136 0
126 149 0
131 154 0
114 136 0
119 141 0
134 157 0
134 155 0
123 143 0
113 135 0
124 145 0
117 139 0
133 155 0
127 150 0
120 142 0
125 147 0
130 152 0
126 147 0
130 153 0
121 144 0
121 144 0
126 147 0
127 149 0
130 151 0
132 154 0
121 143 0
135 158 0
127 149 0
121 143 0
132 154 0
121 144 0
132 154 0
128 149 0
130 152 0
129 152 0
126 149 0
137 159 0
130 151 0
137 160 0
126 148 0
118 140 0
131 154 0
135 157 0
131 154 0
127 147 0
122 144 0
125 146 0
130 151 0
134 156 0
131 155 0
130 152 0
129 151 0
135 156 0
128 151 0
133 155 0
131 153 0
141 164 0
137 159 0
135 157 0
133 154 0
144 166 0
132 154 0
138 160 0
130 152 0
134 155 0
137 158 0
127 147 0
135 157 0
138 159 0
138 159 0
128 148 0
128 148 0
136 158 0
136 158 0
139 162 0
137 158 0
136 157 0
136 156 0
134 152 0
147 166 0
143 164 0
138 157 0
147 169 0
143 162 0
138 158 0
139 159 0
150 172 0
145 166 0
146 167 0
139 159 0
150 172 0
145 166 0
147 169 0
138 159 0
141 160 0
144 164 0
140 158 0
145 163 0
145 165 0
144 162 0
144 164 0
151 171 0
147 169 0
142 163 0
147 166 0
153 173 0
138 156 0
143 161 0
150 168 0
145 162 0
149 168 0
143 161 0
146 166 0
141 157 0
140 160 0
143 163 0
141 159 0
150 168 0
148 166 0
157 173 0
146 165 0
155 175 0
151 168 0
149 166 0
147 165 0
147 163 0
152 169 0
149 166 0
146 163 0
157 175 0
144 159 0
153 170 0
147 165 0
159 173 0
152 170 0
150 164 0
153 167 0
158 171 0
149 166 0
153 167 0
148 163 0
152 168 0
154 170 0
146 161 0
152 168 0
158 174 0
161 175 0
150 165 0
156 169 0
158 174 0
155 168 0
149 162 0
153 165 0
148 161 0
158 172 0
152 167 0
156 169 0
149 159 0
150 162 0
160 172 0
155 168 0
158 173 0
151 164 0
155 170 0
156 168 0
153 167 0
155 166 0
157 171 0
154 169 0
159 169 0
154 167 0
152 161 0
159 173 0
160 172 0
154 165 0
155 162 0
152 162 0
157 168 0
158 170 0
154 168 0
160 170 0
158 169 0
161 172 0
160 169 0
157 167 0
157 169 0
162 173 0
161 170 0
159 169 0
156 168 0
161 172 0
159 168 0
160 173 0
156 165 0
157 168 0
159 169 0
160 170 0
157 167 0
168 193 0
170 195 0
170 195 0
170 194 0
169 193 0
171 196 0
167 191 0
168 192 0
171 195 0
169 194 0
171 196 0
168 192 0
170 194 0
171 195 0
166 191 0
170 195 0
169 193 0
168 193 0
168 193 0
168 193 0
170 194 0
165 190 0
169 193 0
164 188 0
162 187 0
166 190 0
167 191 0
165 190 0
165 190 0
167 192 0
167 191 0
165 190 0
165 189 0
166 191 0
167 192 0
167 191 0
167 191 0
169 194 0
166 191 0
164 189 0
164 188 0
160 184 0
165 189 0
160 184 0
166 191 0
165 189 0
167 191 0
166 191 0
164 189 0
165 190 0
166 191 0
169 192 0
164 188 0
164 188 0
166 190 0
163 188 0
169 193 0
164 188 0
165 189 0
165 189 0
161 184 0
163 188 0
161 185 0
164 188 0
158 183 0
163 188 0
162 186 0
165 189 0
163 187 0
156 181 0
163 188 0
162 186 0
159 183 0
162 186 0
161 185 0
159 184 0
160 185 0
161 184 0
153 177 0
157 180 0
163 187 0
159 183 0
159 184 0
158 182 0
156 180 0
160 184 0
161 185 0
165 189 0
162 186 0
156 181 0
160 184 0
159 184 0
158 183 0
157 181 0
150 174 0
154 179 0
156 180 0
151 176 0
146 171 0
152 177 0
154 179 0
154 178 0
152 176 0
150 174 0
153 177 0
152 177 0
157 180 0
153 177 0
152 176 0
152 176 0
156 180 0
155 179 0
154 178 0
149 173 0
150 174 0
148 173 0
149 173 0
149 173 0
154 177 0
145 168 0
153 177 0
143 168 0
147 171 0
156 179 0
144 167 0
147 171 0
146 170 0
147 170 0
150 174 0
143 167 0
137 162 0
142 166 0
147 170 0
140 163 0
138 162 0
143 166 0
142 165 0
134 157 0
137 160 0
145 168 0
142 167 0
137 160 0
141 164 0
139 162 0
139 162 0
139 162 0
140 162 0
127 150 0
144 167 0
136 160 0
139 163 0
132 156 0
139 162 0
138 161 0
133 156 0
136 159 0
125 147 0
132 154 0
128 150 0
127 150 0
128 152 0
137 160 0
131 155 0
131 154 0
138 161 0
137 158 0
122 145 0
128 150 0
125 147 0
128 151 0
122 144 0
124 148 0
131 154 0
129 151 0
121 144 0
122 145 0
124 147 0
114 137 0
128 151 0
129 151 0
126 150 0
122 144 0
127 149 0
127 149 0
115 136 0
129 152 0
121 142 0
129 150 0
126 150 0
122 144 0
127 149 0
123 145 0
125 148 0
128 149 0
124 146 0
120 142 0
122 143 0
120 141 0
133 156 0
121 143 0
137 159 0
120 142 0
116 138 0
124 147 0
133 155 0
126 148 0
126 147 0
126 148 0
126 148 0
114 134 0
135 158 0
121 143 0
139 160 0
131 154 0
126 148 0
131 154 0
124 146 0
125 148 0
131 154 0
134 156 0
133 156 0
126 148 0
125 146 0
123 145 0
127 149 0
135 158 0
128 150 0
134 156 0
125 146 0
137 161 0
130 153 0
131 152 0
127 149 0
132 154 0
133 156 0
126 148 0
135 157 0
126 147 0
136 158 0
121 143 0
123 144 0
136 159 0
133 154 0
138 161 0
136 158 0
123 145 0
134 155 0
130 151 0
126 148 0
138 159 0
135 156 0
136 159 0
140 160 0
133 155 0
133 156 0
133 153 0
129 151 0
136 158 0
133 155 0
131 154 0
133 154 0
130 152 0
133 154 0
138 161 0
133 154 0
134 155 0
139 160 0
134 155 0
143 164 0
138 160 0
140 162 0
146 169 0
134 155 0
136 155 0
146 169 0
140 160 0
143 166 0
151 173 0
139 157 0
144 165 0
143 164 0
142 163 0
146 166 0
131 153 0
142 161 0
148 169 0
142 162 0
140 161 0
143 165 0
142 164 0
141 162 0
150 171 0
137 159 0
142 163 0
140 159 0
149 169 0
144 165 0
145 165 0
131 152 0
152 174 0
139 159 0
146 167 0
146 165 0
151 170 0
144 162 0
146 166 0
144 163 0
148 167 0
149 167 0
146 166 0
148 166 0
141 161 0
147 166 0
142 164 0
144 161 0
146 165 0
149 166 0
143 160 0
147 165 0
147 167 0
148 167 0
153 172 0
147 166 0
147 165 0
150 169 0
148 165 0
152 169 0
145 161 0
147 164 0
149 167 0
155 172 0
147 164 0
150 167 0
144 160 0
157 176 0
151 168 0
147 164 0
152 170 0
152 168 0
155 172 0
152 169 0
152 168 0
143 159 0
147 163 0
150 167 0
153 167 0
153 169 0
150 165 0
152 165 0
148 162 0
153 167 0
152 164 0
152 169 0
151 162 0
154 166 0
153 168 0
152 166 0
146 160 0
151 164 0
150 164 0
155 165 0
146 158 0
160 172 0
154 165 0
156 169 0
155 171 0
155 165 0
158 172 0
156 171 0
154 165 0
154 166 0
156 171 0
157 169 0
159 174 0
152 166 0
160 172 0
160 172 0
162 175 0
159 173 0
157 172 0
155 167 0
156 167 0
157 170 0
158 170 0
157 171 0
156 167 0
156 164 0
158 170 0
158 170 0
163 178 0
158 168 0
158 170 0
158 169 0
156 165 0
158 168 0
156 168 0
157 167 0
153 162 0
158 168 0
158 170 0
170 195 0
170 194 0
170 194 0
171 196 0
170 194 0
170 194 0
168 193 0
171 195 0
169 193 0
167 192 0
166 191 0
170 194 0
167 192 0
168 193 0
167 191 0
169 194 0
166 190 0
166 191 0
170 194 0
167 192 0
168 192 0
167 191 0
165 190 0
168 192 0
168 192 0
166 191 0
169 193 0
165 189 0
168 192 0
165 190 0
169 193 0
166 190 0
165 190 0
167 192 0
170 194 0
169 194 0
163 187 0
166 190 0
167 192 0
170 195 0
163 188 0
170 194 0
166 190 0
168 193 0
165 189 0
166 190 0
168 193 0
161 185 0
164 189 0
162 187 0
163 187 0
166 191 0
164 188 0
166 191 0
164 188 0
161 185 0
157 181 0
164 188 0
161 186 0
163 188 0
165 189 0
157 182 0
163 187 0
163 187 0
163 188 0
163 187 0
167 191 0
161 184 0
163 188 0
164 188 0
161 186 0
157 181 0
159 184 0
158 182 0
158 183 0
168 192 0
162 186 0
161 185 0
155 179 0
162 186 0
164 188 0
164 189 0
160 184 0
159 183 0
159 183 0
159 183 0
162 187 0
157 181 0
159 182 0
160 184 0
159 183 0
156 180 0
158 182 0
160 184 0
154 178 0
154 179 0
160 184 0
155 180 0
151 175 0
151 175 0
158 181 0
150 173 0
160 184 0
157 182 0
154 178 0
157 181 0
154 178 0
147 171 0
152 176 0
147 170 0
149 174 0
149 173 0
151 175 0
153 177 0
146 169 0
149 173 0
160 184 0
154 179 0
144 167 0
153 177 0
144 168 0
150 175 0
136 159 0
143 167 0
149 173 0
150 174 0
146 170 0
146 170 0
146 169 0
146 169 0
143 167 0
145 170 0
134 158 0
145 169 0
143 167 0
142 166 0
139 162 0
137 160 0
138 162 0
148 172 0
138 161 0
136 159 0
143 167 0
132 155 0
134 157 0
140 162 0
143 166 0
137 160 0
134 157 0
136 160 0
139 163 0
127 151 0
140 163 0
144 166 0
135 159 0
135 157 0
133 157 0
134 158 0
133 156 0
137 161 0
134 158 0
137 160 0
122 145 0
139 163 0
130 153 0
135 158 0
129 152 0
130 153 0
135 158 0
144 166 0
142 164 0
129 151 0
138 161 0
129 152 0
123 146 0
143 166 0
125 148 0
131 153 0
128 152 0
128 151 0
129 152 0
132 155 0
129 153 0
127 150 0
126 149 0
122 145 0
134 157 0
127 149 0
124 147 0
126 148 0
126 148 0
127 149 0
133 156 0
129 151 0
130 152 0
131 152 0
126 149 0
128 151 0
125 147 0
125 147 0
129 152 0
117 138 0
123 145 0
130 153 0
122 144 0
123 145 0
132 155 0
118 140 0
120 142 0
129 151 0
136 159 0
133 157 0
124 145 0
129 152 0
119 142 0
126 149 0
133 154 0
137 161 0
123 144 0
130 151 0
130 153 0
128 150 0
127 148 0
125 146 0
126 148 0
129 151 0
119 140 0
132 154 0
125 147 0
131 155 0
131 154 0
135 157 0
127 150 0
128 150 0
134 156 0
127 149 0
127 148 0
124 146 0
130 152 0
125 146 0
137 159 0
134 156 0
136 159 0
128 150 0
135 156 0
131 152 0
124 145 0
125 147 0
130 154 0
136 158 0
128 150 0
132 156 0
139 162 0
129 151 0
132 154 0
135 156 0
127 149 0
134 154 0
135 157 0
137 158 0
130 152 0
138 160 0
134 155 0
144 167 0
137 158 0
144 168 0
136 158 0
131 150 0
141 163 0
144 166 0
135 157 0
141 163 0
143 166 0
143 164 0
147 167 0
132 153 0
141 163 0
142 164 0
148 170 0
131 153 0
140 159 0
143 164 0
138 159 0
139 161 0
140 162 0
148 168 0
149 173 0
136 157 0
142 165 0
137 159 0
139 158 0
145 165 0
140 159 0
134 155 0
146 166 0
147 168 0
143 163 0
147 168 0
143 164 0
145 167 0
145 164 0
136 157 0
137 158 0
147 166 0
152 170 0
144 166 0
147 168 0
146 163 0
151 170 0
137 155 0
145 164 0
147 167 0
147 166 0
144 162 0
153 174 0
150 169 0
142 159 0
148 167 0
142 159 0
146 165 0
151 170 0
145 163 0
140 157 0
149 165 0
151 172 0
143 157 0
147 163 0
150 167 0
149 167 0
151 169 0
150 168 0
150 165 0
153 169 0
155 170 0
149 165 0
153 169 0
147 163 0
151 169 0
151 167 0
156 174 0
156 174 0
148 164 0
153 169 0
156 175 0
153 169 0
155 171 0
154 168 0
152 167 0
152 166 0
155 171 0
154 167 0
155 169 0
154 172 0
158 173 0
148 166 0
153 167 0
162 176 0
153 167 0
156 171 0
154 170 0
156 169 0
153 168 0
157 172 0
159 175 0
153 165 0
153 166 0
154 165 0
159 171 0
156 166 0
159 171 0
154 167 0
157 171 0
158 171 0
153 164 0
158 173 0
154 167 0
152 165 0
155 166 0
158 172 0
161 174 0
153 164 0
156 169 0
150 159 0
161 176 0
157 171 0
157 167 0
157 168 0
153 162 0
158 171 0
151 163 0
156 166 0
159 170 0
161 172 0
158 168 0
156 166 0
157 165 0
161 172 0
160 171 0
156 169 0
155 167 0
169 193 0
168 192 0
170 195 0
170 194 0
170 194 0
170 194 0
170 195 0
171 195 0
170 193 0
166 191 0
169 194 0
171 195 0
170 194 0
166 191 0
168 192 0
169 193 0
170 195 0
168 193 0
168 193 0
168 193 0
168 192 0
171 195 0
171 195 0
170 193 0
169 194 0
167 191 0
168 192 0
171 195 0
169 193 0
168 192 0
169 193 0
169 194 0
167 191 0
166 190 0
165 189 0
164 189 0
168 192 0
168 193 0
167 191 0
169 194 0
163 188 0
165 189 0
166 190 0
166 190 0
161 185 0
163 187 0
163 188 0
163 188 0
167 191 0
167 191 0
157 181 0
169 193 0
163 188 0
163 188 0
165 189 0
168 193 0
162 186 0
159 183 0
165 189 0
164 188 0
166 191 0
156 180 0
167 191 0
162 186 0
157 182 0
166 190 0
162 186 0
161 186 0
161 185 0
164 188 0
160 183 0
160 184 0
164 189 0
162 186 0
158 183 0
159 184 0
157 181 0
158 182 0
156 181 0
157 181 0
157 182 0
166 191 0
158 182 0
160 184 0
154 178 0
155 180 0
153 177 0
159 184 0
160 185 0
158 182 0
159 183 0
152 177 0
155 180 0
157 182 0
156 180 0
152 176 0
161 185 0
163 187 0
159 183 0
157 181 0
153 176 0
148 172 0
155 180 0
149 173 0
151 175 0
155 180 0
159 181 0
141 165 0
149 172 0
154 178 0
152 177 0
152 176 0
148 173 0
150 173 0
141 165 0
155 179 0
143 166 0
147 170 0
150 175 0
147 172 0
152 175 0
143 166 0
141 166 0
150 173 0
151 174 0
141 166 0
144 168 0
143 166 0
134 158 0
143 167 0
140 163 0
147 171 0
138 161 0
139 161 0
133 157 0
147 171 0
140 163 0
138 162 0
141 164 0
142 166 0
146 171 0
136 160 0
137 160 0
144 169 0
139 162 0
127 151 0
140 163 0
134 157 0
135 159 0
141 164 0
141 164 0
145 169 0
136 159 0
142 166 0
134 157 0
144 168 0
136 159 0
128 151 0
131 154 0
130 153 0
133 156 0
133 156 0
139 162 0
127 150 0
144 168 0
137 160 0
135 158 0
143 166 0
124 148 0
135 158 0
135 158 0
133 155 0
131 153 0
125 148 0
124 147 0
129 152 0
127 150 0
125 148 0
132 155 0
124 146 0
129 153 0
122 144 0
132 155 0
128 151 0
127 150 0
119 141 0
135 158 0
131 153 0
132 154 0
140 161 0
127 149 0
121 144 0
122 143 0
122 144 0
127 149 0
133 156 0
125 147 0
122 145 0
127 150 0
133 156 0
116 139 0
126 148 0
123 145 0
121 143 0
128 150 0
124 147 0
121 144 0
127 149 0
126 147 0
129 151 0
128 151 0
110 132 0
129 151 0
126 149 0
138 161 0
120 143 0
134 156 0
121 142 0
121 144 0
114 136 0
118 140 0
130 152 0
129 152 0
125 145 0
123 144 0
123 145 0
142 165 0
135 155 0
124 145 0
133 155 0
126 147 0
133 156 0
133 154 0
124 146 0
125 147 0
132 153 0
136 158 0
138 160 0
136 158 0
127 150 0
139 162 0
137 160 0
129 153 0
136 157 0
138 160 0
131 154 0
135 156 0
129 151 0
135 157 0
134 155 0
134 156 0
137 159 0
133 156 0
145 167 0
131 153 0
140 161 0
136 157 0
134 157 0
135 156 0
141 162 0
133 155 0
131 153 0
136 158 0
135 158 0
132 154 0
133 153 0
133 154 0
144 166 0
132 152 0
140 163 0
137 159 0
143 166 0
138 160 0
137 159 0
133 155 0
131 151 0
134 156 0
138 159 0
147 170 0
146 167 0
146 168 0
141 159 0
139 160 0
137 158 0
147 169 0
147 168 0
145 167 0
145 167 0
148 167 0
150 172 0
140 161 0
143 164 0
140 160 0
141 161 0
145 168 0
149 171 0
134 152 0
135 155 0
133 155 0
143 164 0
147 167 0
138 157 0
146 165 0
145 166 0
144 164 0
144 163 0
149 166 0
142 162 0
145 166 0
143 163 0
149 169 0
147 166 0
149 168 0
145 162 0
141 161 0
153 172 0
144 163 0
143 164 0
150 168 0
150 165 0
144 161 0
151 173 0
148 166 0
150 169 0
150 169 0
148 168 0
147 166 0
149 165 0
144 160 0
148 164 0
142 161 0
148 168 0
151 167 0
146 161 0
152 170 0
150 170 0
151 166 0
155 172 0
151 168 0
148 164 0
151 169 0
153 170 0
154 171 0
156 173 0
148 166 0
155 172 0
150 164 0
152 169 0
150 167 0
156 171 0
144 159 0
151 165 0
150 166 0
155 171 0
150 164 0
152 164 0
154 170 0
158 174 0
150 163 0
155 170 0
150 162 0
152 167 0
156 172 0
151 165 0
155 169 0
154 165 0
152 166 0
154 168 0
160 174 0
153 167 0
156 170 0
152 165 0
155 170 0
149 164 0
157 171 0
157 171 0
156 170 0
153 167 0
154 169 0
153 164 0
154 165 0
155 166 0
159 172 0
156 170 0
157 170 0
157 168 0
157 168 0
156 168 0
161 172 0
154 163 0
159 172 0
158 173 0
161 174 0
158 171 0
158 171 0
158 169 0
157 171 0
163 176 0
161 172 0
159 172 0
171 195 0
167 192 0
169 193 0
167 192 0
169 193 0
170 195 0
168 192 0
166 191 0
166 190 0
170 195 0
168 193 0
170 195 0
168 193 0
168 193 0
167 192 0
165 189 0
166 191 0
168 193 0
168 193 0
165 190 0
166 191 0
166 191 0
169 194 0
169 193 0
167 191 0
167 192 0
169 193 0
166 190 0
165 189 0
166 190 0
163 188 0
168 192 0
164 188 0
161 185 0
168 192 0
167 192 0
166 191 0
165 189 0
164 188 0
161 184 0
165 190 0
165 189 0
170 194 0
165 189 0
167 191 0
166 191 0
166 190 0
165 189 0
167 191 0
166 190 0
166 191 0
163 187 0
166 191 0
161 185 0
163 187 0
164 189 0
165 190 0
163 188 0
162 186 0
164 188 0
161 186 0
166 191 0
164 189 0
159 183 0
165 190 0
164 187 0
161 185 0
157 181 0
163 187 0
155 179 0
163 187 0
162 186 0
154 179 0
163 187 0
154 178 0
158 182 0
159 184 0
157 181 0
164 189 0
158 182 0
160 184 0
161 185 0
156 180 0
158 182 0
160 185 0
162 186 0
160 184 0
159 183 0
160 184 0
154 179 0
160 184 0
161 186 0
159 183 0
155 179 0
157 182 0
154 179 0
159 183 0
156 180 0
152 178 0
152 176 0
150 173 0
152 176 0
148 172 0
158 182 0
155 179 0
153 177 0
148 173 0
158 182 0
154 179 0
149 174 0
147 171 0
156 179 0
150 174 0
143 167 0
156 180 0
154 179 0
152 176 0
145 169 0
149 173 0
154 178 0
147 171 0
147 172 0
149 173 0
141 165 0
144 168 0
154 178 0
143 167 0
140 164 0
155 178 0
139 163 0
144 167 0
148 173 0
144 168 0
140 164 0
143 166 0
150 173 0
144 168 0
136 160 0
147 171 0
140 164 0
142 165 0
147 171 0
144 168 0
138 162 0
139 161 0
136 159 0
140 164 0
136 158 0
135 158 0
142 165 0
131 154 0
136 160 0
132 156 0
136 159 0
129 153 0
138 162 0
130 153 0
130 153 0
132 155 0
136 159 0
141 164 0
131 154 0
131 154 0
134 157 0
130 153 0
136 159 0
130 153 0
134 157 0
140 163 0
135 159 0
139 163 0
135 159 0
127 150 0
135 158 0
132 156 0
138 161 0
123 145 0
126 149 0
132 155 0
134 156 0
131 153 0
140 164 0
130 152 0
126 148 0
132 155 0
133 156 0
129 152 0
127 150 0
130 152 0
134 156 0
125 148 0
130 153 0
132 155 0
125 147 0
127 149 0
135 157 0
139 162 0
124 146 0
134 157 0
135 158 0
131 153 0
139 163 0
131 155 0
130 153 0
126 148 0
125 146 0
122 146 0
124 147 0
127 149 0
127 150 0
133 155 0
122 144 0
134 156 0
124 147 0
133 155 0
126 149 0
123 146 0
123 146 0
111 133 0
125 148 0
133 155 0
125 147 0
131 152 0
129 151 0
131 153 0
129 151 0
133 155 0
133 155 0
133 156 0
138 161 0
137 160 0
130 153 0
132 155 0
121 143 0
127 150 0
139 161 0
126 148 0
133 155 0
134 157 0
143 167 0
125 147 0
135 157 0
132 155 0
140 163 0
124 147 0
120 141 0
129 152 0
133 156 0
137 158 0
132 155 0
133 153 0
136 159 0
140 163 0
127 149 0
134 156 0
133 156 0
138 161 0
140 163 0
134 156 0
131 154 0
140 162 0
136 158 0
134 156 0
144 167 0
139 162 0
134 156 0
135 157 0
139 160 0
140 162 0
140 162 0
145 168 0
142 164 0
143 166 0
143 164 0
144 164 0
143 165 0
136 159 0
133 155 0
144 166 0
133 154 0
147 168 0
136 157 0
143 164 0
146 168 0
145 169 0
145 169 0
145 167 0
144 165 0
148 167 0
143 163 0
143 164 0
143 163 0
138 158 0
150 171 0
141 161 0
140 161 0
150 171 0
144 163 0
145 164 0
144 166 0
144 164 0
149 168 0
149 169 0
145 167 0
141 160 0
141 160 0
147 165 0
148 165 0
150 168 0
155 174 0
147 167 0
146 166 0
146 166 0
150 169 0
146 166 0
148 167 0
151 172 0
151 170 0
147 165 0
148 168 0
151 168 0
150 169 0
150 169 0
150 170 0
150 164 0
150 170 0
147 162 0
148 167 0
152 171 0
148 168 0
153 169 0
148 167 0
147 165 0
145 162 0
152 171 0
151 167 0
155 175 0
153 169 0
151 169 0
148 163 0
145 161 0
146 163 0
154 171 0
151 164 0
155 171 0
156 176 0
147 160 0
150 166 0
155 170 0
150 164 0
155 169 0
153 167 0
157 173 0
156 170 0
157 175 0
156 171 0
154 169 0
154 169 0
155 168 0
153 167 0
159 174 0
152 166 0
157 170 0
153 164 0
155 170 0
156 169 0
156 166 0
154 169 0
155 169 0
157 172 0
154 166 0
154 168 0
154 166 0
152 166 0
154 168 0
155 167 0
154 169 0
152 163 0
156 167 0
155 168 0
155 168 0
160 176 0
157 169 0
156 169 0
156 166 0
154 167 0
160 173 0
158 169 0
156 167 0
156 166 0
156 167 0
155 168 0
158 169 0
159 173 0
155 165 0
158 168 0
162 176 0
159 172 0
158 172 0
157 168 0
172 196 0
167 192 0
171 195 0
170 195 0
169 194 0
167 192 0
168 193 0
171 195 0
168 193 0
168 192 0
170 195 0
168 193 0
171 195 0
167 192 0
165 190 0
167 192 0
169 194 0
168 192 0
170 195 0
168 193 0
165 190 0
170 195 0
169 193 0
168 192 0
167 191 0
166 191 0
168 192 0
169 194 0
167 191 0
166 191 0
166 190 0
163 187 0
168 192 0
168 192 0
169 193 0
166 190 0
168 192 0
165 189 0
166 190 0
167 191 0
166 190 0
165 189 0
166 191 0
167 192 0
164 188 0
163 187 0
168 192 0
164 189 0
160 185 0
166 191 0
169 193 0
164 188 0
163 187 0
160 185 0
164 188 0
164 189 0
165 190 0
165 188 0
162 187 0
164 188 0
165 189 0
163 187 0
157 182 0
162 186 0
162 186 0
165 189 0
163 188 0
159 183 0
164 188 0
161 185 0
157 182 0
162 187 0
166 190 0
163 188 0
159 182 0
157 181 0
161 185 0
157 181 0
157 182 0
158 182 0
158 183 0
159 182 0
156 181 0
159 184 0
161 185 0
157 182 0
154 178 0
160 184 0
154 177 0
160 185 0
157 182 0
150 174 0
158 182 0
157 181 0
161 186 0
149 173 0
159 184 0
145 170 0
155 180 0
158 181 0
155 178 0
158 182 0
159 184 0
156 181 0
144 168 0
153 177 0
153 176 0
150 173 0
158 182 0
154 179 0
155 178 0
152 176 0
157 181 0
160 183 0
147 170 0
151 175 0
152 176 0
149 174 0
148 172 0
157 180 0
147 171 0
152 177 0
151 175 0
146 170 0
149 173 0
146 170 0
141 166 0
147 171 0
145 170 0
143 167 0
146 169 0
147 171 0
143 168 0
136 159 0
145 169 0
152 176 0
141 165 0
139 163 0
140 163 0
135 158 0
148 172 0
133 156 0
146 170 0
145 170 0
141 164 0
146 170 0
138 162 0
134 158 0
137 160 0
131 154 0
135 158 0
133 157 0
133 157 0
137 160 0
137 160 0
129 153 0
140 164 0
140 163 0
141 165 0
136 160 0
133 156 0
135 158 0
134 157 0
141 165 0
128 151 0
131 155 0
132 155 0
140 163 0
131 154 0
139 162 0
134 157 0
132 155 0
132 154 0
125 148 0
138 162 0
131 153 0
140 164 0
124 148 0
125 147 0
135 157 0
133 156 0
129 152 0
129 153 0
136 160 0
123 143 0
135 157 0
137 160 0
136 159 0
129 152 0
126 149 0
131 154 0
130 153 0
122 144 0
140 163 0
127 151 0
132 154 0
134 157 0
125 147 0
121 143 0
135 157 0
131 154 0
133 156 0
126 148 0
133 156 0
124 147 0
126 149 0
137 160 0
125 147 0
126 149 0
130 153 0
138 159 0
122 143 0
129 151 0
129 151 0
136 159 0
134 158 0
130 152 0
130 151 0
127 148 0
129 150 0
129 152 0
122 144 0
130 152 0
121 142 0
131 154 0
129 152 0
131 153 0
128 151 0
130 151 0
132 155 0
123 146 0
128 150 0
122 143 0
128 149 0
133 155 0
131 154 0
133 157 0
124 145 0
127 149 0
140 163 0
124 146 0
134 157 0
133 155 0
136 158 0
132 154 0
132 154 0
133 156 0
139 162 0
138 160 0
140 163 0
143 166 0
135 158 0
134 156 0
131 153 0
140 161 0
139 161 0
134 156 0
140 162 0
132 154 0
142 165 0
138 159 0
142 163 0
136 157 0
140 162 0
134 155 0
141 164 0
134 157 0
144 167 0
142 164 0
139 160 0
129 150 0
133 156 0
141 162 0
130 152 0
144 167 0
142 164 0
140 162 0
142 165 0
140 163 0
146 168 0
141 163 0
141 164 0
138 159 0
141 162 0
141 163 0
144 166 0
142 163 0
140 162 0
139 161 0
145 169 0
149 170 0
145 167 0
142 162 0
148 170 0
147 167 0
141 161 0
142 161 0
137 157 0
144 164 0
142 162 0
141 162 0
149 168 0
150 172 0
141 162 0
146 167 0
146 168 0
142 163 0
149 168 0
149 168 0
145 165 0
149 171 0
150 172 0
150 169 0
144 160 0
146 166 0
150 169 0
149 170 0
147 167 0
150 171 0
153 170 0
151 172 0
143 161 0
147 166 0
151 168 0
150 168 0
150 168 0
148 167 0
149 169 0
149 168 0
149 168 0
151 170 0
153 170 0
150 170 0
152 169 0
150 169 0
151 167 0
156 176 0
154 174 0
147 164 0
152 171 0
150 166 0
153 169 0
154 173 0
146 162 0
156 170 0
152 164 0
156 175 0
153 166 0
149 165 0
150 165 0
150 167 0
150 165 0
151 167 0
152 170 0
152 166 0
154 170 0
156 171 0
158 175 0
155 171 0
155 168 0
151 165 0
152 164 0
154 168 0
154 169 0
157 170 0
160 177 0
159 173 0
152 164 0
150 165 0
156 169 0
157 170 0
152 168 0
151 167 0
155 168 0
152 164 0
154 170 0
161 175 0
158 171 0
156 170 0
159 171 0
158 169 0
161 175 0
157 172 0
158 171 0
155 169 0
158 172 0
156 167 0
157 169 0
161 176 0
159 175 0
157 168 0
162 174 0
160 170 0
157 170 0
162 176 0
157 168 0
160 173 0
160 170 0
161 174 0
161 173 0
168 192 0
170 194 0
169 194 0
172 196 0
168 192 0
168 193 0
169 193 0
168 193 0
170 195 0
168 193 0
168 192 0
170 195 0
166 191 0
169 194 0
171 195 0
167 192 0
168 193 0
170 195 0
167 192 0
166 191 0
168 193 0
170 194 0
167 192 0
168 192 0
167 191 0
169 193 0
168 191 0
168 192 0
168 193 0
168 193 0
168 192 0
167 192 0
166 191 0
159 183 0
167 192 0
166 191 0
165 189 0
162 187 0
166 190 0
164 189 0
165 189 0
165 189 0
161 185 0
164 189 0
168 193 0
166 190 0
163 188 0
162 186 0
160 184 0
167 191 0
165 190 0
162 187 0
161 185 0
166 190 0
168 192 0
165 189 0
160 185 0
164 189 0
166 190 0
164 188 0
158 182 0
164 188 0
157 182 0
165 189 0
163 187 0
161 186 0
158 182 0
158 183 0
158 182 0
163 188 0
161 185 0
161 186 0
162 186 0
161 185 0
156 180 0
163 188 0
159 183 0
155 180 0
158 182 0
156 180 0
157 181 0
163 187 0
159 183 0
158 182 0
161 185 0
152 177 0
161 185 0
160 183 0
157 181 0
157 181 0
157 182 0
150 175 0
156 180 0
158 183 0
154 178 0
156 180 0
154 178 0
158 182 0
153 178 0
154 178 0
155 179 0
158 183 0
158 184 0
155 179 0
146 170 0
157 181 0
151 176 0
153 177 0
156 181 0
150 175 0
149 173 0
148 172 0
152 177 0
143 167 0
155 180 0
151 175 0
153 178 0
154 178 0
145 168 0
153 176 0
156 180 0
147 172 0
143 167 0
145 169 0
148 172 0
141 166 0
150 173 0
154 179 0
147 170 0
141 165 0
144 169 0
144 167 0
147 170 0
148 172 0
139 162 0
137 161 0
144 167 0
142 166 0
147 171 0
142 166 0
143 167 0
144 167 0
143 167 0
145 168 0
147 170 0
131 155 0
138 163 0
140 163 0
137 162 0
134 157 0
138 162 0
139 162 0
143 167 0
146 171 0
141 165 0
132 156 0
145 167 0
136 160 0
136 159 0
132 155 0
141 164 0
141 164 0
136 160 0
126 149 0
135 160 0
137 160 0
132 155 0
130 153 0
132 156 0
131 154 0
138 160 0
125 149 0
129 152 0
130 152 0
140 163 0
131 155 0
131 154 0
131 155 0
130 153 0
139 162 0
127 150 0
130 153 0
129 151 0
129 151 0
138 161 0
132 155 0
122 144 0
135 158 0
136 160 0
130 153 0
129 151 0
136 160 0
132 154 0
128 151 0
130 153 0
128 151 0
126 148 0
138 162 0
134 157 0
126 149 0
135 159 0
125 148 0
125 147 0
131 154 0
133 156 0
125 148 0
122 145 0
132 155 0
125 148 0
120 143 0
129 152 0
134 157 0
128 150 0
136 159 0
136 160 0
128 150 0
127 149 0
124 147 0
135 158 0
132 154 0
136 158 0
135 158 0
133 157 0
125 148 0
134 157 0
142 165 0
135 157 0
132 156 0
121 143 0
130 154 0
125 147 0
133 155 0
136 159 0
137 159 0
127 148 0
143 167 0
138 160 0
130 152 0
128 151 0
126 148 0
129 151 0
126 148 0
126 146 0
132 155 0
136 160 0
134 158 0
136 160 0
136 159 0
138 162 0
126 148 0
138 160 0
137 159 0
128 151 0
131 154 0
142 165 0
133 154 0
140 163 0
141 163 0
137 160 0
132 154 0
135 157 0
133 155 0
141 164 0
143 165 0
140 163 0
136 159 0
142 163 0
140 162 0
141 164 0
145 168 0
142 165 0
143 166 0
139 162 0
134 156 0
146 168 0
144 165 0
135 156 0
146 166 0
145 169 0
143 165 0
145 166 0
145 167 0
147 170 0
135 157 0
146 167 0
143 165 0
148 169 0
143 164 0
152 172 0
137 160 0
146 168 0
146 167 0
146 169 0
148 169 0
151 172 0
143 165 0
144 166 0
145 166 0
141 161 0
149 169 0
145 166 0
149 170 0
143 161 0
152 174 0
147 169 0
140 162 0
148 169 0
147 168 0
148 168 0
156 176 0
148 169 0
149 172 0
145 165 0
145 164 0
152 173 0
150 172 0
145 165 0
140 160 0
150 168 0
148 167 0
147 163 0
150 169 0
151 170 0
156 175 0
148 168 0
145 166 0
154 173 0
157 178 0
150 168 0
149 168 0
156 176 0
154 172 0
148 165 0
150 167 0
150 168 0
146 163 0
149 168 0
152 170 0
153 168 0
152 169 0
151 167 0
148 165 0
150 166 0
151 168 0
155 174 0
153 172 0
150 167 0
154 167 0
154 172 0
157 173 0
157 175 0
152 166 0
150 167 0
148 162 0
155 170 0
158 175 0
155 170 0
156 171 0
155 171 0
156 171 0
155 172 0
160 175 0
157 173 0
150 164 0
157 172 0
153 165 0
156 171 0
155 167 0
155 168 0
151 165 0
156 173 0
154 167 0
156 168 0
154 169 0
156 170 0
155 170 0
162 175 0
158 170 0
157 170 0
157 172 0
161 174 0
159 174 0
154 168 0
156 172 0
156 172 0
157 171 0
162 175 0
162 175 0
159 171 0
159 172 0
159 173 0
159 171 0
160 178 0
159 170 0
161 172 0
153 164 0
162 175 0
156 169 0
158 169 0
158 166 0
169 194 0
170 195 0
168 193 0
171 196 0
166 190 0
168 193 0
170 194 0
169 193 0
168 192 0
168 193 0
167 191 0
170 195 0
170 193 0
163 187 0
167 191 0
168 193 0
168 193 0
168 192 0
168 193 0
168 192 0
163 188 0
169 194 0
170 194 0
165 190 0
165 190 0
168 193 0
169 193 0
170 194 0
166 191 0
163 187 0
163 187 0
167 191 0
165 189 0
168 192 0
163 188 0
167 192 0
170 194 0
165 189 0
165 189 0
168 192 0
163 187 0
163 188 0
166 190 0
166 191 0
162 186 0
165 189 0
167 192 0
163 187 0
163 188 0
163 188 0
156 181 0
163 188 0
167 191 0
155 179 0
161 186 0
166 191 0
162 186 0
166 190 0
164 189 0
167 191 0
166 190 0
165 189 0
164 189 0
160 184 0
162 185 0
159 184 0
157 181 0
163 187 0
162 187 0
167 191 0
166 191 0
165 190 0
157 181 0
159 184 0
163 187 0
160 184 0
153 178 0
164 189 0
158 182 0
160 184 0
159 183 0
159 183 0
159 184 0
158 182 0
161 186 0
162 186 0
161 185 0
157 180 0
159 184 0
157 181 0
150 175 0
155 179 0
159 183 0
160 184 0
158 182 0
146 170 0
150 174 0
155 179 0
149 173 0
146 170 0
154 179 0
156 180 0
152 176 0
152 176 0
153 177 0
153 178 0
152 176 0
153 177 0
146 170 0
152 177 0
154 178 0
152 176 0
151 175 0
153 177 0
144 168 0
150 174 0
149 174 0
150 175 0
156 180 0
151 175 0
149 172 0
142 166 0
139 163 0
150 173 0
150 174 0
144 168 0
153 177 0
143 168 0
154 178 0
151 175 0
139 162 0
141 164 0
138 162 0
138 163 0
139 163 0
153 177 0
142 164 0
144 168 0
147 171 0
147 170 0
139 163 0
136 160 0
141 166 0
138 161 0
145 169 0
141 164 0
147 171 0
141 164 0
141 165 0
139 163 0
135 158 0
135 158 0
134 156 0
139 163 0
137 160 0
139 162 0
135 159 0
145 169 0
136 159 0
132 156 0
136 160 0
140 164 0
138 161 0
131 154 0
127 151 0
140 162 0
137 160 0
130 154 0
131 154 0
140 164 0
135 157 0
126 149 0
131 154 0
136 159 0
135 159 0
136 159 0
138 161 0
123 146 0
138 161 0
135 158 0
129 151 0
139 163 0
136 159 0
134 158 0
133 157 0
129 152 0
118 141 0
139 162 0
131 155 0
133 156 0
126 148 0
123 146 0
137 160 0
128 150 0
124 147 0
130 153 0
126 149 0
127 150 0
128 151 0
132 155 0
131 153 0
134 156 0
131 154 0
134 156 0
137 159 0
133 155 0
135 159 0
130 153 0
135 157 0
129 152 0
131 153 0
133 156 0
131 154 0
131 152 0
133 156 0
133 157 0
139 161 0
130 152 0
121 143 0
125 148 0
127 150 0
134 158 0
135 158 0
139 163 0
127 149 0
136 160 0
128 151 0
129 152 0
130 152 0
133 157 0
128 151 0
137 160 0
127 150 0
128 150 0
121 143 0
129 150 0
132 155 0
139 161 0
135 159 0
137 159 0
137 158 0
132 153 0
124 147 0
137 160 0
140 162 0
134 157 0
141 165 0
139 161 0
136 158 0
133 156 0
135 157 0
136 158 0
141 162 0
138 160 0
144 166 0
139 161 0
132 154 0
146 168 0
142 164 0
127 149 0
145 167 0
142 165 0
138 160 0
142 164 0
144 165 0
138 160 0
140 161 0
143 164 0
143 165 0
142 164 0
138 159 0
140 162 0
139 162 0
151 174 0
138 159 0
141 164 0
142 163 0
147 168 0
140 162 0
139 162 0
148 171 0
151 173 0
142 163 0
136 157 0
142 164 0
142 165 0
144 165 0
137 160 0
155 177 0
140 160 0
147 168 0
148 168 0
147 169 0
141 165 0
147 168 0
152 174 0
143 163 0
145 167 0
145 167 0
151 171 0
144 167 0
152 174 0
139 159 0
140 158 0
148 168 0
149 171 0
151 172 0
143 164 0
142 164 0
148 167 0
152 174 0
149 168 0
147 169 0
143 164 0
153 173 0
147 167 0
150 172 0
150 170 0
147 167 0
154 175 0
148 166 0
151 169 0
151 171 0
148 167 0
149 168 0
153 171 0
149 167 0
147 167 0
152 170 0
152 170 0
150 170 0
150 167 0
149 170 0
145 164 0
152 167 0
153 172 0
148 165 0
151 167 0
151 169 0
150 167 0
156 177 0
149 165 0
152 171 0
154 172 0
152 169 0
157 176 0
154 172 0
155 173 0
152 169 0
153 172 0
153 170 0
154 170 0
157 172 0
157 174 0
154 171 0
151 167 0
154 169 0
152 167 0
158 172 0
152 169 0
159 173 0
159 174 0
152 169 0
151 165 0
162 177 0
157 172 0
159 176 0
155 170 0
154 171 0
157 172 0
155 171 0
151 164 0
157 173 0
156 173 0
157 172 0
157 172 0
158 171 0
157 169 0
159 174 0
161 177 0
158 173 0
158 173 0
156 166 0
155 167 0
158 171 0
161 174 0
155 171 0
161 176 0
155 165 0
157 170 0
155 168 0
156 171 0
158 173 0
160 174 0
155 169 0
157 169 0
159 171 0
162 174 0
155 167 0
163 178 0
167 192 0
168 192 0
167 192 0
169 193 0
166 191 0
169 193 0
170 194 0
171 196 0
168 193 0
167 192 0
169 194 0
171 195 0
169 193 0
168 193 0
168 193 0
169 194 0
168 193 0
165 189 0
169 193 0
166 191 0
164 188 0
170 194 0
166 190 0
171 196 0
167 192 0
166 191 0
164 189 0
167 191 0
169 193 0
169 193 0
163 188 0
167 191 0
166 190 0
166 191 0
166 190 0
166 190 0
167 191 0
167 192 0
166 190 0
167 192 0
167 191 0
167 191 0
167 191 0
159 183 0
164 189 0
168 193 0
160 185 0
161 186 0
162 187 0
162 186 0
165 190 0
168 192 0
166 190 0
163 188 0
165 190 0
164 189 0
159 184 0
163 189 0
162 186 0
163 188 0
159 184 0
162 187 0
165 190 0
157 181 0
160 185 0
164 188 0
158 183 0
159 184 0
163 187 0
159 183 0
162 187 0
161 185 0
161 185 0
157 182 0
163 188 0
160 184 0
161 186 0
159 185 0
156 180 0
161 185 0
159 183 0
160 185 0
161 185 0
154 178 0
160 184 0
155 178 0
159 184 0
156 180 0
158 181 0
159 184 0
153 178 0
160 184 0
157 181 0
157 181 0
152 177 0
154 179 0
155 180 0
157 181 0
156 180 0
157 182 0
151 175 0
149 174 0
149 174 0
155 180 0
151 175 0
150 174 0
154 178 0
153 178 0
153 177 0
155 180 0
145 170 0
157 181 0
148 173 0
147 171 0
154 178 0
155 179 0
156 180 0
147 171 0
149 174 0
152 176 0
149 173 0
144 168 0
145 170 0
143 168 0
147 170 0
146 170 0
151 175 0
142 167 0
143 167 0
140 164 0
153 176 0
146 170 0
147 172 0
147 171 0
141 165 0
143 168 0
145 168 0
144 168 0
149 173 0
131 155 0
142 167 0
141 164 0
132 157 0
143 167 0
150 174 0
138 162 0
147 171 0
139 163 0
139 162 0
135 159 0
136 160 0
142 166 0
136 160 0
144 167 0
142 167 0
128 152 0
140 164 0
130 154 0
140 163 0
134 156 0
127 151 0
143 166 0
134 157 0
142 165 0
128 151 0
136 160 0
137 159 0
134 157 0
135 158 0
141 165 0
140 163 0
130 153 0
144 167 0
131 153 0
132 155 0
141 165 0
135 159 0
138 160 0
131 154 0
136 160 0
130 153 0
135 157 0
128 151 0
127 150 0
137 159 0
132 155 0
131 154 0
131 153 0
134 156 0
134 158 0
127 150 0
116 139 0
129 153 0
127 151 0
124 146 0
128 150 0
130 153 0
131 154 0
127 151 0
131 154 0
119 141 0
133 156 0
132 154 0
123 146 0
131 153 0
124 146 0
127 149 0
124 147 0
136 158 0
138 162 0
138 161 0
135 158 0
129 152 0
126 150 0
119 141 0
132 155 0
134 157 0
128 150 0
123 145 0
130 153 0
128 151 0
127 149 0
126 148 0
127 149 0
133 155 0
134 157 0
136 159 0
126 149 0
132 155 0
136 158 0
134 157 0
137 159 0
131 154 0
140 163 0
135 156 0
128 152 0
134 157 0
136 158 0
134 158 0
129 152 0
134 157 0
127 150 0
135 157 0
130 153 0
140 164 0
142 164 0
135 157 0
140 163 0
137 158 0
129 151 0
135 158 0
138 161 0
138 160 0
143 166 0
137 159 0
142 165 0
135 159 0
138 160 0
141 163 0
134 157 0
142 166 0
136 157 0
134 155 0
141 163 0
147 170 0
140 162 0
135 157 0
139 161 0
132 154 0
139 161 0
134 155 0
130 153 0
141 162 0
143 164 0
141 163 0
134 156 0
138 159 0
142 165 0
145 166 0
142 164 0
142 164 0
141 165 0
151 173 0
138 158 0
141 162 0
138 159 0
143 165 0
139 161 0
144 164 0
140 161 0
143 164 0
142 164 0
148 168 0
145 165 0
143 166 0
150 171 0
149 170 0
153 176 0
152 174 0
148 171 0
147 167 0
146 165 0
143 165 0
142 164 0
151 174 0
150 172 0
146 167 0
148 166 0
151 172 0
145 166 0
147 167 0
145 164 0
149 170 0
152 172 0
154 176 0
142 162 0
154 172 0
151 170 0
147 166 0
141 160 0
156 176 0
149 166 0
149 168 0
148 165 0
149 166 0
144 163 0
152 172 0
153 174 0
149 169 0
149 168 0
154 172 0
152 170 0
148 164 0
147 165 0
153 171 0
152 170 0
152 171 0
149 166 0
151 171 0
157 175 0
152 170 0
153 171 0
149 166 0
155 172 0
152 170 0
148 165 0
154 170 0
150 166 0
147 168 0
155 173 0
155 172 0
155 172 0
153 172 0
155 171 0
154 170 0
155 173 0
156 172 0
160 175 0
155 173 0
156 171 0
149 166 0
151 167 0
161 176 0
158 174 0
151 166 0
153 168 0
153 169 0
158 176 0
151 165 0
151 164 0
154 169 0
153 167 0
159 176 0
155 170 0
155 169 0
158 172 0
157 171 0
155 169 0
160 173 0
155 169 0
160 175 0
156 170 0
157 172 0
154 165 0
158 174 0
156 171 0
156 170 0
156 171 0
162 176 0
161 175 0
161 175 0
159 171 0
149 164 0
154 167 0
161 176 0
161 175 0
161 174 0
157 169 0
158 173 0
156 172 0
169 194 0
169 193 0
166 191 0
171 196 0
170 195 0
167 192 0
167 191 0
166 191 0
168 192 0
167 191 0
167 192 0
169 194 0
168 193 0
166 191 0
169 193 0
167 191 0
167 191 0
170 194 0
164 188 0
167 193 0
167 192 0
168 192 0
170 195 0
162 187 0
170 194 0
165 189 0
166 190 0
165 190 0
165 189 0
171 196 0
168 193 0
169 194 0
168 193 0
167 191 0
167 192 0
166 191 0
164 189 0
164 189 0
170 193 0
162 186 0
166 190 0
167 190 0
167 191 0
167 192 0
163 188 0
165 190 0
163 188 0
164 189 0
164 188 0
166 190 0
162 187 0
165 188 0
167 191 0
165 190 0
164 188 0
163 188 0
158 182 0
154 179 0
160 184 0
161 186 0
166 190 0
165 189 0
161 185 0
161 185 0
161 186 0
164 188 0
161 187 0
156 181 0
162 187 0
153 177 0
162 186 0
161 185 0
162 185 0
158 182 0
156 180 0
157 181 0
163 188 0
158 182 0
161 185 0
162 186 0
158 182 0
158 182 0
155 179 0
160 183 0
154 178 0
161 185 0
158 183 0
154 179 0
155 180 0
152 176 0
162 186 0
156 181 0
159 183 0
154 179 0
153 178 0
155 180 0
152 176 0
151 175 0
153 178 0
153 177 0
157 181 0
160 185 0
150 174 0
150 174 0
152 176 0
152 177 0
151 175 0
153 178 0
153 177 0
153 177 0
145 168 0
150 175 0
150 175 0
145 170 0
148 172 0
152 176 0
156 181 0
150 174 0
153 178 0
140 164 0
149 173 0
150 173 0
148 173 0
149 173 0
142 166 0
142 166 0
145 169 0
143 167 0
149 173 0
143 166 0
143 167 0
143 168 0
148 172 0
149 173 0
148 172 0
146 170 0
147 171 0
143 166 0
142 165 0
152 176 0
148 172 0
142 166 0
148 172 0
133 156 0
138 162 0
136 160 0
142 165 0
131 155 0
145 169 0
141 165 0
141 165 0
129 152 0
143 167 0
133 156 0
146 169 0
140 165 0
141 164 0
138 161 0
146 170 0
136 159 0
137 161 0
129 153 0
144 168 0
132 155 0
134 157 0
141 164 0
138 162 0
140 164 0
131 154 0
140 163 0
135 158 0
134 158 0
129 152 0
138 161 0
126 149 0
132 156 0
136 160 0
139 162 0
134 157 0
139 163 0
130 153 0
134 157 0
140 163 0
142 165 0
131 154 0
134 158 0
140 163 0
140 164 0
131 154 0
135 158 0
135 159 0
134 157 0
133 157 0
135 157 0
135 157 0
126 149 0
134 158 0
129 152 0
132 155 0
133 156 0
125 148 0
123 146 0
123 144 0
137 160 0
129 152 0
136 158 0
128 152 0
132 154 0
130 153 0
125 147 0
128 151 0
128 151 0
137 159 0
123 146 0
131 154 0
137 161 0
137 160 0
137 160 0
132 155 0
129 150 0
122 143 0
133 155 0
131 155 0
128 149 0
129 151 0
142 165 0
137 160 0
133 155 0
127 150 0
135 157 0
125 147 0
138 160 0
141 163 0
139 162 0
134 156 0
125 147 0
135 159 0
135 158 0
136 159 0
136 159 0
131 153 0
126 148 0
139 162 0
137 160 0
139 161 0
139 162 0
142 166 0
129 152 0
136 157 0
132 155 0
135 157 0
134 157 0
136 158 0
137 159 0
135 157 0
147 171 0
143 166 0
143 165 0
131 153 0
149 171 0
139 162 0
143 167 0
147 169 0
142 164 0
140 165 0
138 160 0
134 156 0
141 163 0
139 161 0
145 168 0
137 160 0
137 160 0
145 169 0
136 158 0
140 163 0
147 170 0
148 170 0
140 163 0
149 172 0
142 164 0
142 163 0
143 165 0
145 167 0
145 167 0
153 175 0
134 154 0
140 163 0
147 169 0
148 171 0
148 170 0
140 162 0
147 168 0
147 169 0
143 165 0
143 163 0
146 168 0
143 163 0
150 170 0
153 176 0
141 160 0
152 174 0
145 165 0
138 159 0
153 174 0
144 166 0
141 161 0
144 163 0
141 163 0
147 165 0
144 165 0
146 167 0
153 173 0
156 177 0
149 167 0
148 169 0
154 177 0
149 170 0
156 180 0
153 174 0
148 168 0
150 169 0
147 167 0
143 162 0
151 171 0
151 170 0
149 168 0
152 173 0
145 163 0
155 174 0
150 169 0
149 168 0
155 177 0
152 172 0
153 170 0
149 168 0
145 164 0
155 176 0
155 176 0
154 172 0
148 166 0
151 169 0
152 171 0
155 172 0
153 173 0
154 170 0
153 171 0
154 173 0
151 170 0
145 163 0
155 172 0
152 167 0
153 174 0
156 174 0
155 174 0
147 166 0
149 168 0
148 167 0
156 174 0
154 169 0
156 170 0
158 174 0
151 168 0
149 164 0
155 171 0
156 173 0
151 166 0
152 170 0
156 171 0
155 167 0
151 168 0
153 168 0
157 172 0
155 172 0
157 174 0
156 173 0
156 170 0
152 165 0
157 173 0
156 169 0
157 175 0
157 169 0
156 169 0
157 170 0
159 172 0
154 168 0
156 168 0
157 172 0
159 175 0
158 173 0
152 167 0
158 173 0
161 175 0
157 173 0
155 168 0
156 169 0
158 168 0
159 173 0
159 173 0
157 169 0
160 172 0
171 195 0
168 192 0
168 193 0
170 194 0
168 192 0
171 196 0
168 192 0
170 194 0
167 191 0
166 191 0
171 195 0
170 194 0
167 192 0
167 191 0
169 194 0
165 190 0
170 194 0
162 187 0
165 189 0
163 188 0
165 189 0
170 194 0
168 192 0
170 194 0
166 191 0
170 195 0
169 193 0
169 193 0
167 192 0
164 188 0
163 187 0
165 190 0
164 188 0
169 193 0
164 189 0
165 189 0
165 189 0
167 191 0
163 188 0
166 190 0
164 189 0
170 194 0
162 187 0
165 190 0
164 188 0
162 186 0
161 185 0
165 189 0
163 188 0
169 193 0
165 190 0
162 187 0
166 191 0
160 184 0
165 190 0
165 190 0
162 187 0
159 184 0
166 190 0
161 185 0
161 186 0
162 186 0
157 181 0
166 191 0
160 185 0
164 188 0
159 184 0
157 182 0
161 185 0
164 188 0
156 180 0
166 190 0
163 187 0
167 191 0
156 181 0
159 183 0
158 182 0
160 185 0
160 185 0
150 174 0
153 178 0
158 183 0
155 180 0
155 180 0
158 183 0
152 177 0
156 179 0
156 180 0
157 181 0
153 178 0
159 183 0
159 183 0
153 177 0
153 178 0
150 174 0
152 176 0
148 172 0
159 184 0
155 179 0
159 184 0
158 182 0
156 180 0
154 179 0
160 185 0
155 180 0
150 174 0
152 176 0
163 188 0
154 179 0
149 174 0
151 176 0
155 180 0
155 178 0
153 177 0
152 177 0
148 171 0
152 177 0
152 177 0
155 179 0
150 174 0
149 173 0
150 174 0
146 170 0
145 169 0
145 170 0
150 173 0
146 171 0
153 176 0
146 170 0
147 172 0
147 172 0
142 166 0
149 173 0
147 171 0
148 172 0
146 171 0
143 167 0
138 162 0
145 169 0
143 167 0
142 166 0
143 166 0
146 170 0
141 163 0
147 171 0
138 162 0
143 167 0
142 166 0
141 165 0
138 161 0
143 167 0
145 169 0
137 161 0
140 164 0
144 169 0
140 164 0
146 170 0
133 157 0
139 162 0
136 159 0
146 170 0
137 161 0
140 164 0
135 158 0
126 150 0
136 160 0
128 151 0
135 159 0
134 158 0
139 162 0
138 161 0
138 163 0
128 151 0
135 160 0
139 163 0
130 153 0
145 168 0
132 155 0
140 163 0
141 165 0
138 161 0
140 164 0
131 154 0
141 165 0
134 156 0
128 151 0
138 162 0
135 158 0
128 151 0
129 153 0
134 157 0
136 159 0
129 152 0
139 162 0
130 153 0
128 151 0
136 159 0
125 148 0
126 150 0
123 146 0
134 158 0
126 150 0
134 157 0
139 162 0
140 164 0
135 158 0
134 157 0
128 151 0
135 158 0
133 156 0
137 159 0
133 155 0
130 153 0
124 146 0
139 161 0
129 151 0
136 158 0
128 152 0
133 156 0
131 155 0
124 148 0
125 148 0
124 148 0
136 159 0
132 155 0
138 161 0
134 157 0
132 154 0
131 153 0
128 151 0
133 157 0
140 164 0
126 149 0
140 164 0
143 167 0
141 164 0
128 150 0
144 167 0
133 155 0
135 158 0
131 153 0
137 159 0
144 168 0
133 156 0
139 161 0
132 154 0
141 163 0
143 167 0
136 159 0
128 149 0
146 170 0
144 167 0
140 163 0
137 158 0
135 157 0
138 162 0
143 166 0
133 155 0
139 162 0
133 155 0
140 163 0
145 167 0
137 158 0
145 168 0
140 162 0
146 169 0
148 170 0
152 176 0
139 162 0
135 157 0
140 163 0
134 155 0
146 169 0
144 166 0
147 170 0
145 167 0
144 167 0
138 161 0
149 172 0
145 167 0
146 169 0
145 167 0
137 158 0
139 162 0
145 168 0
146 169 0
147 169 0
145 167 0
147 169 0
145 169 0
148 171 0
143 166 0
146 169 0
154 177 0
145 166 0
147 167 0
147 168 0
149 172 0
145 167 0
143 163 0
152 175 0
148 170 0
145 167 0
143 164 0
149 172 0
146 167 0
153 176 0
144 166 0
148 168 0
150 172 0
138 160 0
147 166 0
149 172 0
146 167 0
147 167 0
146 166 0
153 174 0
144 165 0
151 173 0
152 171 0
150 168 0
148 169 0
144 164 0
146 167 0
150 170 0
154 172 0
147 167 0
149 169 0
157 176 0
153 171 0
150 169 0
148 169 0
147 166 0
146 163 0
158 177 0
150 170 0
154 174 0
155 173 0
142 162 0
154 174 0
152 170 0
153 172 0
149 169 0
151 168 0
154 172 0
154 172 0
153 172 0
154 174 0
154 171 0
159 177 0
160 177 0
152 172 0
151 169 0
154 172 0
157 172 0
153 169 0
159 176 0
147 162 0
150 167 0
148 165 0
161 177 0
152 168 0
155 174 0
159 177 0
155 174 0
153 169 0
154 168 0
152 167 0
149 163 0
156 172 0
157 170 0
153 168 0
156 172 0
154 166 0
155 172 0
160 173 0
159 175 0
158 171 0
155 169 0
154 170 0
157 173 0
158 172 0
156 170 0
159 177 0
157 170 0
159 176 0
158 172 0
163 175 0
161 177 0
158 169 0
156 168 0
161 176 0
161 175 0
159 171 0
163 177 0
153 164 0
159 174 0
159 173 0
160 173 0
155 167 0
167 191 0
170 195 0
169 193 0
167 192 0
170 195 0
171 195 0
167 192 0
169 194 0
166 191 0
171 195 0
168 191 0
172 196 0
169 194 0
168 192 0
167 191 0
168 193 0
166 191 0
168 193 0
168 192 0
166 191 0
168 192 0
167 191 0
168 192 0
166 190 0
168 193 0
168 192 0
165 189 0
161 185 0
166 190 0
166 190 0
159 184 0
160 185 0
166 191 0
167 192 0
168 193 0
169 193 0
165 189 0
164 188 0
169 193 0
164 189 0
162 187 0
165 190 0
159 184 0
163 188 0
164 188 0
162 186 0
163 187 0
158 182 0
166 190 0
165 189 0
168 192 0
165 189 0
164 187 0
163 187 0
166 191 0
161 185 0
159 184 0
163 187 0
159 183 0
163 188 0
162 186 0
159 183 0
162 187 0
163 187 0
162 186 0
162 186 0
166 190 0
164 189 0
159 183 0
167 191 0
163 187 0
159 184 0
163 187 0
160 186 0
161 186 0
160 184 0
156 180 0
158 182 0
159 184 0
154 179 0
159 184 0
154 178 0
157 181 0
155 181 0
157 182 0
155 179 0
160 184 0
157 181 0
155 179 0
157 181 0
156 181 0
157 182 0
154 178 0
155 180 0
159 183 0
156 181 0
149 174 0
155 179 0
160 184 0
156 181 0
152 177 0
158 181 0
151 176 0
154 178 0
150 175 0
154 178 0
149 173 0
153 179 0
149 173 0
153 177 0
157 181 0
157 182 0
148 172 0
152 176 0
151 174 0
148 172 0
156 180 0
151 175 0
147 170 0
156 180 0
142 166 0
146 170 0
137 161 0
154 179 0
141 165 0
149 174 0
145 170 0
146 170 0
146 171 0
146 170 0
149 174 0
149 174 0
150 173 0
145 170 0
145 169 0
143 167 0
147 172 0
139 162 0
138 162 0
145 169 0
145 170 0
141 165 0
135 159 0
136 160 0
143 167 0
144 167 0
143 166 0
143 167 0
149 173 0
146 170 0
142 166 0
145 169 0
136 159 0
145 168 0
137 161 0
137 161 0
138 163 0
133 157 0
141 164 0
132 156 0
140 164 0
143 168 0
132 156 0
134 157 0
138 162 0
135 159 0
135 158 0
130 153 0
135 159 0
140 164 0
140 164 0
140 164 0
138 162 0
135 159 0
133 156 0
133 157 0
143 167 0
140 164 0
141 166 0
132 155 0
137 161 0
134 158 0
134 158 0
134 158 0
130 153 0
134 158 0
138 162 0
131 153 0
137 161 0
135 159 0
143 167 0
128 151 0
136 159 0
133 156 0
132 155 0
125 147 0
135 157 0
128 151 0
136 159 0
136 159 0
132 155 0
135 158 0
137 160 0
126 148 0
126 149 0
133 156 0
135 158 0
134 157 0
128 150 0
138 161 0
136 160 0
133 156 0
143 168 0
137 160 0
142 166 0
140 163 0
135 158 0
129 151 0
131 155 0
136 159 0
137 161 0
145 169 0
125 148 0
132 154 0
136 159 0
129 152 0
145 168 0
133 156 0
134 156 0
134 156 0
132 155 0
137 159 0
137 160 0
138 161 0
143 166 0
135 157 0
136 159 0
129 151 0
136 159 0
144 168 0
140 164 0
134 157 0
137 160 0
128 151 0
141 164 0
133 155 0
133 155 0
137 158 0
143 165 0
140 162 0
128 150 0
133 155 0
131 154 0
143 167 0
137 160 0
139 163 0
128 150 0
130 151 0
143 165 0
128 151 0
143 165 0
137 159 0
136 158 0
146 169 0
135 158 0
144 168 0
145 168 0
135 158 0
137 160 0
141 165 0
141 161 0
140 163 0
142 163 0
147 170 0
149 171 0
144 167 0
145 168 0
141 161 0
146 168 0
145 166 0
146 168 0
139 162 0
146 169 0
148 172 0
135 156 0
146 168 0
148 170 0
142 165 0
142 164 0
148 170 0
146 169 0
149 170 0
146 168 0
140 161 0
147 170 0
146 169 0
143 164 0
149 169 0
142 164 0
152 173 0
150 171 0
154 176 0
151 170 0
146 167 0
143 164 0
136 156 0
150 172 0
156 178 0
146 164 0
153 173 0
149 169 0
150 170 0
149 171 0
149 171 0
150 170 0
152 171 0
146 166 0
149 170 0
149 169 0
153 175 0
148 169 0
146 164 0
149 169 0
153 174 0
152 171 0
147 168 0
154 174 0
152 172 0
152 171 0
153 173 0
154 173 0
150 171 0
149 167 0
156 174 0
151 170 0
152 172 0
145 165 0
154 174 0
148 169 0
155 174 0
153 170 0
154 175 0
153 170 0
152 170 0
156 174 0
153 173 0
150 169 0
153 172 0
150 168 0
152 170 0
156 175 0
155 173 0
156 175 0
150 167 0
153 171 0
157 175 0
158 177 0
154 172 0
153 170 0
152 171 0
158 173 0
152 171 0
151 167 0
159 175 0
153 168 0
159 174 0
156 175 0
154 170 0
157 177 0
151 165 0
156 172 0
158 176 0
153 169 0
157 173 0
158 176 0
156 174 0
160 176 0
162 180 0
163 179 0
156 173 0
156 174 0
154 170 0
159 175 0
157 173 0
158 172 0
158 171 0
156 171 0
154 166 0
156 167 0
159 174 0
155 169 0
159 174 0
159 172 0
162 175 0
155 170 0
159 170 0
160 176 0
155 170 0
158 170 0
155 167 0
167 191 0
170 195 0
170 194 0
168 192 0
167 192 0
168 192 0
169 193 0
168 193 0
168 193 0
169 194 0
167 192 0
167 192 0
169 193 0
167 192 0
166 191 0
169 193 0
167 191 0
164 189 0
168 193 0
165 189 0
163 188 0
164 188 0
165 189 0
168 193 0
166 190 0
165 189 0
165 189 0
169 194 0
167 191 0
169 193 0
163 187 0
168 191 0
164 189 0
162 186 0
163 188 0
165 190 0
169 194 0
163 188 0
164 189 0
168 193 0
165 189 0
164 189 0
162 187 0
164 189 0
164 188 0
162 186 0
160 185 0
169 193 0
166 190 0
164 189 0
166 191 0
159 183 0
166 190 0
165 190 0
163 187 0
163 186 0
163 188 0
164 189 0
165 189 0
161 186 0
162 186 0
164 189 0
160 185 0
155 180 0
165 190 0
163 187 0
161 186 0
153 177 0
157 182 0
161 184 0
165 190 0
159 183 0
156 180 0
159 183 0
163 187 0
158 182 0
157 182 0
158 183 0
160 184 0
151 176 0
161 185 0
159 183 0
157 181 0
156 181 0
160 184 0
160 184 0
150 175 0
163 188 0
160 184 0
153 178 0
156 181 0
155 180 0
155 180 0
159 182 0
164 189 0
159 184 0
149 173 0
155 179 0
156 180 0
151 176 0
152 177 0
146 171 0
155 180 0
153 178 0
157 181 0
150 175 0
151 174 0
154 179 0
161 185 0
152 176 0
157 181 0
154 179 0
155 179 0
150 175 0
145 170 0
147 171 0
151 175 0
148 172 0
141 166 0
149 174 0
147 171 0
146 170 0
150 174 0
146 171 0
153 177 0
147 170 0
148 173 0
145 169 0
147 171 0
150 175 0
145 170 0
149 173 0
148 172 0
142 166 0
139 163 0
138 161 0
141 164 0
142 166 0
143 167 0
140 164 0
140 165 0
148 172 0
135 158 0
139 164 0
147 171 0
149 172 0
144 169 0
135 159 0
136 160 0
141 164 0
144 168 0
146 170 0
137 161 0
136 159 0
133 156 0
148 173 0
138 162 0
144 168 0
143 167 0
135 158 0
143 166 0
141 165 0
138 162 0
134 158 0
139 163 0
132 156 0
142 166 0
133 157 0
139 162 0
134 157 0
137 162 0
131 154 0
133 157 0
130 154 0
142 166 0
143 166 0
126 150 0
143 167 0
139 161 0
132 155 0
134 156 0
140 163 0
139 162 0
138 162 0
131 153 0
127 151 0
140 163 0
129 152 0
127 149 0
138 161 0
131 155 0
138 161 0
137 160 0
136 159 0
136 160 0
141 165 0
135 157 0
128 151 0
125 149 0
128 151 0
131 154 0
126 149 0
132 155 0
138 161 0
132 156 0
132 155 0
134 157 0
139 162 0
135 157 0
133 156 0
137 160 0
126 149 0
140 163 0
136 160 0
139 163 0
135 157 0
140 163 0
135 157 0
137 160 0
136 158 0
133 156 0
136 160 0
132 155 0
127 150 0
131 154 0
141 164 0
139 162 0
139 163 0
129 151 0
130 152 0
137 161 0
138 161 0
139 162 0
140 163 0
127 150 0
130 152 0
130 152 0
132 155 0
134 156 0
139 163 0
134 156 0
131 153 0
136 159 0
134 155 0
135 158 0
140 163 0
137 161 0
129 151 0
146 169 0
141 164 0
137 160 0
138 158 0
146 168 0
146 169 0
139 161 0
139 162 0
143 165 0
144 167 0
140 164 0
142 165 0
134 157 0
139 162 0
141 162 0
136 159 0
142 164 0
146 169 0
137 159 0
140 162 0
136 158 0
147 169 0
132 154 0
142 164 0
139 161 0
143 166 0
135 156 0
147 170 0
138 159 0
143 166 0
143 164 0
140 163 0
143 165 0
139 161 0
145 167 0
146 168 0
145 167 0
142 163 0
146 166 0
148 172 0
149 171 0
151 173 0
143 165 0
144 167 0
147 168 0
148 168 0
158 179 0
143 164 0
146 169 0
145 165 0
144 164 0
144 166 0
152 174 0
151 172 0
143 165 0
150 171 0
146 168 0
147 168 0
152 173 0
145 167 0
154 177 0
149 170 0
148 171 0
151 171 0
147 168 0
147 168 0
147 164 0
147 166 0
150 171 0
141 162 0
147 166 0
157 179 0
146 165 0
149 170 0
153 175 0
147 168 0
147 168 0
152 172 0
149 169 0
150 169 0
156 177 0
151 172 0
146 165 0
153 173 0
155 174 0
147 164 0
152 170 0
160 178 0
156 176 0
147 167 0
153 172 0
156 176 0
147 166 0
154 172 0
162 182 0
148 169 0
153 171 0
149 166 0
159 177 0
156 175 0
150 168 0
156 173 0
155 173 0
157 174 0
156 175 0
155 172 0
151 167 0
158 178 0
155 174 0
154 171 0
155 172 0
153 172 0
155 174 0
158 174 0
155 172 0
150 168 0
161 177 0
150 169 0
158 176 0
157 174 0
153 170 0
156 173 0
152 168 0
151 169 0
159 174 0
155 171 0
159 175 0
153 170 0
154 168 0
154 170 0
159 170 0
153 171 0
162 179 0
159 176 0
162 179 0
160 176 0
160 175 0
158 171 0
155 172 0
153 170 0
159 172 0
156 172 0
157 174 0
160 174 0
161 180 0
161 177 0
158 173 0
161 176 0
161 176 0
156 168 0
164 181 0
156 168 0
